Assets/Art/Materials/LUT/2strip.CUBE
#Created by: Adobe Photoshop Export Color Lookup Plugin
TITLE "Frame.exr"
#LUT size
LUT_3D_SIZE 8
#data domain
#LUT data points
DOMAIN_MIN 0.000000 0.000000 0.000000
DOMAIN_MAX 0.903226 0.903226 0.903226
0.000000 0.000000 0.000000
0.008703 0.000000 0.000000
0.059128 0.000000 0.000000
0.221480 0.000000 0.000000
0.670818 0.000000 0.000000
1.000000 0.000000 0.000000
1.000000 0.000000 0.000000
1.000000 0.000000 0.000000
0.000000 0.006962 0.006962
0.008703 0.006962 0.006962
0.059128 0.006962 0.006962
0.221480 0.006962 0.006962
0.670818 0.006962 0.006962
1.000000 0.006962 0.006962
1.000000 0.006962 0.006962
1.000000 0.006962 0.006962
0.000000 0.047302 0.047302
0.008703 0.047302 0.047302
0.059128 0.047302 0.047302
0.221480 0.047302 0.047302
0.670818 0.047302 0.047302
1.000000 0.047302 0.047302
1.000000 0.047302 0.047302
1.000000 0.047302 0.047302
0.000000 0.177183 0.177183
0.008703 0.177183 0.177183
0.059128 0.177183 0.177183
0.221480 0.177183 0.177183
0.670818 0.177183 0.177183
1.000000 0.177183 0.177183
1.000000 0.177183 0.177183
1.000000 0.177183 0.177183
0.000000 0.536647 0.536647
0.008703 0.536647 0.536647
0.059128 0.536647 0.536647
0.221480 0.536647 0.536647
0.670818 0.536647 0.536647
1.000000 0.536647 0.536647
1.000000 0.536647 0.536647
1.000000 0.536647 0.536647
0.000000 0.827222 0.827222
0.008703 0.827222 0.827222
0.059128 0.827222 0.827222
0.221480 0.827222 0.827222
0.670818 0.827222 0.827222
1.000000 0.827222 0.827222
1.000000 0.827222 0.827222
1.000000 0.827222 0.827222
0.000000 0.827222 0.827222
0.008703 0.827222 0.827222
0.059128 0.827222 0.827222
0.221480 0.827222 0.827222
0.670818 0.827222 0.827222
1.000000 0.827222 0.827222
1.000000 0.827222 0.827222
1.000000 0.827222 0.827222
0.000000 0.827221 0.827222
0.008703 0.827221 0.827222
0.059128 0.827221 0.827222
0.221480 0.827221 0.827222
0.670818 0.827221 0.827222
1.000000 0.827221 0.827222
1.000000 0.827221 0.827222
1.000000 0.827221 0.827222
0.000000 0.001741 0.001741
0.008703 0.001741 0.001741
0.059128 0.001741 0.001741
0.221480 0.001741 0.001741
0.670818 0.001741 0.001741
1.000000 0.001741 0.001741
1.000000 0.001741 0.001741
1.000000 0.001741 0.001741
0.000000 0.008703 0.008703
0.008703 0.008703 0.008703
0.059128 0.008703 0.008703
0.221480 0.008703 0.008703
0.670818 0.008703 0.008703
1.000000 0.008703 0.008703
1.000000 0.008703 0.008703
1.000000 0.008703 0.008703
0.000000 0.049042 0.049042
0.008703 0.049042 0.049042
0.059128 0.049042 0.049042
0.221480 0.049042 0.049042
0.670818 0.049042 0.049042
1.000000 0.049042 0.049042
1.000000 0.049042 0.049042
1.000000 0.049042 0.049042
0.000000 0.178923 0.178923
0.008703 0.178923 0.178923
0.059128 0.178923 0.178923
0.221480 0.178923 0.178923
0.670818 0.178923 0.178923
1.000000 0.178923 0.178923
1.000000 0.178923 0.178923
1.000000 0.178923 0.178923
0.000000 0.538387 0.538387
0.008703 0.538387 0.538387
0.059128 0.538387 0.538387
0.221480 0.538387 0.538387
0.670818 0.538387 0.538387
1.000000 0.538387 0.538387
1.000000 0.538387 0.538387
1.000000 0.538387 0.538387
0.000000 0.828962 0.828962
0.008703 0.828962 0.828962
0.059128 0.828962 0.828962
0.221480 0.828962 0.828962
0.670818 0.828962 0.828962
1.000000 0.828962 0.828962
1.000000 0.828962 0.828962
1.000000 0.828962 0.828962
0.000000 0.828962 0.828962
0.008703 0.828962 0.828962
0.059128 0.828962 0.828962
0.221480 0.828962 0.828962
0.670818 0.828962 0.828962
1.000000 0.828962 0.828962
1.000000 0.828962 0.828962
1.000000 0.828962 0.828962
0.000000 0.828962 0.828962
0.008703 0.828962 0.828962
0.059128 0.828962 0.828962
0.221480 0.828962 0.828962
0.670818 0.828962 0.828962
1.000000 0.828962 0.828962
1.000000 0.828962 0.828962
1.000000 0.828962 0.828962
0.000000 0.011827 0.011827
0.008703 0.011827 0.011827
0.059128 0.011827 0.011827
0.221480 0.011827 0.011827
0.670818 0.011827 0.011827
1.000000 0.011827 0.011827
1.000000 0.011827 0.011827
1.000000 0.011827 0.011827
0.000000 0.018789 0.018789
0.008703 0.018789 0.018789
0.059128 0.018789 0.018789
0.221480 0.018789 0.018789
0.670818 0.018789 0.018789
1.000000 0.018789 0.018789
1.000000 0.018789 0.018789
1.000000 0.018789 0.018789
0.000000 0.059128 0.059128
0.008703 0.059128 0.059128
0.059128 0.059128 0.059128
0.221480 0.059128 0.059128
0.670818 0.059128 0.059128
1.000000 0.059128 0.059128
1.000000 0.059128 0.059128
1.000000 0.059128 0.059128
0.000000 0.189009 0.189009
0.008703 0.189009 0.189009
0.059128 0.189009 0.189009
0.221480 0.189009 0.189009
0.670818 0.189009 0.189009
1.000000 0.189009 0.189009
1.000000 0.189009 0.189009
1.000000 0.189009 0.189009
0.000000 0.548473 0.548473
0.008703 0.548473 0.548473
0.059128 0.548473 0.548473
0.221480 0.548473 0.548473
0.670818 0.548473 0.548473
1.000000 0.548473 0.548473
1.000000 0.548473 0.548473
1.000000 0.548473 0.548473
0.000000 0.839048 0.839048
0.008703 0.839048 0.839048
0.059128 0.839048 0.839048
0.221480 0.839048 0.839048
0.670818 0.839048 0.839048
1.000000 0.839048 0.839048
1.000000 0.839048 0.839048
1.000000 0.839048 0.839048
0.000000 0.839048 0.839048
0.008703 0.839048 0.839048
0.059128 0.839048 0.839048
0.221480 0.839048 0.839049
0.670818 0.839048 0.839048
1.000000 0.839048 0.839048
1.000000 0.839048 0.839048
1.000000 0.839048 0.839048
0.000000 0.839048 0.839048
0.008703 0.839048 0.839048
0.059128 0.839048 0.839048
0.221480 0.839048 0.839048
0.670818 0.839048 0.839049
1.000000 0.839048 0.839048
1.000000 0.839048 0.839048
1.000000 0.839048 0.839048
0.000000 0.044298 0.044298
0.008703 0.044298 0.044298
0.059128 0.044298 0.044298
0.221480 0.044298 0.044298
0.670818 0.044298 0.044298
1.000000 0.044298 0.044298
1.000000 0.044298 0.044298
1.000000 0.044298 0.044298
0.000000 0.051261 0.051261
0.008703 0.051261 0.051261
0.059128 0.051261 0.051261
0.221480 0.051261 0.051261
0.670818 0.051261 0.051261
1.000000 0.051261 0.051261
1.000000 0.051261 0.051261
1.000000 0.051261 0.051261
0.000000 0.091603 0.091603
0.008703 0.091603 0.091603
0.059128 0.091603 0.091603
0.221480 0.091603 0.091603
0.670818 0.091603 0.091603
1.000000 0.091603 0.091603
1.000000 0.091603 0.091603
1.000000 0.091603 0.091603
0.000000 0.221480 0.221480
0.008703 0.221480 0.221480
0.059128 0.221480 0.221480
0.221480 0.221480 0.221480
0.670818 0.221480 0.221480
1.000000 0.221480 0.221480
1.000000 0.221480 0.221480
1.000000 0.221480 0.221480
0.000000 0.580944 0.580944
0.008703 0.580944 0.580944
0.059128 0.580944 0.580944
0.221480 0.580944 0.580944
0.670818 0.580944 0.580944
1.000000 0.580944 0.580944
1.000000 0.580944 0.580944
1.000000 0.580944 0.580944
0.000000 0.871520 0.871520
0.008703 0.871520 0.871520
0.059128 0.871520 0.871520
0.221480 0.871520 0.871520
0.670818 0.871520 0.871520
1.000000 0.871520 0.871520
1.000000 0.871520 0.871520
1.000000 0.871520 0.871520
0.000000 0.871520 0.871520
0.008703 0.871520 0.871520
0.059128 0.871520 0.871520
0.221480 0.871520 0.871520
0.670818 0.871520 0.871520
1.000000 0.871520 0.871520
1.000000 0.871520 0.871520
1.000000 0.871520 0.871520
0.000000 0.871519 0.871520
0.008703 0.871519 0.871520
0.059128 0.871519 0.871520
0.221480 0.871519 0.871520
0.670818 0.871519 0.871520
1.000000 0.871519 0.871520
1.000000 0.871519 0.871520
1.000000 0.871519 0.871520
0.000000 0.134161 0.134161
0.008703 0.134161 0.134161
0.059128 0.134161 0.134161
0.221480 0.134161 0.134161
0.670818 0.134161 0.134161
1.000000 0.134161 0.134161
1.000000 0.134161 0.134161
1.000000 0.134161 0.134161
0.000000 0.141123 0.141123
0.008703 0.141123 0.141123
0.059128 0.141123 0.141123
0.221480 0.141123 0.141123
0.670818 0.141123 0.141123
1.000000 0.141123 0.141123
1.000000 0.141123 0.141123
1.000000 0.141123 0.141123
0.000000 0.181467 0.181467
0.008703 0.181467 0.181467
0.059128 0.181467 0.181467
0.221480 0.181467 0.181467
0.670818 0.181467 0.181467
1.000000 0.181467 0.181467
1.000000 0.181467 0.181467
1.000000 0.181467 0.181467
0.000000 0.311355 0.311355
0.008703 0.311355 0.311355
0.059128 0.311355 0.311355
0.221480 0.311355 0.311355
0.670818 0.311355 0.311355
1.000000 0.311355 0.311355
1.000000 0.311355 0.311355
1.000000 0.311355 0.311355
0.000000 0.670818 0.670818
0.008703 0.670818 0.670818
0.059128 0.670818 0.670818
0.221480 0.670818 0.670818
0.670818 0.670818 0.670818
1.000000 0.670818 0.670818
1.000000 0.670818 0.670818
1.000000 0.670818 0.670818
0.000000 0.961382 0.961382
0.008703 0.961382 0.961382
0.059128 0.961382 0.961382
0.221480 0.961382 0.961382
0.670818 0.961382 0.961382
1.000000 0.961382 0.961382
1.000000 0.961382 0.961382
1.000000 0.961382 0.961382
0.000000 0.961382 0.961382
0.008703 0.961382 0.961382
0.059128 0.961382 0.961382
0.221480 0.961382 0.961382
0.670818 0.961382 0.961382
1.000000 0.961382 0.961382
1.000000 0.961382 0.961382
1.000000 0.961382 0.961382
0.000000 0.961382 0.961382
0.008703 0.961382 0.961382
0.059128 0.961382 0.961382
0.221480 0.961382 0.961382
0.670818 0.961382 0.961382
1.000000 0.961382 0.961382
1.000000 0.961382 0.961382
1.000000 0.961382 0.961382
0.000000 0.206805 0.206805
0.008703 0.206805 0.206805
0.059128 0.206805 0.206805
0.221480 0.206805 0.206805
0.670818 0.206805 0.206805
1.000000 0.206805 0.206805
1.000000 0.206805 0.206805
1.000000 0.206805 0.206805
0.000000 0.213768 0.213768
0.008703 0.213768 0.213768
0.059128 0.213768 0.213768
0.221480 0.213768 0.213768
0.670818 0.213768 0.213768
1.000000 0.213768 0.213768
1.000000 0.213768 0.213768
1.000000 0.213768 0.213768
0.000000 0.254107 0.254107
0.008703 0.254107 0.254107
0.059128 0.254107 0.254107
0.221480 0.254107 0.254107
0.670818 0.254107 0.254107
1.000000 0.254107 0.254107
1.000000 0.254107 0.254107
1.000000 0.254107 0.254107
0.000000 0.383988 0.383988
0.008703 0.383988 0.383988
0.059128 0.383988 0.383988
0.221480 0.383988 0.383988
0.670818 0.383988 0.383988
1.000000 0.383988 0.383988
1.000000 0.383988 0.383988
1.000000 0.383988 0.383988
0.000000 0.743452 0.743452
0.008703 0.743452 0.743452
0.059128 0.743452 0.743452
0.221480 0.743452 0.743452
0.670818 0.743452 0.743452
1.000000 0.743452 0.743452
1.000000 0.743452 0.743452
1.000000 0.743452 0.743452
0.000000 1.000000 1.000000
0.008703 1.000000 1.000000
0.059128 1.000000 1.000000
0.221480 1.000000 1.000000
0.670818 1.000000 1.000000
1.000000 1.000000 1.000000
1.000000 1.000000 1.000000
1.000000 1.000000 1.000000
0.000000 1.000000 1.000000
0.008703 1.000000 1.000000
0.059128 1.000000 1.000000
0.221480 1.000000 1.000000
0.670818 1.000000 1.000000
1.000000 1.000000 1.000000
1.000000 1.000000 1.000000
1.000000 1.000000 1.000000
0.000000 1.000000 1.000000
0.008703 1.000000 1.000000
0.059128 1.000000 1.000000
0.221480 1.000000 1.000000
0.670818 1.000000 1.000000
1.000000 1.000000 1.000000
1.000000 1.000000 1.000000
1.000000 1.000000 1.000000
0.000000 0.206805 0.206805
0.008703 0.206805 0.206805
0.059128 0.206805 0.206805
0.221480 0.206805 0.206805
0.670818 0.206805 0.206805
1.000000 0.206805 0.206805
1.000000 0.206805 0.206805
1.000000 0.206805 0.206805
0.000000 0.213768 0.213768
0.008703 0.213768 0.213768
0.059128 0.213768 0.213768
0.221480 0.213768 0.213768
0.670818 0.213768 0.213768
1.000000 0.213768 0.213768
1.000000 0.213768 0.213768
1.000000 0.213768 0.213768
0.000000 0.254107 0.254107
0.008703 0.254107 0.254107
0.059128 0.254107 0.254107
0.221480 0.254107 0.254107
0.670818 0.254107 0.254107
1.000000 0.254107 0.254107
1.000000 0.254107 0.254107
1.000000 0.254107 0.254107
0.000000 0.383988 0.383988
0.008703 0.383988 0.383988
0.059128 0.383988 0.383988
0.221480 0.383988 0.383988
0.670818 0.383988 0.383988
1.000000 0.383988 0.383988
1.000000 0.383988 0.383988
1.000000 0.383988 0.383988
0.000000 0.743452 0.743452
0.008703 0.743452 0.743452
0.059128 0.743452 0.743452
0.221480 0.743452 0.743452
0.670818 0.743452 0.743452
1.000000 0.743452 0.743452
1.000000 0.743452 0.743452
1.000000 0.743452 0.743452
0.000000 1.000000 1.000000
0.008703 1.000000 1.000000
0.059128 1.000000 1.000000
0.221480 1.000000 1.000000
0.670818 1.000000 1.000000
1.000000 1.000000 1.000000
1.000000 1.000000 1.000000
1.000000 1.000000 1.000000
0.000000 1.000000 1.000000
0.008703 1.000000 1.000000
0.059128 1.000000 1.000000
0.221480 1.000000 1.000000
0.670818 1.000000 1.000000
1.000000 1.000000 1.000000
1.000000 1.000000 1.000000
1.000000 1.000000 1.000000
0.000000 1.000000 1.000000
0.008703 1.000000 1.000000
0.059128 1.000000 1.000000
0.221480 1.000000 1.000000
0.670818 1.000000 1.000000
1.000000 1.000000 1.000000
1.000000 1.000000 1.000000
1.000000 1.000000 1.000000
0.000000 0.206805 0.206806
0.008703 0.206805 0.206806
0.059128 0.206805 0.206806
0.221480 0.206805 0.206806
0.670818 0.206805 0.206806
1.000000 0.206805 0.206806
1.000000 0.206805 0.206806
1.000000 0.206805 0.206806
0.000000 0.213768 0.213768
0.008703 0.213768 0.213768
0.059128 0.213768 0.213768
0.221480 0.213768 0.213768
0.670818 0.213768 0.213768
1.000000 0.213768 0.213768
1.000000 0.213768 0.213768
1.000000 0.213768 0.213768
0.000000 0.254107 0.254107
0.008703 0.254107 0.254107
0.059128 0.254107 0.254107
0.221480 0.254107 0.254107
0.670818 0.254107 0.254107
1.000000 0.254107 0.254107
1.000000 0.254107 0.254107
1.000000 0.254107 0.254107
0.000000 0.383988 0.383987
0.008703 0.383988 0.383987
0.059128 0.383988 0.383987
0.221480 0.383988 0.383987
0.670818 0.383988 0.383987
1.000000 0.383988 0.383987
1.000000 0.383988 0.383987
1.000000 0.383988 0.383987
0.000000 0.743452 0.743452
0.008703 0.743452 0.743452
0.059128 0.743452 0.743452
0.221480 0.743452 0.743452
0.670818 0.743452 0.743452
1.000000 0.743452 0.743452
1.000000 0.743452 0.743452
1.000000 0.743452 0.743452
0.000000 1.000000 1.000000
0.008703 1.000000 1.000000
0.059128 1.000000 1.000000
0.221480 1.000000 1.000000
0.670818 1.000000 1.000000
1.000000 1.000000 1.000000
1.000000 1.000000 1.000000
1.000000 1.000000 1.000000
0.000000 1.000000 1.000000
0.008703 1.000000 1.000000
0.059128 1.000000 1.000000
0.221480 1.000000 1.000000
0.670818 1.000000 1.000000
1.000000 1.000000 1.000000
1.000000 1.000000 1.000000
1.000000 1.000000 1.000000
0.000000 1.000000 1.000000
0.008703 1.000000 1.000000
0.059128 1.000000 1.000000
0.221480 1.000000 1.000000
0.670818 1.000000 1.000000
1.000000 1.000000 1.000000
1.000000 1.000000 1.000000
1.000000 1.000000 1.000000
