Assets/Art/Materials/LUT/2strip.CUBE
#Created by: Adobe Photoshop Export Color Lookup Plugin
TITLE "Frame.exr"
#LUT size
LUT_3D_SIZE 5
#data domain
#LUT data points
DOMAIN_MIN 0.000000 0.000000 0.000000
DOMAIN_MAX 0.903226 0.903226 0.903226
0.000000 0.000000 0.000000
0.040668 0.000000 0.000000
0.387757 0.000000 0.000000
1.000000 0.000000 0.000000
1.000000 0.000000 0.000000
0.000000 0.032534 0.032534
0.040668 0.032534 0.032534
0.387757 0.032534 0.032534
1.000000 0.032534 0.032534
1.000000 0.032534 0.032534
0.000000 0.310209 0.310209
0.040668 0.310209 0.310209
0.387757 0.310209 0.310209
1.000000 0.310209 0.310209
1.000000 0.310209 0.310209
0.000000 0.827222 0.827222
0.040668 0.827222 0.827222
0.387757 0.827222 0.827222
1.000000 0.827222 0.827222
1.000000 0.827222 0.827222
0.000000 0.827221 0.827222
0.040668 0.827221 0.827222
0.387757 0.827221 0.827222
1.000000 0.827221 0.827222
1.000000 0.827221 0.827222
0.000000 0.008134 0.008134
0.040668 0.008134 0.008134
0.387757 0.008134 0.008134
1.000000 0.008134 0.008134
1.000000 0.008134 0.008134
0.000000 0.040668 0.040668
0.040668 0.040668 0.040668
0.387757 0.040668 0.040668
1.000000 0.040668 0.040668
1.000000 0.040668 0.040668
0.000000 0.318343 0.318343
0.040668 0.318343 0.318343
0.387757 0.318343 0.318343
1.000000 0.318343 0.318343
1.000000 0.318343 0.318343
0.000000 0.835356 0.835356
0.040668 0.835356 0.835356
0.387757 0.835356 0.835356
1.000000 0.835356 0.835356
1.000000 0.835356 0.835356
0.000000 0.835356 0.835356
0.040668 0.835356 0.835356
0.387757 0.835356 0.835356
1.000000 0.835356 0.835356
1.000000 0.835356 0.835356
0.000000 0.077548 0.077548
0.040668 0.077548 0.077548
0.387757 0.077548 0.077548
1.000000 0.077548 0.077548
1.000000 0.077548 0.077548
0.000000 0.110085 0.110085
0.040668 0.110085 0.110085
0.387757 0.110085 0.110085
1.000000 0.110085 0.110085
1.000000 0.110085 0.110085
0.000000 0.387757 0.387757
0.040668 0.387757 0.387757
0.387757 0.387757 0.387757
1.000000 0.387757 0.387757
1.000000 0.387757 0.387757
0.000000 0.904770 0.904770
0.040668 0.904770 0.904770
0.387757 0.904770 0.904770
1.000000 0.904770 0.904770
1.000000 0.904770 0.904770
0.000000 0.904770 0.904770
0.040668 0.904770 0.904770
0.387757 0.904770 0.904770
1.000000 0.904770 0.904770
1.000000 0.904770 0.904770
0.000000 0.206805 0.206805
0.040668 0.206805 0.206805
0.387757 0.206805 0.206805
1.000000 0.206805 0.206805
1.000000 0.206805 0.206805
0.000000 0.239339 0.239339
0.040668 0.239339 0.239339
0.387757 0.239339 0.239339
1.000000 0.239339 0.239339
1.000000 0.239339 0.239339
0.000000 0.517014 0.517014
0.040668 0.517014 0.517014
0.387757 0.517014 0.517014
1.000000 0.517014 0.517014
1.000000 0.517014 0.517014
0.000000 1.000000 1.000000
0.040668 1.000000 1.000000
0.387757 1.000000 1.000000
1.000000 1.000000 1.000000
1.000000 1.000000 1.000000
0.000000 1.000000 1.000000
0.040668 1.000000 1.000000
0.387757 1.000000 1.000000
1.000000 1.000000 1.000000
1.000000 1.000000 1.000000
0.000000 0.206805 0.206806
0.040668 0.206805 0.206806
0.387757 0.206805 0.206806
1.000000 0.206805 0.206806
1.000000 0.206805 0.206806
0.000000 0.239339 0.239340
0.040668 0.239339 0.239340
0.387757 0.239339 0.239340
1.000000 0.239339 0.239340
1.000000 0.239339 0.239340
0.000000 0.517014 0.517014
0.040668 0.517014 0.517014
0.387757 0.517014 0.517014
1.000000 0.517014 0.517014
1.000000 0.517014 0.517014
0.000000 1.000000 1.000000
0.040668 1.000000 1.000000
0.387757 1.000000 1.000000
1.000000 1.000000 1.000000
1.000000 1.000000 1.000000
0.000000 1.000000 1.000000
0.040668 1.000000 1.000000
0.387757 1.000000 1.000000
1.000000 1.000000 1.000000
1.000000 1.000000 1.000000
