Assets/Art/Materials/LUT/2strip.CUBE
#Created by: Adobe Photoshop Export Color Lookup Plugin
TITLE "Frame.exr"
#LUT size
LUT_3D_SIZE 32
#data domain
DOMAIN_MIN 0.0 0.0 0.0
DOMAIN_MAX 1.0 1.0 1.0
#LUT data points
0.000000 0.000000 0.000000
0.000000 0.000000 0.000000
0.000000 0.000000 0.000000
0.001288 0.000000 0.000000
0.008703 0.000000 0.000000
0.017366 0.000000 0.000000
0.027504 0.000000 0.000000
0.040668 0.000000 0.000000
0.059128 0.000000 0.000000
0.084511 0.000000 0.000000
0.119011 0.000000 0.000000
0.165162 0.000000 0.000000
0.221480 0.000000 0.000000
0.293264 0.000000 0.000000
0.387757 0.000000 0.000000
0.510961 0.000000 0.000000
0.670818 0.000000 0.000000
0.879655 0.000000 0.000000
1.000000 0.000000 0.000000
1.000000 0.000000 0.000000
1.000000 0.000000 0.000000
1.000000 0.000000 0.000000
1.000000 0.000000 0.000000
1.000000 0.000000 0.000000
1.000000 0.000000 0.000000
1.000000 0.000000 0.000000
1.000000 0.000000 0.000000
1.000000 0.000000 0.000000
1.000000 0.000000 0.000000
1.000000 0.000000 0.000000
1.000000 0.000000 0.000000
1.000000 0.000000 0.000000
0.000000 0.000000 0.000000
0.000000 0.000000 0.000000
0.000000 0.000000 0.000000
0.001288 0.000000 0.000000
0.008703 0.000000 0.000000
0.017366 0.000000 0.000000
0.027504 0.000000 0.000000
0.040668 0.000000 0.000000
0.059128 0.000000 0.000000
0.084511 0.000000 0.000000
0.119011 0.000000 0.000000
0.165162 0.000000 0.000000
0.221480 0.000000 0.000000
0.293264 0.000000 0.000000
0.387757 0.000000 0.000000
0.510961 0.000000 0.000000
0.670818 0.000000 0.000000
0.879655 0.000000 0.000000
1.000000 0.000000 0.000000
1.000000 0.000000 0.000000
1.000000 0.000000 0.000000
1.000000 0.000000 0.000000
1.000000 0.000000 0.000000
1.000000 0.000000 0.000000
1.000000 0.000000 0.000000
1.000000 0.000000 0.000000
1.000000 0.000000 0.000000
1.000000 0.000000 0.000000
1.000000 0.000000 0.000000
1.000000 0.000000 0.000000
1.000000 0.000000 0.000000
1.000000 0.000000 0.000000
0.000000 0.000000 0.000000
0.000000 0.000000 0.000000
0.000000 0.000000 0.000000
0.001288 0.000000 0.000000
0.008703 0.000000 0.000000
0.017366 0.000000 0.000000
0.027504 0.000000 0.000000
0.040668 0.000000 0.000000
0.059128 0.000000 0.000000
0.084511 0.000000 0.000000
0.119011 0.000000 0.000000
0.165162 0.000000 0.000000
0.221480 0.000000 0.000000
0.293264 0.000000 0.000000
0.387757 0.000000 0.000000
0.510961 0.000000 0.000000
0.670818 0.000000 0.000000
0.879655 0.000000 0.000000
1.000000 0.000000 0.000000
1.000000 0.000000 0.000000
1.000000 0.000000 0.000000
1.000000 0.000000 0.000000
1.000000 0.000000 0.000000
1.000000 0.000000 0.000000
1.000000 0.000000 0.000000
1.000000 0.000000 0.000000
1.000000 0.000000 0.000000
1.000000 0.000000 0.000000
1.000000 0.000000 0.000000
1.000000 0.000000 0.000000
1.000000 0.000000 0.000000
1.000000 0.000000 0.000000
0.000000 0.001031 0.001031
0.000000 0.001031 0.001031
0.000000 0.001031 0.001031
0.001288 0.001031 0.001031
0.008703 0.001031 0.001031
0.017366 0.001031 0.001031
0.027504 0.001031 0.001031
0.040668 0.001031 0.001031
0.059128 0.001031 0.001031
0.084511 0.001031 0.001031
0.119011 0.001031 0.001031
0.165162 0.001031 0.001031
0.221480 0.001031 0.001031
0.293264 0.001031 0.001031
0.387757 0.001031 0.001031
0.510961 0.001031 0.001031
0.670818 0.001031 0.001031
0.879655 0.001031 0.001031
1.000000 0.001031 0.001031
1.000000 0.001031 0.001031
1.000000 0.001031 0.001031
1.000000 0.001031 0.001031
1.000000 0.001031 0.001031
1.000000 0.001031 0.001031
1.000000 0.001031 0.001031
1.000000 0.001031 0.001031
1.000000 0.001031 0.001031
1.000000 0.001031 0.001031
1.000000 0.001031 0.001031
1.000000 0.001031 0.001031
1.000000 0.001031 0.001031
1.000000 0.001031 0.001031
0.000000 0.006962 0.006962
0.000000 0.006962 0.006962
0.000000 0.006962 0.006962
0.001288 0.006962 0.006962
0.008703 0.006962 0.006962
0.017366 0.006962 0.006962
0.027504 0.006962 0.006962
0.040668 0.006962 0.006962
0.059128 0.006962 0.006962
0.084511 0.006962 0.006962
0.119011 0.006962 0.006962
0.165162 0.006962 0.006962
0.221480 0.006962 0.006962
0.293264 0.006962 0.006962
0.387757 0.006962 0.006962
0.510961 0.006962 0.006962
0.670818 0.006962 0.006962
0.879655 0.006962 0.006962
1.000000 0.006962 0.006962
1.000000 0.006962 0.006962
1.000000 0.006962 0.006962
1.000000 0.006962 0.006962
1.000000 0.006962 0.006962
1.000000 0.006962 0.006962
1.000000 0.006962 0.006962
1.000000 0.006962 0.006962
1.000000 0.006962 0.006962
1.000000 0.006962 0.006962
1.000000 0.006962 0.006962
1.000000 0.006962 0.006962
1.000000 0.006962 0.006962
1.000000 0.006962 0.006962
0.000000 0.013892 0.013892
0.000000 0.013892 0.013892
0.000000 0.013892 0.013892
0.001288 0.013892 0.013892
0.008703 0.013892 0.013892
0.017366 0.013892 0.013892
0.027504 0.013892 0.013892
0.040668 0.013892 0.013892
0.059128 0.013892 0.013892
0.084511 0.013892 0.013892
0.119011 0.013892 0.013892
0.165162 0.013892 0.013892
0.221480 0.013892 0.013892
0.293264 0.013892 0.013892
0.387757 0.013892 0.013892
0.510961 0.013892 0.013892
0.670818 0.013892 0.013892
0.879655 0.013892 0.013892
1.000000 0.013892 0.013892
1.000000 0.013892 0.013892
1.000000 0.013892 0.013892
1.000000 0.013892 0.013892
1.000000 0.013892 0.013892
1.000000 0.013892 0.013892
1.000000 0.013892 0.013892
1.000000 0.013892 0.013892
1.000000 0.013892 0.013892
1.000000 0.013892 0.013892
1.000000 0.013892 0.013892
1.000000 0.013892 0.013892
1.000000 0.013892 0.013892
1.000000 0.013892 0.013892
0.000000 0.022002 0.022002
0.000000 0.022002 0.022002
0.000000 0.022002 0.022002
0.001288 0.022002 0.022002
0.008703 0.022002 0.022002
0.017366 0.022002 0.022002
0.027504 0.022002 0.022002
0.040668 0.022002 0.022002
0.059128 0.022002 0.022002
0.084511 0.022002 0.022002
0.119011 0.022002 0.022002
0.165162 0.022002 0.022002
0.221480 0.022002 0.022002
0.293264 0.022002 0.022002
0.387757 0.022002 0.022002
0.510961 0.022002 0.022002
0.670818 0.022002 0.022002
0.879655 0.022002 0.022002
1.000000 0.022002 0.022002
1.000000 0.022002 0.022002
1.000000 0.022002 0.022002
1.000000 0.022002 0.022002
1.000000 0.022002 0.022002
1.000000 0.022002 0.022002
1.000000 0.022002 0.022002
1.000000 0.022002 0.022002
1.000000 0.022002 0.022002
1.000000 0.022002 0.022002
1.000000 0.022002 0.022002
1.000000 0.022002 0.022002
1.000000 0.022002 0.022002
1.000000 0.022002 0.022002
0.000000 0.032534 0.032534
0.000000 0.032534 0.032534
0.000000 0.032534 0.032534
0.001288 0.032534 0.032534
0.008703 0.032534 0.032534
0.017366 0.032534 0.032534
0.027504 0.032534 0.032534
0.040668 0.032534 0.032534
0.059128 0.032534 0.032534
0.084511 0.032534 0.032534
0.119011 0.032534 0.032534
0.165162 0.032534 0.032534
0.221480 0.032534 0.032534
0.293264 0.032534 0.032534
0.387757 0.032534 0.032534
0.510961 0.032534 0.032534
0.670818 0.032534 0.032534
0.879655 0.032534 0.032534
1.000000 0.032534 0.032534
1.000000 0.032534 0.032534
1.000000 0.032534 0.032534
1.000000 0.032534 0.032534
1.000000 0.032534 0.032534
1.000000 0.032534 0.032534
1.000000 0.032534 0.032534
1.000000 0.032534 0.032534
1.000000 0.032534 0.032534
1.000000 0.032534 0.032534
1.000000 0.032534 0.032534
1.000000 0.032534 0.032534
1.000000 0.032534 0.032534
1.000000 0.032534 0.032534
0.000000 0.047302 0.047302
0.000000 0.047302 0.047302
0.000000 0.047302 0.047302
0.001288 0.047302 0.047302
0.008703 0.047302 0.047302
0.017366 0.047302 0.047302
0.027504 0.047302 0.047302
0.040668 0.047302 0.047302
0.059128 0.047302 0.047302
0.084511 0.047302 0.047302
0.119011 0.047302 0.047302
0.165162 0.047302 0.047302
0.221480 0.047302 0.047302
0.293264 0.047302 0.047302
0.387757 0.047302 0.047302
0.510961 0.047302 0.047302
0.670818 0.047302 0.047302
0.879655 0.047302 0.047302
1.000000 0.047302 0.047302
1.000000 0.047302 0.047302
1.000000 0.047302 0.047302
1.000000 0.047302 0.047302
1.000000 0.047302 0.047302
1.000000 0.047302 0.047302
1.000000 0.047302 0.047302
1.000000 0.047302 0.047302
1.000000 0.047302 0.047302
1.000000 0.047302 0.047302
1.000000 0.047302 0.047302
1.000000 0.047302 0.047302
1.000000 0.047302 0.047302
1.000000 0.047302 0.047302
0.000000 0.067608 0.067608
0.000000 0.067608 0.067608
0.000000 0.067608 0.067608
0.001288 0.067608 0.067608
0.008703 0.067608 0.067608
0.017366 0.067608 0.067608
0.027504 0.067608 0.067608
0.040668 0.067608 0.067608
0.059128 0.067608 0.067608
0.084511 0.067608 0.067608
0.119011 0.067608 0.067608
0.165162 0.067608 0.067608
0.221480 0.067608 0.067608
0.293264 0.067608 0.067608
0.387757 0.067608 0.067608
0.510961 0.067608 0.067608
0.670818 0.067608 0.067608
0.879655 0.067608 0.067608
1.000000 0.067608 0.067608
1.000000 0.067608 0.067608
1.000000 0.067608 0.067608
1.000000 0.067608 0.067608
1.000000 0.067608 0.067608
1.000000 0.067608 0.067608
1.000000 0.067608 0.067608
1.000000 0.067608 0.067608
1.000000 0.067608 0.067608
1.000000 0.067608 0.067608
1.000000 0.067608 0.067608
1.000000 0.067608 0.067608
1.000000 0.067608 0.067608
1.000000 0.067608 0.067608
0.000000 0.095207 0.095207
0.000000 0.095207 0.095207
0.000000 0.095207 0.095207
0.001288 0.095207 0.095207
0.008703 0.095207 0.095207
0.017366 0.095207 0.095207
0.027504 0.095207 0.095207
0.040668 0.095207 0.095207
0.059128 0.095207 0.095207
0.084511 0.095207 0.095207
0.119011 0.095207 0.095207
0.165162 0.095207 0.095207
0.221480 0.095207 0.095207
0.293264 0.095207 0.095207
0.387757 0.095207 0.095207
0.510961 0.095207 0.095207
0.670818 0.095207 0.095207
0.879655 0.095207 0.095207
1.000000 0.095207 0.095207
1.000000 0.095207 0.095207
1.000000 0.095207 0.095207
1.000000 0.095207 0.095207
1.000000 0.095207 0.095207
1.000000 0.095207 0.095207
1.000000 0.095207 0.095207
1.000000 0.095207 0.095207
1.000000 0.095207 0.095207
1.000000 0.095207 0.095207
1.000000 0.095207 0.095207
1.000000 0.095207 0.095207
1.000000 0.095207 0.095207
1.000000 0.095207 0.095207
0.000000 0.132127 0.132127
0.000000 0.132127 0.132127
0.000000 0.132127 0.132127
0.001288 0.132127 0.132127
0.008703 0.132127 0.132127
0.017366 0.132127 0.132127
0.027504 0.132127 0.132127
0.040668 0.132127 0.132127
0.059128 0.132127 0.132127
0.084511 0.132127 0.132127
0.119011 0.132127 0.132127
0.165162 0.132127 0.132127
0.221480 0.132127 0.132127
0.293264 0.132127 0.132127
0.387757 0.132127 0.132127
0.510961 0.132127 0.132127
0.670818 0.132127 0.132127
0.879655 0.132127 0.132127
1.000000 0.132127 0.132127
1.000000 0.132127 0.132127
1.000000 0.132127 0.132127
1.000000 0.132127 0.132127
1.000000 0.132127 0.132127
1.000000 0.132127 0.132127
1.000000 0.132127 0.132127
1.000000 0.132127 0.132127
1.000000 0.132127 0.132127
1.000000 0.132127 0.132127
1.000000 0.132127 0.132127
1.000000 0.132127 0.132127
1.000000 0.132127 0.132127
1.000000 0.132127 0.132127
0.000000 0.177183 0.177183
0.000000 0.177183 0.177183
0.000000 0.177183 0.177183
0.001288 0.177183 0.177183
0.008703 0.177183 0.177183
0.017366 0.177183 0.177183
0.027504 0.177183 0.177183
0.040668 0.177183 0.177183
0.059128 0.177183 0.177183
0.084511 0.177183 0.177183
0.119011 0.177183 0.177183
0.165162 0.177183 0.177183
0.221480 0.177183 0.177183
0.293264 0.177183 0.177183
0.387757 0.177183 0.177183
0.510961 0.177183 0.177183
0.670818 0.177183 0.177183
0.879655 0.177183 0.177183
1.000000 0.177183 0.177183
1.000000 0.177183 0.177183
1.000000 0.177183 0.177183
1.000000 0.177183 0.177183
1.000000 0.177183 0.177183
1.000000 0.177183 0.177183
1.000000 0.177183 0.177183
1.000000 0.177183 0.177183
1.000000 0.177183 0.177183
1.000000 0.177183 0.177183
1.000000 0.177183 0.177183
1.000000 0.177183 0.177183
1.000000 0.177183 0.177183
1.000000 0.177183 0.177183
0.000000 0.234612 0.234612
0.000000 0.234612 0.234612
0.000000 0.234612 0.234612
0.001288 0.234612 0.234612
0.008703 0.234612 0.234612
0.017366 0.234612 0.234612
0.027504 0.234612 0.234612
0.040668 0.234612 0.234612
0.059128 0.234612 0.234612
0.084511 0.234612 0.234612
0.119011 0.234612 0.234612
0.165162 0.234612 0.234612
0.221480 0.234612 0.234612
0.293264 0.234612 0.234612
0.387757 0.234612 0.234612
0.510961 0.234612 0.234612
0.670818 0.234612 0.234612
0.879655 0.234612 0.234612
1.000000 0.234612 0.234612
1.000000 0.234612 0.234612
1.000000 0.234612 0.234612
1.000000 0.234612 0.234612
1.000000 0.234612 0.234612
1.000000 0.234612 0.234612
1.000000 0.234612 0.234612
1.000000 0.234612 0.234612
1.000000 0.234612 0.234612
1.000000 0.234612 0.234612
1.000000 0.234612 0.234612
1.000000 0.234612 0.234612
1.000000 0.234612 0.234612
1.000000 0.234612 0.234612
0.000000 0.310209 0.310209
0.000000 0.310209 0.310209
0.000000 0.310209 0.310209
0.001288 0.310209 0.310209
0.008703 0.310209 0.310209
0.017366 0.310209 0.310209
0.027504 0.310209 0.310209
0.040668 0.310209 0.310209
0.059128 0.310209 0.310209
0.084511 0.310209 0.310209
0.119011 0.310209 0.310209
0.165162 0.310209 0.310209
0.221480 0.310209 0.310209
0.293264 0.310209 0.310209
0.387757 0.310209 0.310209
0.510961 0.310209 0.310209
0.670818 0.310209 0.310209
0.879655 0.310209 0.310209
1.000000 0.310209 0.310209
1.000000 0.310209 0.310209
1.000000 0.310209 0.310209
1.000000 0.310209 0.310209
1.000000 0.310209 0.310209
1.000000 0.310209 0.310209
1.000000 0.310209 0.310209
1.000000 0.310209 0.310209
1.000000 0.310209 0.310209
1.000000 0.310209 0.310209
1.000000 0.310209 0.310209
1.000000 0.310209 0.310209
1.000000 0.310209 0.310209
1.000000 0.310209 0.310209
0.000000 0.408770 0.408770
0.000000 0.408770 0.408770
0.000000 0.408770 0.408770
0.001288 0.408770 0.408770
0.008703 0.408770 0.408770
0.017366 0.408770 0.408770
0.027504 0.408770 0.408770
0.040668 0.408770 0.408770
0.059128 0.408770 0.408770
0.084511 0.408770 0.408770
0.119011 0.408770 0.408770
0.165162 0.408770 0.408770
0.221480 0.408770 0.408770
0.293264 0.408770 0.408770
0.387757 0.408770 0.408770
0.510961 0.408770 0.408770
0.670818 0.408770 0.408770
0.879655 0.408770 0.408770
1.000000 0.408770 0.408770
1.000000 0.408770 0.408770
1.000000 0.408770 0.408770
1.000000 0.408770 0.408770
1.000000 0.408770 0.408770
1.000000 0.408770 0.408770
1.000000 0.408770 0.408770
1.000000 0.408770 0.408770
1.000000 0.408770 0.408770
1.000000 0.408770 0.408770
1.000000 0.408770 0.408770
1.000000 0.408770 0.408770
1.000000 0.408770 0.408770
1.000000 0.408770 0.408770
0.000000 0.536647 0.536647
0.000000 0.536647 0.536647
0.000000 0.536647 0.536647
0.001288 0.536647 0.536647
0.008703 0.536647 0.536647
0.017366 0.536647 0.536647
0.027504 0.536647 0.536647
0.040668 0.536647 0.536647
0.059128 0.536647 0.536647
0.084511 0.536647 0.536647
0.119011 0.536647 0.536647
0.165162 0.536647 0.536647
0.221480 0.536647 0.536647
0.293264 0.536647 0.536647
0.387757 0.536647 0.536647
0.510961 0.536647 0.536647
0.670818 0.536647 0.536647
0.879655 0.536647 0.536647
1.000000 0.536647 0.536647
1.000000 0.536647 0.536647
1.000000 0.536647 0.536647
1.000000 0.536647 0.536647
1.000000 0.536647 0.536647
1.000000 0.536647 0.536647
1.000000 0.536647 0.536647
1.000000 0.536647 0.536647
1.000000 0.536647 0.536647
1.000000 0.536647 0.536647
1.000000 0.536647 0.536647
1.000000 0.536647 0.536647
1.000000 0.536647 0.536647
1.000000 0.536647 0.536647
0.000000 0.703724 0.703724
0.000000 0.703724 0.703724
0.000000 0.703724 0.703724
0.001288 0.703724 0.703724
0.008703 0.703724 0.703724
0.017366 0.703724 0.703724
0.027504 0.703724 0.703724
0.040668 0.703724 0.703724
0.059128 0.703724 0.703724
0.084511 0.703724 0.703724
0.119011 0.703724 0.703724
0.165162 0.703724 0.703724
0.221480 0.703724 0.703724
0.293264 0.703724 0.703724
0.387757 0.703724 0.703724
0.510961 0.703724 0.703724
0.670818 0.703724 0.703724
0.879655 0.703724 0.703724
1.000000 0.703724 0.703724
1.000000 0.703724 0.703724
1.000000 0.703724 0.703724
1.000000 0.703724 0.703724
1.000000 0.703724 0.703724
1.000000 0.703724 0.703724
1.000000 0.703724 0.703724
1.000000 0.703724 0.703724
1.000000 0.703724 0.703724
1.000000 0.703724 0.703724
1.000000 0.703724 0.703724
1.000000 0.703724 0.703724
1.000000 0.703724 0.703724
1.000000 0.703724 0.703724
0.000000 0.827222 0.827222
0.000000 0.827222 0.827222
0.000000 0.827222 0.827222
0.001288 0.827222 0.827222
0.008703 0.827222 0.827222
0.017366 0.827222 0.827222
0.027504 0.827222 0.827222
0.040668 0.827222 0.827222
0.059128 0.827222 0.827222
0.084511 0.827222 0.827222
0.119011 0.827222 0.827222
0.165162 0.827222 0.827222
0.221480 0.827222 0.827222
0.293264 0.827222 0.827222
0.387757 0.827222 0.827222
0.510961 0.827222 0.827222
0.670818 0.827222 0.827222
0.879655 0.827222 0.827222
1.000000 0.827222 0.827222
1.000000 0.827222 0.827222
1.000000 0.827222 0.827222
1.000000 0.827222 0.827222
1.000000 0.827222 0.827222
1.000000 0.827222 0.827222
1.000000 0.827222 0.827222
1.000000 0.827222 0.827222
1.000000 0.827222 0.827222
1.000000 0.827222 0.827222
1.000000 0.827222 0.827222
1.000000 0.827222 0.827222
1.000000 0.827222 0.827222
1.000000 0.827222 0.827222
0.000000 0.827222 0.827222
0.000000 0.827222 0.827222
0.000000 0.827222 0.827222
0.001288 0.827222 0.827222
0.008703 0.827222 0.827222
0.017366 0.827222 0.827222
0.027504 0.827222 0.827222
0.040668 0.827222 0.827222
0.059128 0.827222 0.827222
0.084511 0.827222 0.827222
0.119011 0.827222 0.827222
0.165162 0.827222 0.827222
0.221480 0.827222 0.827222
0.293264 0.827222 0.827222
0.387757 0.827222 0.827222
0.510961 0.827222 0.827222
0.670818 0.827222 0.827222
0.879655 0.827222 0.827222
1.000000 0.827222 0.827222
1.000000 0.827222 0.827222
1.000000 0.827222 0.827222
1.000000 0.827222 0.827222
1.000000 0.827222 0.827222
1.000000 0.827222 0.827222
1.000000 0.827222 0.827222
1.000000 0.827222 0.827222
1.000000 0.827222 0.827222
1.000000 0.827222 0.827222
1.000000 0.827222 0.827222
1.000000 0.827222 0.827222
1.000000 0.827222 0.827222
1.000000 0.827222 0.827222
0.000000 0.827222 0.827222
0.000000 0.827222 0.827222
0.000000 0.827222 0.827222
0.001288 0.827222 0.827222
0.008703 0.827222 0.827222
0.017366 0.827222 0.827222
0.027504 0.827222 0.827222
0.040668 0.827222 0.827222
0.059128 0.827222 0.827222
0.084511 0.827222 0.827222
0.119011 0.827222 0.827222
0.165162 0.827222 0.827222
0.221480 0.827222 0.827222
0.293264 0.827222 0.827222
0.387757 0.827222 0.827222
0.510961 0.827222 0.827222
0.670818 0.827222 0.827222
0.879655 0.827222 0.827222
1.000000 0.827222 0.827222
1.000000 0.827222 0.827222
1.000000 0.827222 0.827222
1.000000 0.827222 0.827222
1.000000 0.827222 0.827222
1.000000 0.827222 0.827222
1.000000 0.827222 0.827222
1.000000 0.827222 0.827222
1.000000 0.827222 0.827222
1.000000 0.827222 0.827222
1.000000 0.827222 0.827222
1.000000 0.827222 0.827222
1.000000 0.827222 0.827222
1.000000 0.827222 0.827222
0.000000 0.827222 0.827222
0.000000 0.827222 0.827222
0.000000 0.827222 0.827222
0.001288 0.827222 0.827222
0.008703 0.827222 0.827222
0.017366 0.827222 0.827222
0.027504 0.827222 0.827222
0.040668 0.827222 0.827222
0.059128 0.827222 0.827222
0.084511 0.827222 0.827222
0.119011 0.827222 0.827222
0.165162 0.827222 0.827222
0.221480 0.827222 0.827222
0.293264 0.827222 0.827222
0.387757 0.827222 0.827222
0.510961 0.827222 0.827222
0.670818 0.827222 0.827222
0.879655 0.827222 0.827222
1.000000 0.827222 0.827222
1.000000 0.827222 0.827222
1.000000 0.827222 0.827222
1.000000 0.827222 0.827222
1.000000 0.827222 0.827222
1.000000 0.827222 0.827222
1.000000 0.827222 0.827222
1.000000 0.827222 0.827222
1.000000 0.827222 0.827222
1.000000 0.827222 0.827222
1.000000 0.827222 0.827222
1.000000 0.827222 0.827222
1.000000 0.827222 0.827222
1.000000 0.827222 0.827222
0.000000 0.827222 0.827222
0.000000 0.827222 0.827222
0.000000 0.827222 0.827222
0.001288 0.827222 0.827222
0.008703 0.827222 0.827222
0.017366 0.827222 0.827222
0.027504 0.827222 0.827222
0.040668 0.827222 0.827222
0.059128 0.827222 0.827222
0.084511 0.827222 0.827222
0.119011 0.827222 0.827222
0.165162 0.827222 0.827222
0.221480 0.827222 0.827222
0.293264 0.827222 0.827222
0.387757 0.827222 0.827222
0.510961 0.827222 0.827222
0.670818 0.827222 0.827222
0.879655 0.827222 0.827222
1.000000 0.827222 0.827222
1.000000 0.827222 0.827222
1.000000 0.827222 0.827222
1.000000 0.827222 0.827222
1.000000 0.827222 0.827222
1.000000 0.827222 0.827222
1.000000 0.827222 0.827222
1.000000 0.827222 0.827222
1.000000 0.827222 0.827222
1.000000 0.827222 0.827222
1.000000 0.827222 0.827222
1.000000 0.827222 0.827222
1.000000 0.827222 0.827222
1.000000 0.827222 0.827222
0.000000 0.827222 0.827222
0.000000 0.827222 0.827222
0.000000 0.827222 0.827222
0.001288 0.827222 0.827222
0.008703 0.827222 0.827222
0.017366 0.827222 0.827222
0.027504 0.827222 0.827222
0.040668 0.827222 0.827222
0.059128 0.827222 0.827222
0.084511 0.827222 0.827222
0.119011 0.827222 0.827222
0.165162 0.827222 0.827222
0.221480 0.827222 0.827222
0.293264 0.827222 0.827222
0.387757 0.827222 0.827222
0.510961 0.827222 0.827222
0.670818 0.827222 0.827222
0.879655 0.827222 0.827222
1.000000 0.827222 0.827222
1.000000 0.827222 0.827222
1.000000 0.827222 0.827222
1.000000 0.827222 0.827222
1.000000 0.827222 0.827222
1.000000 0.827222 0.827222
1.000000 0.827222 0.827222
1.000000 0.827222 0.827222
1.000000 0.827222 0.827222
1.000000 0.827222 0.827222
1.000000 0.827222 0.827222
1.000000 0.827222 0.827222
1.000000 0.827222 0.827222
1.000000 0.827222 0.827222
0.000000 0.827222 0.827222
0.000000 0.827222 0.827222
0.000000 0.827222 0.827222
0.001288 0.827222 0.827222
0.008703 0.827222 0.827222
0.017366 0.827222 0.827222
0.027504 0.827222 0.827222
0.040668 0.827222 0.827222
0.059128 0.827222 0.827222
0.084511 0.827222 0.827222
0.119011 0.827222 0.827222
0.165162 0.827222 0.827222
0.221480 0.827222 0.827222
0.293264 0.827222 0.827222
0.387757 0.827222 0.827222
0.510961 0.827222 0.827222
0.670818 0.827222 0.827222
0.879655 0.827222 0.827222
1.000000 0.827222 0.827222
1.000000 0.827222 0.827222
1.000000 0.827222 0.827222
1.000000 0.827222 0.827222
1.000000 0.827222 0.827222
1.000000 0.827222 0.827222
1.000000 0.827222 0.827222
1.000000 0.827222 0.827222
1.000000 0.827222 0.827222
1.000000 0.827222 0.827222
1.000000 0.827222 0.827222
1.000000 0.827222 0.827222
1.000000 0.827222 0.827222
1.000000 0.827222 0.827222
0.000000 0.827222 0.827222
0.000000 0.827222 0.827222
0.000000 0.827222 0.827222
0.001288 0.827222 0.827222
0.008703 0.827222 0.827222
0.017366 0.827222 0.827222
0.027504 0.827222 0.827222
0.040668 0.827222 0.827222
0.059128 0.827222 0.827222
0.084511 0.827222 0.827222
0.119011 0.827222 0.827222
0.165162 0.827222 0.827222
0.221480 0.827222 0.827222
0.293264 0.827222 0.827222
0.387757 0.827222 0.827222
0.510961 0.827222 0.827222
0.670818 0.827222 0.827222
0.879655 0.827222 0.827222
1.000000 0.827222 0.827222
1.000000 0.827222 0.827222
1.000000 0.827222 0.827222
1.000000 0.827222 0.827222
1.000000 0.827222 0.827222
1.000000 0.827222 0.827222
1.000000 0.827222 0.827222
1.000000 0.827222 0.827222
1.000000 0.827222 0.827222
1.000000 0.827222 0.827222
1.000000 0.827222 0.827222
1.000000 0.827222 0.827222
1.000000 0.827222 0.827222
1.000000 0.827222 0.827222
0.000000 0.827222 0.827222
0.000000 0.827222 0.827222
0.000000 0.827222 0.827222
0.001288 0.827222 0.827222
0.008703 0.827222 0.827222
0.017366 0.827222 0.827222
0.027504 0.827222 0.827222
0.040668 0.827222 0.827222
0.059128 0.827222 0.827222
0.084511 0.827222 0.827222
0.119011 0.827222 0.827222
0.165162 0.827222 0.827222
0.221480 0.827222 0.827222
0.293264 0.827222 0.827222
0.387757 0.827222 0.827222
0.510961 0.827222 0.827222
0.670818 0.827222 0.827222
0.879655 0.827222 0.827222
1.000000 0.827222 0.827222
1.000000 0.827222 0.827222
1.000000 0.827222 0.827222
1.000000 0.827222 0.827222
1.000000 0.827222 0.827222
1.000000 0.827222 0.827222
1.000000 0.827222 0.827222
1.000000 0.827222 0.827222
1.000000 0.827222 0.827222
1.000000 0.827222 0.827222
1.000000 0.827222 0.827222
1.000000 0.827222 0.827222
1.000000 0.827222 0.827222
1.000000 0.827222 0.827222
0.000000 0.827221 0.827222
0.000000 0.827221 0.827222
0.000000 0.827221 0.827222
0.001288 0.827221 0.827222
0.008703 0.827221 0.827222
0.017366 0.827221 0.827222
0.027504 0.827221 0.827222
0.040668 0.827221 0.827222
0.059128 0.827221 0.827222
0.084511 0.827221 0.827222
0.119011 0.827221 0.827222
0.165162 0.827221 0.827222
0.221480 0.827221 0.827222
0.293264 0.827221 0.827222
0.387757 0.827221 0.827222
0.510961 0.827221 0.827222
0.670818 0.827221 0.827222
0.879655 0.827221 0.827222
