Assets/Art/Materials/LUT/3strip.CUBE.CUBE
#Created by: Adobe Photoshop Export Color Lookup Plugin
TITLE "Frame.exr"
#LUT size
LUT_3D_SIZE 32
#data domain
DOMAIN_MIN 0.0 0.0 0.0
DOMAIN_MAX 1.0 1.0 1.0
#LUT data points
0.000000 0.000000 0.000000
0.000000 0.000000 0.000000
0.000000 0.000000 0.000000
0.001294 0.000000 0.000000
0.008740 0.000000 0.000000
0.017441 0.000000 0.000000
0.027623 0.000000 0.000000
0.040844 0.000000 0.000000
0.059384 0.000000 0.000000
0.084877 0.000000 0.000000
0.119526 0.000000 0.000000
0.165876 0.000000 0.000000
0.221976 0.000000 0.000000
0.293123 0.000000 0.000000
0.387844 0.000000 0.000000
0.512182 0.000000 0.000000
0.669346 0.000000 0.000000
0.879698 0.000000 0.000000
1.000000 0.000000 0.000000
1.000000 0.000000 0.000000
1.000000 0.000000 0.000000
1.000000 0.000000 0.000000
1.000000 0.000000 0.000000
1.000000 0.000000 0.000000
1.000000 0.000000 0.000000
1.000000 0.000000 0.000000
1.000000 0.000000 0.000000
1.000000 0.000000 0.000000
1.000000 0.000000 0.000000
1.000000 0.000000 0.000000
1.000000 0.000000 0.000000
1.000000 0.000000 0.000000
0.000000 0.000000 0.000000
0.000000 0.000000 0.000000
0.000000 0.000000 0.000000
0.001294 0.000000 0.000000
0.008740 0.000000 0.000000
0.017441 0.000000 0.000000
0.027623 0.000000 0.000000
0.040844 0.000000 0.000000
0.059384 0.000000 0.000000
0.084877 0.000000 0.000000
0.119526 0.000000 0.000000
0.165876 0.000000 0.000000
0.221976 0.000000 0.000000
0.293123 0.000000 0.000000
0.387844 0.000000 0.000000
0.512182 0.000000 0.000000
0.669346 0.000000 0.000000
0.879698 0.000000 0.000000
1.000000 0.000000 0.000000
1.000000 0.000000 0.000000
1.000000 0.000000 0.000000
1.000000 0.000000 0.000000
1.000000 0.000000 0.000000
1.000000 0.000000 0.000000
1.000000 0.000000 0.000000
1.000000 0.000000 0.000000
1.000000 0.000000 0.000000
1.000000 0.000000 0.000000
1.000000 0.000000 0.000000
1.000000 0.000000 0.000000
1.000000 0.000000 0.000000
1.000000 0.000000 0.000000
0.000000 0.000000 0.000000
0.000000 0.000000 0.000000
0.000000 0.000000 0.000000
0.001294 0.000000 0.000000
0.008740 0.000000 0.000000
0.017441 0.000000 0.000000
0.027623 0.000000 0.000000
0.040844 0.000000 0.000000
0.059384 0.000000 0.000000
0.084877 0.000000 0.000000
0.119526 0.000000 0.000000
0.165876 0.000000 0.000000
0.221976 0.000000 0.000000
0.293123 0.000000 0.000000
0.387844 0.000000 0.000000
0.512182 0.000000 0.000000
0.669346 0.000000 0.000000
0.879698 0.000000 0.000000
1.000000 0.000000 0.000000
1.000000 0.000000 0.000000
1.000000 0.000000 0.000000
1.000000 0.000000 0.000000
1.000000 0.000000 0.000000
1.000000 0.000000 0.000000
1.000000 0.000000 0.000000
1.000000 0.000000 0.000000
1.000000 0.000000 0.000000
1.000000 0.000000 0.000000
1.000000 0.000000 0.000000
1.000000 0.000000 0.000000
1.000000 0.000000 0.000000
1.000000 0.000000 0.000000
0.000000 0.001280 0.000000
0.000000 0.001280 0.000000
0.000000 0.001280 0.000000
0.001066 0.001139 0.000000
0.008512 0.001139 0.000000
0.017212 0.001139 0.000000
0.027394 0.001139 0.000000
0.040615 0.001139 0.000000
0.059156 0.001139 0.000000
0.084648 0.001139 0.000000
0.119297 0.001139 0.000000
0.165648 0.001139 0.000000
0.221902 0.000876 0.000000
0.293049 0.000876 0.000000
0.387840 0.000768 0.000000
0.512182 0.000758 0.000000
0.669353 0.000768 0.000000
0.879689 0.000768 0.000000
1.000000 0.000768 0.000000
1.000000 0.000768 0.000000
1.000000 0.000768 0.000000
1.000000 0.000768 0.000000
1.000000 0.000768 0.000000
1.000000 0.000768 0.000000
1.000000 0.000768 0.000000
1.000000 0.000768 0.000000
1.000000 0.000768 0.000000
1.000000 0.000768 0.000000
1.000000 0.000768 0.000000
1.000000 0.000768 0.000000
1.000000 0.000768 0.000000
1.000000 0.000768 0.000000
0.000000 0.008644 0.000000
0.000000 0.008644 0.000000
0.000000 0.008644 0.000000
0.001066 0.008504 0.000000
0.007198 0.007697 0.000000
0.015898 0.007697 0.000000
0.026080 0.007697 0.000000
0.039301 0.007697 0.000000
0.057842 0.007697 0.000000
0.083334 0.007697 0.000000
0.117983 0.007697 0.000000
0.164334 0.007697 0.000000
0.221473 0.005916 0.000000
0.292620 0.005916 0.000000
0.387822 0.005185 0.000000
0.512182 0.005119 0.000000
0.669390 0.005185 0.000000
0.879640 0.005185 0.000000
1.000000 0.005185 0.000000
1.000000 0.005185 0.000000
1.000000 0.005185 0.000000
1.000000 0.005185 0.000000
1.000000 0.005185 0.000000
1.000000 0.005185 0.000000
1.000000 0.005185 0.000000
1.000000 0.005185 0.000000
1.000000 0.005185 0.000000
1.000000 0.005185 0.000000
1.000000 0.005185 0.000000
1.000000 0.005185 0.000000
1.000000 0.005185 0.000000
1.000000 0.005185 0.000000
0.000000 0.017249 0.000000
0.000000 0.017249 0.000000
0.000000 0.017249 0.000000
0.001066 0.017109 0.000000
0.007198 0.016301 0.000000
0.014363 0.015358 0.000000
0.024545 0.015358 0.000000
0.037766 0.015358 0.000000
0.056306 0.015358 0.000000
0.081799 0.015358 0.000000
0.116448 0.015358 0.000000
0.162798 0.015358 0.000000
0.220972 0.011805 0.000000
0.292119 0.011805 0.000000
0.387800 0.010346 0.000000
0.512182 0.010214 0.000000
0.669433 0.010346 0.000000
0.879583 0.010346 0.000000
1.000000 0.010346 0.000000
1.000000 0.010346 0.000000
1.000000 0.010346 0.000000
1.000000 0.010346 0.000000
1.000000 0.010346 0.000000
1.000000 0.010346 0.000000
1.000000 0.010346 0.000000
1.000000 0.010346 0.000000
1.000000 0.010346 0.000000
1.000000 0.010346 0.000000
1.000000 0.010346 0.000000
1.000000 0.010346 0.000000
1.000000 0.010346 0.000000
1.000000 0.010346 0.000000
0.000000 0.027319 0.000000
0.000000 0.027319 0.000000
0.000000 0.027319 0.000000
0.001066 0.027178 0.000000
0.007198 0.026371 0.000000
0.014363 0.025427 0.000000
0.022748 0.024323 0.000000
0.035969 0.024323 0.000000
0.054509 0.024323 0.000000
0.080002 0.024323 0.000000
0.114651 0.024323 0.000000
0.161001 0.024323 0.000000
0.220385 0.018697 0.000000
0.291532 0.018697 0.000000
0.387774 0.016386 0.000000
0.512181 0.016180 0.000000
0.669483 0.016386 0.000000
0.879515 0.016386 0.000000
1.000000 0.016386 0.000000
1.000000 0.016386 0.000000
1.000000 0.016386 0.000000
1.000000 0.016386 0.000000
1.000000 0.016386 0.000000
1.000000 0.016386 0.000000
1.000000 0.016386 0.000000
1.000000 0.016386 0.000000
1.000000 0.016386 0.000000
1.000000 0.016386 0.000000
1.000000 0.016386 0.000000
1.000000 0.016386 0.000000
1.000000 0.016386 0.000000
1.000000 0.016386 0.000000
0.000000 0.040395 0.000000
0.000000 0.040395 0.000000
0.000000 0.040395 0.000000
0.001066 0.040254 0.000000
0.007198 0.039447 0.000000
0.014363 0.038503 0.000000
0.022748 0.037399 0.000000
0.033636 0.035965 0.000000
0.052176 0.035965 0.000000
0.077669 0.035965 0.000000
0.112318 0.035965 0.000000
0.158668 0.035965 0.000000
0.219624 0.027646 0.000000
0.290771 0.027646 0.000000
0.387740 0.024229 0.000000
0.512147 0.024023 0.000000
0.669549 0.024229 0.000000
0.879428 0.024229 0.000000
1.000000 0.024229 0.000000
1.000000 0.024229 0.000000
1.000000 0.024229 0.000000
1.000000 0.024229 0.000000
1.000000 0.024229 0.000000
1.000000 0.024229 0.000000
1.000000 0.024229 0.000000
1.000000 0.024229 0.000000
1.000000 0.024229 0.000000
1.000000 0.024229 0.000000
1.000000 0.024229 0.000000
1.000000 0.024229 0.000000
1.000000 0.024229 0.000000
1.000000 0.024229 0.000000
0.000000 0.058731 0.000000
0.000000 0.058731 0.000000
0.000000 0.058731 0.000000
0.001066 0.058591 0.000000
0.007198 0.057783 0.000000
0.014363 0.056840 0.000000
0.022748 0.055735 0.000000
0.033636 0.054302 0.000000
0.048904 0.052291 0.000000
0.074397 0.052291 0.000000
0.109046 0.052291 0.000000
0.155396 0.052291 0.000000
0.216466 0.043776 0.000000
0.289703 0.040196 0.000000
0.387540 0.035460 0.000000
0.512101 0.035021 0.000000
0.669611 0.035180 0.000000
0.879306 0.035227 0.000000
1.000000 0.035227 0.000000
1.000000 0.035227 0.000000
1.000000 0.035227 0.000000
1.000000 0.035227 0.000000
1.000000 0.035227 0.000000
1.000000 0.035227 0.000000
1.000000 0.035227 0.000000
1.000000 0.035227 0.000000
1.000000 0.035227 0.000000
1.000000 0.035227 0.000000
1.000000 0.035227 0.000000
1.000000 0.035227 0.000000
1.000000 0.035227 0.000000
1.000000 0.035227 0.000000
0.000000 0.083943 0.000000
0.000000 0.083943 0.000000
0.000000 0.083943 0.000000
0.001066 0.083803 0.000000
0.007198 0.082995 0.000000
0.014363 0.082052 0.000000
0.022748 0.080948 0.000000
0.033636 0.079514 0.000000
0.048904 0.077504 0.000000
0.069898 0.074739 0.000000
0.104547 0.074739 0.000000
0.150898 0.074739 0.000000
0.211967 0.066224 0.000000
0.288234 0.057451 0.000000
0.386072 0.052716 0.000000
0.512036 0.050144 0.000000
0.669611 0.050109 0.000000
0.879138 0.050349 0.000000
1.000000 0.050349 0.000000
1.000000 0.050349 0.000000
1.000000 0.050349 0.000000
1.000000 0.050349 0.000000
1.000000 0.050349 0.000000
1.000000 0.050349 0.000000
1.000000 0.050349 0.000000
1.000000 0.050349 0.000000
1.000000 0.050349 0.000000
1.000000 0.050349 0.000000
1.000000 0.050349 0.000000
1.000000 0.050349 0.000000
1.000000 0.050349 0.000000
1.000000 0.050349 0.000000
0.000000 0.118211 0.000000
0.000000 0.118211 0.000000
0.000000 0.118211 0.000000
0.001066 0.118071 0.000000
0.007198 0.117263 0.000000
0.014363 0.116320 0.000000
0.022748 0.115216 0.000000
0.033636 0.113782 0.000000
0.048904 0.111771 0.000000
0.069898 0.109007 0.000000
0.098433 0.105249 0.000000
0.144783 0.105249 0.000000
0.205853 0.096734 0.000000
0.286239 0.080904 0.000000
0.384076 0.076169 0.000000
0.511949 0.070698 0.000000
0.669611 0.070401 0.000000
0.878909 0.070903 0.000000
1.000000 0.070903 0.000000
1.000000 0.070903 0.000000
1.000000 0.070903 0.000000
1.000000 0.070903 0.000000
1.000000 0.070903 0.000000
1.000000 0.070903 0.000000
1.000000 0.070903 0.000000
1.000000 0.070903 0.000000
1.000000 0.070903 0.000000
1.000000 0.070903 0.000000
1.000000 0.070903 0.000000
1.000000 0.070903 0.000000
1.000000 0.070903 0.000000
1.000000 0.070903 0.000000
0.000000 0.164052 0.000000
0.000000 0.164052 0.000000
0.000000 0.164052 0.000000
0.001066 0.163911 0.000000
0.007198 0.163104 0.000000
0.014363 0.162160 0.000000
0.022748 0.161056 0.000000
0.033636 0.159622 0.000000
0.048904 0.157612 0.000000
0.069898 0.154847 0.000000
0.098433 0.151090 0.000000
0.136604 0.146064 0.000000
0.197673 0.137549 0.000000
0.279013 0.120083 0.000000
0.381406 0.107542 0.000000
0.511832 0.098193 0.000000
0.669611 0.097545 0.000000
0.878730 0.098398 0.000000
1.000000 0.098398 0.000000
1.000000 0.098398 0.000000
1.000000 0.098398 0.000000
1.000000 0.098398 0.000000
1.000000 0.098398 0.000000
1.000000 0.098398 0.000000
1.000000 0.098398 0.000000
1.000000 0.098398 0.000000
1.000000 0.098398 0.000000
1.000000 0.098398 0.000000
1.000000 0.098398 0.000000
1.000000 0.098398 0.000000
1.000000 0.098398 0.000000
1.000000 0.098398 0.000000
0.000000 0.220376 0.000000
0.000000 0.220376 0.000000
0.000000 0.220376 0.000000
0.000674 0.220334 0.000000
0.004550 0.220093 0.000000
0.009080 0.219811 0.000000
0.014381 0.219480 0.000000
0.021264 0.219052 0.000000
0.036241 0.217114 0.000000
0.057235 0.214350 0.000000
0.085769 0.210593 0.000000
0.123940 0.205566 0.000000
0.171575 0.188169 0.000000
0.252915 0.170704 0.000000
0.359454 0.148852 0.000000
0.500008 0.138021 0.000000
0.669515 0.136662 0.000000
0.879113 0.137855 0.000000
1.000000 0.137869 0.000000
1.000000 0.137869 0.000000
1.000000 0.137869 0.000000
1.000000 0.137869 0.000000
1.000000 0.137869 0.000000
1.000000 0.137869 0.000000
1.000000 0.137869 0.000000
1.000000 0.137869 0.000000
1.000000 0.137869 0.000000
1.000000 0.137869 0.000000
1.000000 0.137869 0.000000
1.000000 0.137869 0.000000
1.000000 0.137869 0.000000
1.000000 0.137869 0.000000
0.000000 0.292466 0.000000
0.000000 0.292466 0.000000
0.000000 0.292466 0.000000
0.000674 0.292424 0.000000
0.004550 0.292183 0.000000
0.009080 0.291901 0.000000
0.014381 0.291571 0.000000
0.021264 0.291142 0.000000
0.030916 0.290541 0.000000
0.044188 0.289714 0.000000
0.062227 0.288591 0.000000
0.097966 0.284175 0.000000
0.145600 0.266777 0.000000
0.207134 0.235857 0.000000
0.314240 0.212254 0.000000
0.457512 0.193023 0.000000
0.657171 0.192447 0.000000
0.879679 0.192732 0.000000
1.000000 0.192773 0.000000
1.000000 0.192773 0.000000
1.000000 0.192773 0.000000
1.000000 0.192773 0.000000
1.000000 0.192773 0.000000
1.000000 0.192773 0.000000
1.000000 0.192773 0.000000
1.000000 0.192773 0.000000
1.000000 0.192773 0.000000
1.000000 0.192773 0.000000
1.000000 0.192773 0.000000
1.000000 0.192773 0.000000
1.000000 0.192773 0.000000
1.000000 0.192773 0.000000
0.000000 0.387844 0.000000
0.000000 0.387844 0.000000
0.000000 0.387844 0.000000
0.000511 0.387844 0.000000
0.003451 0.387844 0.000000
0.006886 0.387844 0.000000
0.010906 0.387844 0.000000
0.016126 0.387844 0.000000
0.023797 0.387753 0.000000
0.037068 0.386927 0.000000
0.055107 0.385803 0.000000
0.079238 0.384300 0.000000
0.112678 0.369021 0.000000
0.171485 0.338274 0.000000
0.253657 0.298344 0.000000
0.392700 0.272059 0.000000
0.609645 0.272652 0.000000
0.863651 0.271908 0.000000
1.000000 0.272268 0.000000
1.000000 0.272268 0.000000
1.000000 0.272268 0.000000
1.000000 0.272268 0.000000
1.000000 0.272268 0.000000
1.000000 0.272268 0.000000
1.000000 0.272268 0.000000
1.000000 0.272268 0.000000
1.000000 0.272268 0.000000
1.000000 0.272268 0.000000
1.000000 0.272268 0.000000
1.000000 0.272268 0.000000
1.000000 0.272268 0.000000
1.000000 0.272268 0.000000
0.000000 0.512182 0.000000
0.000000 0.512182 0.000000
0.000000 0.512182 0.000000
0.000511 0.512194 0.000000
0.003451 0.512262 0.000000
0.006886 0.512341 0.000000
0.010906 0.512430 0.000000
0.016126 0.512430 0.000000
0.023446 0.512430 0.000000
0.033511 0.512430 0.000000
0.047191 0.512430 0.000000
0.065491 0.512430 0.000000
0.096499 0.504078 0.000000
0.142223 0.474164 0.000000
0.213140 0.430394 0.000000
0.325852 0.387336 0.000000
0.510762 0.388371 0.000000
0.812520 0.388687 0.000000
1.000000 0.388771 0.000000
1.000000 0.388771 0.000000
1.000000 0.388771 0.000000
1.000000 0.388771 0.000000
1.000000 0.388771 0.000000
1.000000 0.388771 0.000000
1.000000 0.388771 0.000000
1.000000 0.388771 0.000000
1.000000 0.388770 0.000000
1.000000 0.388771 0.000000
1.000000 0.388770 0.000000
1.000000 0.388771 0.000000
1.000000 0.388770 0.000000
1.000000 0.388771 0.000000
0.000000 0.669346 0.000000
0.000000 0.669346 0.000000
0.000000 0.669346 0.000000
0.000505 0.669367 0.000000
0.003411 0.669489 0.000000
0.006806 0.669632 0.000000
0.010780 0.669799 0.000000
0.015940 0.670015 0.000000
0.023203 0.670274 0.000000
0.033268 0.670507 0.000000
0.046948 0.670823 0.000000
0.065248 0.671246 0.000000
0.096700 0.671516 0.000000
0.143332 0.662683 0.000000
0.214492 0.629823 0.000000
0.326516 0.564938 0.000000
0.506709 0.561223 0.000000
0.802897 0.564029 0.000000
1.000000 0.561332 0.000000
1.000000 0.561332 0.000000
1.000000 0.561332 0.000000
1.000000 0.561332 0.000000
1.000000 0.561332 0.000000
1.000000 0.561332 0.000000
1.000000 0.561332 0.000000
1.000000 0.561332 0.000000
1.000000 0.561332 0.000000
1.000000 0.561332 0.000000
1.000000 0.561332 0.000000
1.000000 0.561332 0.000000
1.000000 0.561332 0.000000
1.000000 0.561332 0.000000
0.000000 0.877540 0.000000
0.000000 0.877540 0.000000
0.000000 0.877540 0.000000
0.000507 0.877558 0.000000
0.003422 0.877662 0.000000
0.006828 0.877783 0.000000
0.010814 0.877925 0.000000
0.015989 0.878109 0.000000
0.023248 0.878368 0.000000
0.033227 0.878723 0.000000
0.046792 0.879205 0.000000
0.064923 0.879878 0.000000
0.095933 0.880229 0.000000
0.142398 0.880229 0.000000
0.213427 0.868778 0.000000
0.325089 0.833392 0.000000
0.509116 0.828931 0.000000
0.802234 0.827711 0.000000
1.000000 0.827910 0.000000
1.000000 0.827910 0.000000
1.000000 0.827910 0.000000
1.000000 0.827910 0.000000
1.000000 0.827911 0.000000
1.000000 0.827911 0.000000
1.000000 0.827911 0.000000
1.000000 0.827911 0.000000
1.000000 0.827911 0.000000
1.000000 0.827910 0.000000
1.000000 0.827911 0.000000
1.000000 0.827911 0.000000
1.000000 0.827910 0.000000
1.000000 0.827910 0.000000
0.000000 1.000000 0.000000
0.000000 1.000000 0.000000
0.000000 1.000000 0.000000
0.000511 1.000000 0.000000
0.003451 1.000000 0.000000
0.006886 1.000000 0.000000
0.010906 1.000000 0.000000
0.016126 1.000000 0.000000
0.023446 1.000000 0.000000
0.033511 1.000000 0.000000
0.047191 1.000000 0.000000
0.065491 1.000000 0.000000
0.096084 1.000000 0.000000
0.141494 1.000000 0.000000
0.212641 1.000000 0.000000
0.326405 1.000000 0.000000
0.509166 1.000000 0.000000
0.801701 1.000000 0.000000
1.000000 1.000000 0.000000
1.000000 1.000000 0.000000
1.000000 1.000000 0.000000
1.000000 1.000000 0.000000
1.000000 1.000000 0.000000
1.000000 1.000000 0.000000
1.000000 1.000000 0.000000
1.000000 1.000000 0.000000
1.000000 1.000000 0.000000
1.000000 1.000000 0.000000
1.000000 1.000000 0.000000
1.000000 1.000000 0.000000
1.000000 1.000000 0.000000
1.000000 1.000000 0.000000
0.000000 1.000000 0.000000
0.000000 1.000000 0.000000
0.000000 1.000000 0.000000
0.000511 1.000000 0.000000
0.003451 1.000000 0.000000
0.006886 1.000000 0.000000
0.010906 1.000000 0.000000
0.016126 1.000000 0.000000
0.023446 1.000000 0.000000
0.033511 1.000000 0.000000
0.047191 1.000000 0.000000
0.065491 1.000000 0.000000
0.096084 1.000000 0.000000
0.141494 1.000000 0.000000
0.212641 1.000000 0.000000
0.326405 1.000000 0.000000
0.509166 1.000000 0.000000
0.801701 1.000000 0.000000
1.000000 1.000000 0.000000
1.000000 1.000000 0.000000
1.000000 1.000000 0.000000
1.000000 1.000000 0.000000
1.000000 1.000000 0.000000
1.000000 1.000000 0.000000
1.000000 1.000000 0.000000
1.000000 1.000000 0.000000
1.000000 1.000000 0.000000
1.000000 1.000000 0.000000
1.000000 1.000000 0.000000
1.000000 1.000000 0.000000
1.000000 1.000000 0.000000
1.000000 1.000000 0.000000
0.000000 1.000000 0.000000
0.000000 1.000000 0.000000
0.000000 1.000000 0.000000
0.000511 1.000000 0.000000
0.003451 1.000000 0.000000
0.006886 1.000000 0.000000
0.010906 1.000000 0.000000
0.016126 1.000000 0.000000
0.023446 1.000000 0.000000
0.033511 1.000000 0.000000
0.047191 1.000000 0.000000
0.065491 1.000000 0.000000
0.096084 1.000000 0.000000
0.141494 1.000000 0.000000
0.212641 1.000000 0.000000
0.326405 1.000000 0.000000
0.509166 1.000000 0.000000
0.801701 1.000000 0.000000
1.000000 1.000000 0.000000
1.000000 1.000000 0.000000
1.000000 1.000000 0.000000
1.000000 1.000000 0.000000
1.000000 1.000000 0.000000
1.000000 1.000000 0.000000
1.000000 1.000000 0.000000
1.000000 1.000000 0.000000
1.000000 1.000000 0.000000
1.000000 1.000000 0.000000
1.000000 1.000000 0.000000
1.000000 1.000000 0.000000
1.000000 1.000000 0.000000
1.000000 1.000000 0.000000
0.000000 1.000000 0.000000
0.000000 1.000000 0.000000
0.000000 1.000000 0.000000
0.000511 1.000000 0.000000
0.003451 1.000000 0.000000
0.006886 1.000000 0.000000
0.010906 1.000000 0.000000
0.016126 1.000000 0.000000
0.023446 1.000000 0.000000
0.033511 1.000000 0.000000
0.047191 1.000000 0.000000
0.065491 1.000000 0.000000
0.096084 1.000000 0.000000
0.141494 1.000000 0.000000
0.212641 1.000000 0.000000
0.326405 1.000000 0.000000
0.509166 1.000000 0.000000
0.801701 1.000000 0.000000
1.000000 1.000000 0.000000
1.000000 1.000000 0.000000
1.000000 1.000000 0.000000
1.000000 1.000000 0.000000
1.000000 1.000000 0.000000
1.000000 1.000000 0.000000
1.000000 1.000000 0.000000
1.000000 1.000000 0.000000
1.000000 1.000000 0.000000
1.000000 1.000000 0.000000
1.000000 1.000000 0.000000
1.000000 1.000000 0.000000
1.000000 1.000000 0.000000
1.000000 1.000000 0.000000
0.000000 1.000000 0.000000
0.000000 1.000000 0.000000
0.000000 1.000000 0.000000
0.000511 1.000000 0.000000
0.003451 1.000000 0.000000
0.006886 1.000000 0.000000
0.010906 1.000000 0.000000
0.016126 1.000000 0.000000
0.023446 1.000000 0.000000
0.033511 1.000000 0.000000
0.047191 1.000000 0.000000
0.065491 1.000000 0.000000
0.096084 1.000000 0.000000
0.141494 1.000000 0.000000
0.212641 1.000000 0.000000
0.326405 1.000000 0.000000
0.509166 1.000000 0.000000
0.801702 1.000000 0.000000
1.000000 1.000000 0.000000
1.000000 1.000000 0.000000
1.000000 1.000000 0.000000
1.000000 1.000000 0.000000
1.000000 1.000000 0.000000
1.000000 1.000000 0.000000
1.000000 1.000000 0.000000
1.000000 1.000000 0.000000
1.000000 1.000000 0.000000
1.000000 1.000000 0.000000
1.000000 1.000000 0.000000
1.000000 1.000000 0.000000
1.000000 1.000000 0.000000
1.000000 1.000000 0.000000
0.000000 1.000000 0.000000
0.000000 1.000000 0.000000
0.000000 1.000000 0.000000
0.000511 1.000000 0.000000
0.003451 1.000000 0.000000
0.006886 1.000000 0.000000
0.010906 1.000000 0.000000
0.016126 1.000000 0.000000
0.023446 1.000000 0.000000
0.033511 1.000000 0.000000
0.047191 1.000000 0.000000
0.065491 1.000000 0.000000
0.096084 1.000000 0.000000
0.141494 1.000000 0.000000
0.212641 1.000000 0.000000
0.326405 1.000000 0.000000
0.509166 1.000000 0.000000
0.801702 1.000000 0.000000
1.000000 1.000000 0.000000
1.000000 1.000000 0.000000
1.000000 1.000000 0.000000
1.000000 1.000000 0.000000
1.000000 1.000000 0.000000
1.000000 1.000000 0.000000
1.000000 1.000000 0.000000
1.000000 1.000000 0.000000
1.000000 1.000000 0.000000
1.000000 1.000000 0.000000
1.000000 1.000000 0.000000
1.000000 1.000000 0.000000
1.000000 1.000000 0.000000
1.000000 1.000000 0.000000
0.000000 1.000000 0.000000
0.000000 1.000000 0.000000
0.000000 1.000000 0.000000
0.000511 1.000000 0.000000
0.003451 1.000000 0.000000
0.006886 1.000000 0.000000
0.010906 1.000000 0.000000
0.016126 1.000000 0.000000
0.023446 1.000000 0.000000
0.033511 1.000000 0.000000
0.047191 1.000000 0.000000
0.065491 1.000000 0.000000
0.096084 1.000000 0.000000
0.141494 1.000000 0.000000
0.212641 1.000000 0.000000
0.326405 1.000000 0.000000
0.509166 1.000000 0.000000
0.801702 1.000000 0.000000
1.000000 1.000000 0.000000
1.000000 1.000000 0.000000
1.000000 1.000000 0.000000
1.000000 1.000000 0.000000
1.000000 1.000000 0.000000
1.000000 1.000000 0.000000
1.000000 1.000000 0.000000
1.000000 1.000000 0.000000
1.000000 1.000000 0.000000
1.000000 1.000000 0.000000
1.000000 1.000000 0.000000
1.000000 1.000000 0.000000
1.000000 1.000000 0.000000
1.000000 1.000000 0.000000
0.000000 1.000000 0.000000
0.000000 1.000000 0.000000
0.000000 1.000000 0.000000
0.000511 1.000000 0.000000
0.003451 1.000000 0.000000
0.006886 1.000000 0.000000
0.010906 1.000000 0.000000
0.016126 1.000000 0.000000
0.023446 1.000000 0.000000
0.033511 1.000000 0.000000
0.047191 1.000000 0.000000
0.065491 1.000000 0.000000
0.096084 1.000000 0.000000
0.141494 1.000000 0.000000
0.212641 1.000000 0.000000
0.326405 1.000000 0.000000
0.509166 1.000000 0.000000
0.801702 1.000000 0.000000
1.000000 1.000000 0.000000
1.000000 1.000000 0.000000
1.000000 1.000000 0.000000
1.000000 1.000000 0.000000
1.000000 1.000000 0.000000
1.000000 1.000000 0.000000
1.000000 1.000000 0.000000
1.000000 1.000000 0.000000
1.000000 1.000000 0.000000
1.000000 1.000000 0.000000
1.000000 1.000000 0.000000
1.000000 1.000000 0.000000
1.000000 1.000000 0.000000
1.000000 1.000000 0.000000
0.000000 1.000000 0.000000
0.000000 1.000000 0.000000
0.000000 1.000000 0.000000
0.000511 1.000000 0.000000
0.003451 1.000000 0.000000
0.006886 1.000000 0.000000
0.010906 1.000000 0.000000
0.016126 1.000000 0.000000
0.023446 1.000000 0.000000
0.033511 1.000000 0.000000
0.047191 1.000000 0.000000
0.065491 1.000000 0.000000
0.096084 1.000000 0.000000
0.141494 1.000000 0.000000
0.212641 1.000000 0.000000
0.326405 1.000000 0.000000
0.509166 1.000000 0.000000
0.801702 1.000000 0.000000
1.000000 1.000000 0.000000
1.000000 1.000000 0.000000
1.000000 1.000000 0.000000
1.000000 1.000000 0.000000
1.000000 1.000000 0.000000
1.000000 1.000000 0.000000
1.000000 1.000000 0.000000
1.000000 1.000000 0.000000
1.000000 1.000000 0.000000
1.000000 1.000000 0.000000
1.000000 1.000000 0.000000
1.000000 1.000000 0.000000
1.000000 1.000000 0.000000
1.000000 1.000000 0.000000
0.000000 1.000000 0.000000
0.000000 1.000000 0.000000
0.000000 1.000000 0.000000
0.000511 1.000000 0.000000
0.003451 1.000000 0.000000
0.006886 1.000000 0.000000
0.010906 1.000000 0.000000
0.016126 1.000000 0.000000
0.023446 1.000000 0.000000
0.033511 1.000000 0.000000
0.047191 1.000000 0.000000
0.065491 1.000000 0.000000
0.096084 1.000000 0.000000
0.141494 1.000000 0.000000
0.212641 1.000000 0.000000
0.326405 1.000000 0.000000
0.509166 1.000000 0.000000
0.801701 1.000000 0.000000
