Assets/Art/Materials/LUT/3strip.CUBE.CUBE
#Created by: Adobe Photoshop Export Color Lookup Plugin
TITLE "Frame.exr"
#LUT size
LUT_3D_SIZE 5
#data domain
#LUT data points
DOMAIN_MIN 0.000000 0.000000 0.000000
DOMAIN_MAX 0.903226 0.903226 0.903226
0.000000 0.000000 0.000000
0.040844 0.000000 0.000000
0.387844 0.000000 0.000000
1.000000 0.000000 0.000000
1.000000 0.000000 0.000000
0.000000 0.040395 0.000000
0.033636 0.035965 0.000000
0.387740 0.024229 0.000000
1.000000 0.024229 0.000000
1.000000 0.024229 0.000000
0.000000 0.387844 0.000000
0.016126 0.387844 0.000000
0.253657 0.298344 0.000000
1.000000 0.272268 0.000000
1.000000 0.272268 0.000000
0.000000 1.000000 0.000000
0.016126 1.000000 0.000000
0.212641 1.000000 0.000000
1.000000 1.000000 0.000000
1.000000 1.000000 0.000000
0.000000 1.000000 0.000000
0.016126 1.000000 0.000000
0.212641 1.000000 0.000000
1.000000 1.000000 0.000000
1.000000 1.000000 0.000000
0.000000 0.000000 0.040395
0.036158 0.000000 0.036158
0.387088 0.000000 0.024229
1.000000 0.000000 0.024229
1.000000 0.000000 0.024229
0.000000 0.035753 0.033656
0.039563 0.039776 0.039563
0.387594 0.025230 0.025230
1.000000 0.024422 0.024422
1.000000 0.024422 0.024422
0.000000 0.387428 0.015810
0.017360 0.387371 0.017147
0.263391 0.304773 0.023570
1.000000 0.272075 0.030425
1.000000 0.272075 0.030425
0.000000 1.000000 0.015717
0.016339 1.000000 0.016552
0.212325 1.000000 0.025234
1.000000 1.000000 0.040395
1.000000 1.000000 0.040395
0.000000 1.000000 0.015717
0.016339 1.000000 0.016552
0.212325 1.000000 0.025234
1.000000 1.000000 0.040395
1.000000 1.000000 0.040395
0.000000 0.000000 0.386659
0.024126 0.000000 0.387098
0.298556 0.000000 0.298556
1.000000 0.000000 0.272268
1.000000 0.000000 0.272268
0.000000 0.024229 0.387168
0.025477 0.025314 0.387331
0.304936 0.026608 0.304786
1.000000 0.029989 0.271729
1.000000 0.029989 0.271729
0.000000 0.298056 0.253364
0.023500 0.304598 0.262875
0.378656 0.380612 0.378984
1.000000 0.273565 0.273565
1.000000 0.273565 0.273565
0.000000 1.000000 0.211996
0.025234 1.000000 0.212239
0.214762 1.000000 0.214049
1.000000 1.000000 0.386926
1.000000 1.000000 0.386926
0.000000 1.000000 0.211996
0.025234 1.000000 0.212239
0.214762 1.000000 0.214049
1.000000 1.000000 0.386926
1.000000 1.000000 0.386926
0.000000 0.000000 1.000000
0.024635 0.000000 1.000000
0.272650 0.000000 1.000000
1.000000 0.000000 1.000000
1.000000 0.000000 1.000000
0.000000 0.024229 1.000000
0.024229 0.024442 1.000000
0.272650 0.030425 1.000000
1.000000 0.040395 1.000000
1.000000 0.040395 1.000000
0.000000 0.271732 1.000000
0.030425 0.272494 1.000000
0.272469 0.272469 1.000000
1.000000 0.387586 1.000000
1.000000 0.387586 1.000000
0.000000 1.000000 1.000000
0.040395 1.000000 1.000000
0.388504 1.000000 1.000000
1.000000 1.000000 1.000000
1.000000 1.000000 1.000000
0.000000 1.000000 1.000000
0.040395 1.000000 1.000000
0.388504 1.000000 1.000000
1.000000 1.000000 1.000000
1.000000 1.000000 1.000000
0.000000 0.000000 1.000000
0.024635 0.000000 1.000000
0.272650 0.000000 1.000000
1.000000 0.000000 1.000000
1.000000 0.000000 1.000000
0.000000 0.024229 1.000000
0.024229 0.024442 1.000000
0.272650 0.030425 1.000000
1.000000 0.040395 1.000000
1.000000 0.040395 1.000000
0.000000 0.271732 1.000000
0.030425 0.272494 1.000000
0.272469 0.272469 1.000000
1.000000 0.387586 1.000000
1.000000 0.387586 1.000000
0.000000 1.000000 1.000000
0.040395 1.000000 1.000000
0.388504 1.000000 1.000000
1.000000 1.000000 1.000000
1.000000 1.000000 1.000000
0.000000 1.000000 1.000000
0.040395 1.000000 1.000000
0.388504 1.000000 1.000000
1.000000 1.000000 1.000000
1.000000 1.000000 1.000000
