Assets/Art/Materials/LUT/3strip.CUBE.CUBE
#Created by: Adobe Photoshop Export Color Lookup Plugin
TITLE "Frame.exr"
#LUT size
LUT_3D_SIZE 8
#data domain
#LUT data points
DOMAIN_MIN 0.000000 0.000000 0.000000
DOMAIN_MAX 0.903226 0.903226 0.903226
0.000000 0.000000 0.000000
0.008740 0.000000 0.000000
0.059384 0.000000 0.000000
0.221976 0.000000 0.000000
0.669346 0.000000 0.000000
1.000000 0.000000 0.000000
1.000000 0.000000 0.000000
1.000000 0.000000 0.000000
0.000000 0.008644 0.000000
0.007198 0.007697 0.000000
0.057842 0.007697 0.000000
0.221473 0.005916 0.000000
0.669390 0.005185 0.000000
1.000000 0.005185 0.000000
1.000000 0.005185 0.000000
1.000000 0.005185 0.000000
0.000000 0.058731 0.000000
0.007198 0.057783 0.000000
0.048904 0.052291 0.000000
0.216466 0.043776 0.000000
0.669611 0.035180 0.000000
1.000000 0.035227 0.000000
1.000000 0.035227 0.000000
1.000000 0.035227 0.000000
0.000000 0.220376 0.000000
0.004550 0.220093 0.000000
0.036241 0.217114 0.000000
0.171575 0.188169 0.000000
0.669515 0.136662 0.000000
1.000000 0.137869 0.000000
1.000000 0.137869 0.000000
1.000000 0.137869 0.000000
0.000000 0.669346 0.000000
0.003411 0.669489 0.000000
0.023203 0.670274 0.000000
0.096700 0.671516 0.000000
0.506709 0.561223 0.000000
1.000000 0.561332 0.000000
1.000000 0.561332 0.000000
1.000000 0.561332 0.000000
0.000000 1.000000 0.000000
0.003451 1.000000 0.000000
0.023446 1.000000 0.000000
0.096084 1.000000 0.000000
0.509166 1.000000 0.000000
1.000000 1.000000 0.000000
1.000000 1.000000 0.000000
1.000000 1.000000 0.000000
0.000000 1.000000 0.000000
0.003451 1.000000 0.000000
0.023446 1.000000 0.000000
0.096084 1.000000 0.000000
0.509166 1.000000 0.000000
1.000000 1.000000 0.000000
1.000000 1.000000 0.000000
1.000000 1.000000 0.000000
0.000000 1.000000 0.000000
0.003451 1.000000 0.000000
0.023446 1.000000 0.000000
0.096084 1.000000 0.000000
0.509166 1.000000 0.000000
1.000000 1.000000 0.000000
1.000000 1.000000 0.000000
1.000000 1.000000 0.000000
0.000000 0.000000 0.008644
0.007738 0.000000 0.007738
0.058381 0.000000 0.007738
0.221693 0.000000 0.005983
0.669346 0.000000 0.005185
1.000000 0.000000 0.005185
1.000000 0.000000 0.005185
1.000000 0.000000 0.005185
0.000000 0.007651 0.007202
0.008466 0.008512 0.008466
0.059110 0.008512 0.008466
0.221976 0.007039 0.007004
0.669430 0.005206 0.005230
1.000000 0.005226 0.005226
1.000000 0.005226 0.005226
1.000000 0.005226 0.005226
0.000000 0.057737 0.007202
0.008466 0.058598 0.008466
0.050173 0.053107 0.008466
0.216970 0.044898 0.007004
0.669651 0.035201 0.005230
1.000000 0.035268 0.005226
1.000000 0.035268 0.005226
1.000000 0.035268 0.005226
0.000000 0.220070 0.004644
0.006144 0.220409 0.006144
0.037835 0.217431 0.006144
0.174351 0.190032 0.006631
0.669531 0.136673 0.005865
1.000000 0.137823 0.005798
1.000000 0.137823 0.005798
1.000000 0.137823 0.005798
0.000000 0.669390 0.003363
0.003474 0.669417 0.003474
0.023266 0.670201 0.003474
0.096689 0.671442 0.004476
0.506729 0.561184 0.006373
1.000000 0.561432 0.007726
1.000000 0.561432 0.007726
1.000000 0.561432 0.007726
0.000000 1.000000 0.003363
0.003496 1.000000 0.003542
0.023491 1.000000 0.003542
0.096130 1.000000 0.004432
0.509206 1.000000 0.007172
1.000000 1.000000 0.008644
1.000000 1.000000 0.008644
1.000000 1.000000 0.008644
0.000000 1.000000 0.003363
0.003496 1.000000 0.003542
0.023491 1.000000 0.003542
0.096130 1.000000 0.004432
0.509206 1.000000 0.007172
1.000000 1.000000 0.008644
1.000000 1.000000 0.008644
1.000000 1.000000 0.008644
0.000000 1.000000 0.003363
0.003496 1.000000 0.003542
0.023491 1.000000 0.003542
0.096130 1.000000 0.004432
0.509206 1.000000 0.007172
1.000000 1.000000 0.008644
1.000000 1.000000 0.008644
1.000000 1.000000 0.008644
0.000000 0.000000 0.058731
0.007738 0.000000 0.057824
0.052572 0.000000 0.052572
0.218604 0.000000 0.044179
0.669454 0.000000 0.035227
1.000000 0.000000 0.035227
1.000000 0.000000 0.035227
1.000000 0.000000 0.035227
0.000000 0.007651 0.057289
0.008466 0.008512 0.058553
0.053300 0.008512 0.053300
0.218888 0.007039 0.045200
0.669537 0.005206 0.035272
1.000000 0.005226 0.035268
1.000000 0.005226 0.035268
1.000000 0.005226 0.035268
0.000000 0.051982 0.048933
0.008466 0.052842 0.050197
0.057521 0.057831 0.057521
0.221425 0.050784 0.050525
0.669883 0.035385 0.035537
1.000000 0.035507 0.035507
1.000000 0.035507 0.035507
1.000000 0.035507 0.035507
0.000000 0.216914 0.036699
0.006144 0.217253 0.038199
0.046414 0.220266 0.046414
0.187406 0.198719 0.048744
0.669672 0.136819 0.038571
1.000000 0.137734 0.038243
1.000000 0.137734 0.038243
1.000000 0.137734 0.038243
0.000000 0.669667 0.022861
0.003474 0.669694 0.022971
0.023607 0.669827 0.023612
0.096753 0.671062 0.028404
0.506927 0.561083 0.042435
1.000000 0.561928 0.052004
1.000000 0.561928 0.052004
1.000000 0.561928 0.052004
0.000000 1.000000 0.022851
0.003496 1.000000 0.023030
0.023756 1.000000 0.024065
0.096394 1.000000 0.028323
0.509333 1.000000 0.048123
1.000000 1.000000 0.058731
1.000000 1.000000 0.058731
1.000000 1.000000 0.058731
0.000000 1.000000 0.022851
0.003496 1.000000 0.023030
0.023756 1.000000 0.024065
0.096394 1.000000 0.028323
0.509333 1.000000 0.048123
1.000000 1.000000 0.058731
1.000000 1.000000 0.058731
1.000000 1.000000 0.058731
0.000000 1.000000 0.022851
0.003496 1.000000 0.023030
0.023756 1.000000 0.024065
0.096394 1.000000 0.028323
0.509333 1.000000 0.048123
1.000000 1.000000 0.058731
1.000000 1.000000 0.058731
1.000000 1.000000 0.058731
0.000000 0.000000 0.220376
0.005983 0.000000 0.220093
0.044179 0.000000 0.217197
0.188857 0.000000 0.188857
0.671998 0.000000 0.138077
1.000000 0.000000 0.137869
1.000000 0.000000 0.137869
1.000000 0.000000 0.137869
0.000000 0.005960 0.219850
0.006965 0.006965 0.220386
0.045161 0.006965 0.217491
0.190721 0.007088 0.190721
0.672048 0.005903 0.138031
1.000000 0.005871 0.137846
1.000000 0.005871 0.137846
1.000000 0.005871 0.137846
0.000000 0.043892 0.214959
0.006965 0.044898 0.215495
0.050341 0.050433 0.220066
0.199239 0.051019 0.199239
0.672267 0.038719 0.137950
1.000000 0.038593 0.137843
1.000000 0.038593 0.137843
1.000000 0.038593 0.137843
0.000000 0.187250 0.171486
0.006672 0.189133 0.174296
0.048941 0.197984 0.187468
0.215798 0.217034 0.215955
0.670430 0.138963 0.139067
1.000000 0.138924 0.138924
1.000000 0.138924 0.138924
1.000000 0.138924 0.138924
0.000000 0.671025 0.095397
0.004420 0.670991 0.095376
0.028133 0.670895 0.095521
0.097480 0.670876 0.097661
0.509146 0.563218 0.143475
1.000000 0.561222 0.185871
1.000000 0.561222 0.185871
1.000000 0.561222 0.185871
0.000000 1.000000 0.094627
0.004453 1.000000 0.094766
0.028330 1.000000 0.095654
0.097480 1.000000 0.098078
0.507852 1.000000 0.169349
1.000000 1.000000 0.220376
1.000000 1.000000 0.220376
1.000000 1.000000 0.220376
0.000000 1.000000 0.094627
0.004453 1.000000 0.094766
0.028330 1.000000 0.095654
0.097480 1.000000 0.098078
0.507852 1.000000 0.169349
1.000000 1.000000 0.220376
1.000000 1.000000 0.220376
1.000000 1.000000 0.220376
0.000000 1.000000 0.094627
0.004453 1.000000 0.094766
0.028330 1.000000 0.095654
0.097480 1.000000 0.098078
0.507852 1.000000 0.169349
1.000000 1.000000 0.220376
1.000000 1.000000 0.220376
1.000000 1.000000 0.220376
0.000000 0.000000 0.672202
0.005185 0.000000 0.672162
0.035170 0.000000 0.671851
0.136842 0.000000 0.669801
0.563189 0.000000 0.563572
1.000000 0.000000 0.563173
1.000000 0.000000 0.563173
1.000000 0.000000 0.563173
0.000000 0.005225 0.672202
0.005206 0.005230 0.672231
0.035191 0.005230 0.671920
0.136842 0.005908 0.669801
0.563194 0.006809 0.563574
1.000000 0.007726 0.563309
1.000000 0.007726 0.563309
1.000000 0.007726 0.563309
0.000000 0.035470 0.672094
0.005206 0.035475 0.672123
0.035379 0.035504 0.672272
0.136952 0.038746 0.669892
0.563197 0.045545 0.563549
1.000000 0.052025 0.563941
1.000000 0.052025 0.563941
1.000000 0.052025 0.563941
0.000000 0.138129 0.669547
0.005876 0.138095 0.669590
0.038587 0.137976 0.669789
0.138890 0.138343 0.670021
0.562665 0.157754 0.562455
1.000000 0.185932 0.562525
1.000000 0.185932 0.562525
1.000000 0.185932 0.562525
0.000000 0.563021 0.508937
0.006372 0.563092 0.508989
0.042429 0.563455 0.509253
0.143476 0.563506 0.509261
0.656453 0.660047 0.656519
1.000000 0.565835 0.565562
1.000000 0.565835 0.565562
1.000000 0.565835 0.565562
0.000000 1.000000 0.509822
0.007225 1.000000 0.509691
0.048450 1.000000 0.508979
0.169644 1.000000 0.507792
0.512531 1.000000 0.512531
1.000000 1.000000 0.672297
1.000000 1.000000 0.672297
1.000000 1.000000 0.672297
0.000000 1.000000 0.509822
0.007225 1.000000 0.509691
0.048450 1.000000 0.508979
0.169644 1.000000 0.507792
0.512531 1.000000 0.512531
1.000000 1.000000 0.672297
1.000000 1.000000 0.672297
1.000000 1.000000 0.672297
0.000000 1.000000 0.509822
0.007225 1.000000 0.509691
0.048450 1.000000 0.508979
0.169644 1.000000 0.507793
0.512532 1.000000 0.512532
1.000000 1.000000 0.672297
1.000000 1.000000 0.672297
1.000000 1.000000 0.672297
0.000000 0.000000 1.000000
0.005272 0.000000 1.000000
0.035817 0.000000 1.000000
0.139523 0.000000 1.000000
0.563780 0.000000 1.000000
1.000000 0.000000 1.000000
1.000000 0.000000 1.000000
1.000000 0.000000 1.000000
0.000000 0.005185 1.000000
0.005185 0.005230 1.000000
0.035730 0.005230 1.000000
0.139449 0.005888 1.000000
0.563773 0.007638 1.000000
1.000000 0.008644 1.000000
1.000000 0.008644 1.000000
1.000000 0.008644 1.000000
0.000000 0.035227 1.000000
0.005185 0.035272 1.000000
0.035227 0.035537 1.000000
0.138997 0.038680 1.000000
0.563681 0.051526 1.000000
1.000000 0.058731 1.000000
1.000000 0.058731 1.000000
1.000000 0.058731 1.000000
0.000000 0.138077 1.000000
0.005864 0.138077 1.000000
0.038476 0.138168 1.000000
0.137886 0.138645 1.000000
0.562751 0.187154 1.000000
1.000000 0.220587 1.000000
1.000000 0.220587 1.000000
1.000000 0.220587 1.000000
0.000000 0.561332 1.000000
0.007686 0.561340 1.000000
0.051827 0.561437 1.000000
0.186975 0.562386 1.000000
0.565996 0.565996 1.000000
1.000000 0.669346 1.000000
1.000000 0.669346 1.000000
1.000000 0.669346 1.000000
0.000000 1.000000 1.000000
0.008644 1.000000 1.000000
0.058731 1.000000 1.000000
0.220587 1.000000 1.000000
0.670456 1.000000 1.000000
1.000000 1.000000 1.000000
1.000000 1.000000 1.000000
1.000000 1.000000 1.000000
0.000000 1.000000 1.000000
0.008644 1.000000 1.000000
0.058731 1.000000 1.000000
0.220587 1.000000 1.000000
0.670456 1.000000 1.000000
1.000000 1.000000 1.000000
1.000000 1.000000 1.000000
1.000000 1.000000 1.000000
0.000000 1.000000 1.000000
0.008644 1.000000 1.000000
0.058731 1.000000 1.000000
0.220587 1.000000 1.000000
0.670456 1.000000 1.000000
1.000000 1.000000 1.000000
1.000000 1.000000 1.000000
1.000000 1.000000 1.000000
0.000000 0.000000 1.000000
0.005272 0.000000 1.000000
0.035817 0.000000 1.000000
0.139523 0.000000 1.000000
0.563780 0.000000 1.000000
1.000000 0.000000 1.000000
1.000000 0.000000 1.000000
1.000000 0.000000 1.000000
0.000000 0.005185 1.000000
0.005185 0.005230 1.000000
0.035730 0.005230 1.000000
0.139449 0.005888 1.000000
0.563773 0.007638 1.000000
1.000000 0.008644 1.000000
1.000000 0.008644 1.000000
1.000000 0.008644 1.000000
0.000000 0.035227 1.000000
0.005185 0.035272 1.000000
0.035227 0.035537 1.000000
0.138997 0.038680 1.000000
0.563681 0.051526 1.000000
1.000000 0.058731 1.000000
1.000000 0.058731 1.000000
1.000000 0.058731 1.000000
0.000000 0.138077 1.000000
0.005864 0.138077 1.000000
0.038476 0.138168 1.000000
0.137886 0.138645 1.000000
0.562751 0.187154 1.000000
1.000000 0.220587 1.000000
1.000000 0.220587 1.000000
1.000000 0.220587 1.000000
0.000000 0.561332 1.000000
0.007686 0.561340 1.000000
0.051827 0.561437 1.000000
0.186975 0.562386 1.000000
0.565996 0.565996 1.000000
1.000000 0.669346 1.000000
1.000000 0.669346 1.000000
1.000000 0.669346 1.000000
0.000000 1.000000 1.000000
0.008644 1.000000 1.000000
0.058731 1.000000 1.000000
0.220587 1.000000 1.000000
0.670456 1.000000 1.000000
1.000000 1.000000 1.000000
1.000000 1.000000 1.000000
1.000000 1.000000 1.000000
0.000000 1.000000 1.000000
0.008644 1.000000 1.000000
0.058731 1.000000 1.000000
0.220587 1.000000 1.000000
0.670456 1.000000 1.000000
1.000000 1.000000 1.000000
1.000000 1.000000 1.000000
1.000000 1.000000 1.000000
0.000000 1.000000 1.000000
0.008644 1.000000 1.000000
0.058731 1.000000 1.000000
0.220587 1.000000 1.000000
0.670456 1.000000 1.000000
1.000000 1.000000 1.000000
1.000000 1.000000 1.000000
1.000000 1.000000 1.000000
0.000000 0.000000 1.000000
0.005272 0.000000 1.000000
0.035817 0.000000 1.000000
0.139523 0.000000 1.000000
0.563780 0.000000 1.000000
1.000000 0.000000 1.000000
1.000000 0.000000 1.000000
1.000000 0.000000 1.000000
0.000000 0.005185 1.000000
0.005185 0.005230 1.000000
0.035730 0.005230 1.000000
0.139449 0.005888 1.000000
0.563773 0.007638 1.000000
1.000000 0.008644 1.000000
1.000000 0.008644 1.000000
1.000000 0.008644 1.000000
0.000000 0.035227 1.000000
0.005185 0.035272 1.000000
0.035227 0.035537 1.000000
0.138997 0.038680 1.000000
0.563682 0.051526 1.000000
1.000000 0.058731 1.000000
1.000000 0.058731 1.000000
1.000000 0.058731 1.000000
0.000000 0.138077 1.000000
0.005864 0.138077 1.000000
0.038476 0.138168 1.000000
0.137886 0.138645 1.000000
0.562752 0.187154 1.000000
1.000000 0.220587 1.000000
1.000000 0.220587 1.000000
1.000000 0.220587 1.000000
0.000000 0.561332 1.000000
0.007686 0.561340 1.000000
0.051827 0.561437 1.000000
0.186975 0.562386 1.000000
0.565996 0.565996 1.000000
1.000000 0.669346 1.000000
1.000000 0.669346 1.000000
1.000000 0.669346 1.000000
0.000000 1.000000 1.000000
0.008644 1.000000 1.000000
0.058731 1.000000 1.000000
0.220587 1.000000 1.000000
0.670456 1.000000 1.000000
1.000000 1.000000 1.000000
1.000000 1.000000 1.000000
1.000000 1.000000 1.000000
0.000000 1.000000 1.000000
0.008644 1.000000 1.000000
0.058731 1.000000 1.000000
0.220587 1.000000 1.000000
0.670456 1.000000 1.000000
1.000000 1.000000 1.000000
1.000000 1.000000 1.000000
1.000000 1.000000 1.000000
0.000000 1.000000 1.000000
0.008644 1.000000 1.000000
0.058731 1.000000 1.000000
0.220587 1.000000 1.000000
0.670456 1.000000 1.000000
1.000000 1.000000 1.000000
1.000000 1.000000 1.000000
1.000000 1.000000 1.000000
