Assets/Art/Materials/LUT/BleachBypass.CUBE
#Created by: Adobe Photoshop Export Color Lookup Plugin
TITLE "Frame.exr"
#LUT size
LUT_3D_SIZE 5
#data domain
#LUT data points
DOMAIN_MIN 0.000000 0.000000 0.000000
DOMAIN_MAX 0.903226 0.903226 0.903226
0.023120 0.023120 0.023120
0.034561 0.026929 0.026929
0.197192 0.071813 0.071813
1.000000 0.261168 0.261168
1.000000 0.261168 0.261168
0.026929 0.034561 0.026929
0.041781 0.041781 0.031585
0.211746 0.093985 0.078299
1.000000 0.299051 0.271588
1.000000 0.299051 0.271588
0.071813 0.197192 0.071813
0.093985 0.211746 0.078299
0.338959 0.338959 0.143771
1.000000 0.724830 0.382278
1.000000 0.724830 0.382278
0.261168 1.000000 0.261168
0.299051 1.000000 0.271588
0.724830 1.000000 0.382278
1.000000 1.000000 0.734466
1.000000 1.000000 0.734466
0.261168 1.000000 0.261168
0.299051 1.000000 0.271588
0.724830 1.000000 0.382278
1.000000 1.000000 0.734466
1.000000 1.000000 0.734466
0.026929 0.026929 0.034561
0.041781 0.031585 0.041781
0.211746 0.078299 0.093985
1.000000 0.271588 0.299051
1.000000 0.271588 0.299051
0.031585 0.041781 0.041781
0.049848 0.049848 0.049848
0.227145 0.103894 0.103894
1.000000 0.312882 0.312882
1.000000 0.312882 0.312882
0.078299 0.211746 0.093985
0.103894 0.227145 0.103894
0.356201 0.356201 0.176699
1.000000 0.745994 0.430892
1.000000 0.745994 0.430892
0.271588 1.000000 0.299051
0.312882 1.000000 0.312882
0.745994 1.000000 0.430892
1.000000 1.000000 0.798804
1.000000 1.000000 0.798804
0.271588 1.000000 0.299051
0.312882 1.000000 0.312882
0.745994 1.000000 0.430892
1.000000 1.000000 0.798804
1.000000 1.000000 0.798804
0.071813 0.071813 0.197192
0.093985 0.078299 0.211746
0.338959 0.143771 0.338959
1.000000 0.382278 0.724830
1.000000 0.382278 0.724830
0.078299 0.093985 0.211746
0.103894 0.103894 0.227145
0.356201 0.176699 0.356201
1.000000 0.430892 0.745994
1.000000 0.430892 0.745994
0.143771 0.338959 0.338959
0.176699 0.356201 0.356201
0.503968 0.503968 0.503968
1.000000 0.939014 0.939014
1.000000 0.939014 0.939014
0.382278 1.000000 0.724830
0.430892 1.000000 0.745994
0.939014 1.000000 0.939014
1.000000 1.000000 1.000000
1.000000 1.000000 1.000000
0.382278 1.000000 0.724830
0.430892 1.000000 0.745994
0.939014 1.000000 0.939014
1.000000 1.000000 1.000000
1.000000 1.000000 1.000000
0.261168 0.261168 1.000000
0.299051 0.271588 1.000000
0.724830 0.382278 1.000000
1.000000 0.734466 1.000000
1.000000 0.734466 1.000000
0.271588 0.299051 1.000000
0.312882 0.312882 1.000000
0.745994 0.430892 1.000000
1.000000 0.798804 1.000000
1.000000 0.798804 1.000000
0.382278 0.724830 1.000000
0.430892 0.745994 1.000000
0.939014 0.939014 1.000000
1.000000 1.000000 1.000000
1.000000 1.000000 1.000000
0.734466 1.000000 1.000000
0.798804 1.000000 1.000000
1.000000 1.000000 1.000000
1.000000 1.000000 1.000000
1.000000 1.000000 1.000000
0.734466 1.000000 1.000000
0.798804 1.000000 1.000000
1.000000 1.000000 1.000000
1.000000 1.000000 1.000000
1.000000 1.000000 1.000000
0.261168 0.261168 1.000000
0.299051 0.271588 1.000000
0.724830 0.382278 1.000000
1.000000 0.734466 1.000000
1.000000 0.734466 1.000000
0.271588 0.299051 1.000000
0.312882 0.312882 1.000000
0.745994 0.430892 1.000000
1.000000 0.798804 1.000000
1.000000 0.798804 1.000000
0.382278 0.724830 1.000000
0.430892 0.745994 1.000000
0.939014 0.939014 1.000000
1.000000 1.000000 1.000000
1.000000 1.000000 1.000000
0.734466 1.000000 1.000000
0.798804 1.000000 1.000000
1.000000 1.000000 1.000000
1.000000 1.000000 1.000000
1.000000 1.000000 1.000000
0.734466 1.000000 1.000000
0.798804 1.000000 1.000000
1.000000 1.000000 1.000000
1.000000 1.000000 1.000000
1.000000 1.000000 1.000000
