Assets/Art/Materials/LUT/BleachBypass.CUBE
#Created by: Adobe Photoshop Export Color Lookup Plugin
TITLE "Frame.exr"
#LUT size
LUT_3D_SIZE 8
#data domain
#LUT data points
DOMAIN_MIN 0.000000 0.000000 0.000000
DOMAIN_MAX 0.903226 0.903226 0.903226
0.023120 0.023120 0.023120
0.025568 0.023935 0.023935
0.039754 0.028658 0.028658
0.094606 0.045659 0.045659
0.494386 0.136325 0.136325
1.000000 0.261168 0.261168
1.000000 0.261168 0.261168
1.000000 0.261168 0.261168
0.023935 0.025568 0.023935
0.027113 0.027113 0.024931
0.041299 0.031837 0.029655
0.096921 0.049608 0.046850
0.499152 0.142727 0.138129
1.000000 0.269274 0.263397
1.000000 0.269274 0.263397
1.000000 0.269274 0.263397
0.028658 0.039754 0.028658
0.031837 0.041299 0.029655
0.050252 0.050252 0.035428
0.108787 0.070936 0.053359
0.526179 0.179228 0.148431
1.000000 0.316247 0.276318
1.000000 0.316247 0.276318
1.000000 0.316247 0.276318
0.045659 0.094606 0.045659
0.049608 0.096921 0.046850
0.070936 0.108787 0.053359
0.144064 0.144064 0.074910
0.608773 0.299635 0.181811
1.000000 0.482524 0.321181
1.000000 0.482524 0.321181
1.000000 0.482524 0.321181
0.136325 0.494386 0.136325
0.142727 0.499152 0.138129
0.179228 0.526179 0.148431
0.299635 0.608773 0.181811
0.942286 0.942286 0.333176
1.000000 1.000000 0.513780
1.000000 1.000000 0.513780
1.000000 1.000000 0.513780
0.261168 1.000000 0.261168
0.269274 1.000000 0.263397
0.316247 1.000000 0.276318
0.482524 1.000000 0.321181
1.000000 1.000000 0.513780
1.000000 1.000000 0.734466
1.000000 1.000000 0.734466
1.000000 1.000000 0.734466
0.261168 1.000000 0.261168
0.269274 1.000000 0.263397
0.316247 1.000000 0.276318
0.482524 1.000000 0.321181
1.000000 1.000000 0.513780
1.000000 1.000000 0.734466
1.000000 1.000000 0.734466
1.000000 1.000000 0.734466
0.261168 1.000000 0.261168
0.269274 1.000000 0.263397
0.316247 1.000000 0.276318
0.482524 1.000000 0.321181
1.000000 1.000000 0.513780
1.000000 1.000000 0.734466
1.000000 1.000000 0.734466
1.000000 1.000000 0.734466
0.023935 0.023935 0.025568
0.027113 0.024931 0.027113
0.041299 0.029655 0.031837
0.096921 0.046850 0.049608
0.499152 0.138129 0.142727
1.000000 0.263397 0.269274
1.000000 0.263397 0.269274
1.000000 0.263397 0.269274
0.024931 0.027113 0.027113
0.028840 0.028840 0.028840
0.043025 0.033563 0.033563
0.099420 0.051528 0.051528
0.504099 0.145258 0.145258
1.000000 0.272234 0.272234
1.000000 0.272234 0.272234
1.000000 0.272234 0.272234
0.029655 0.041299 0.031837
0.033563 0.043025 0.033563
0.051978 0.051978 0.039336
0.111286 0.072856 0.058037
0.531126 0.181759 0.155560
1.000000 0.319207 0.285154
1.000000 0.319207 0.285154
1.000000 0.319207 0.285154
0.046850 0.096921 0.049608
0.051528 0.099420 0.051528
0.072856 0.111286 0.058037
0.146755 0.146755 0.080358
0.613915 0.302938 0.189712
1.000000 0.486256 0.330788
1.000000 0.486256 0.330788
1.000000 0.486256 0.330788
0.138129 0.499152 0.142727
0.145258 0.504099 0.145258
0.181759 0.531126 0.155560
0.302938 0.613915 0.189712
0.948041 0.948041 0.343526
1.000000 1.000000 0.525838
1.000000 1.000000 0.525838
1.000000 1.000000 0.525838
0.263397 1.000000 0.269274
0.272234 1.000000 0.272234
0.319207 1.000000 0.285154
0.486256 1.000000 0.330788
1.000000 1.000000 0.525838
1.000000 1.000000 0.748234
1.000000 1.000000 0.748234
1.000000 1.000000 0.748234
0.263397 1.000000 0.269274
0.272234 1.000000 0.272234
0.319207 1.000000 0.285154
0.486256 1.000000 0.330788
1.000000 1.000000 0.525838
1.000000 1.000000 0.748234
1.000000 1.000000 0.748234
1.000000 1.000000 0.748234
0.263397 1.000000 0.269274
0.272234 1.000000 0.272234
0.319207 1.000000 0.285154
0.486256 1.000000 0.330788
1.000000 1.000000 0.525838
1.000000 1.000000 0.748234
1.000000 1.000000 0.748234
1.000000 1.000000 0.748234
0.028658 0.028658 0.039754
0.031837 0.029655 0.041299
0.050252 0.035428 0.050252
0.108787 0.053359 0.070936
0.526179 0.148431 0.179228
1.000000 0.276318 0.316247
1.000000 0.276318 0.316247
1.000000 0.276318 0.316247
0.029655 0.031837 0.041299
0.033563 0.033563 0.043025
0.051978 0.039336 0.051978
0.111286 0.058037 0.072856
0.531126 0.155560 0.181759
1.000000 0.285154 0.319207
1.000000 0.285154 0.319207
1.000000 0.285154 0.319207
0.035428 0.050252 0.050252
0.039336 0.051978 0.051978
0.061981 0.061981 0.061981
0.124211 0.083595 0.083595
0.559203 0.196277 0.196277
1.000000 0.336356 0.336356
1.000000 0.336356 0.336356
1.000000 0.336356 0.336356
0.053359 0.108787 0.070936
0.058037 0.111286 0.072856
0.083595 0.124211 0.083595
0.160406 0.160406 0.108828
0.642728 0.320379 0.233352
1.000000 0.506328 0.384902
1.000000 0.506328 0.384902
1.000000 0.506328 0.384902
0.148431 0.526179 0.179228
0.155560 0.531126 0.181759
0.196277 0.559203 0.196277
0.320379 0.642728 0.233352
0.980646 0.980646 0.402319
1.000000 1.000000 0.595114
1.000000 1.000000 0.595114
1.000000 1.000000 0.595114
0.276318 1.000000 0.316247
0.285154 1.000000 0.319207
0.336356 1.000000 0.336356
0.506328 1.000000 0.384902
1.000000 1.000000 0.595114
1.000000 1.000000 0.828008
1.000000 1.000000 0.828008
1.000000 1.000000 0.828008
0.276318 1.000000 0.316247
0.285154 1.000000 0.319207
0.336356 1.000000 0.336356
0.506328 1.000000 0.384902
1.000000 1.000000 0.595114
1.000000 1.000000 0.828008
1.000000 1.000000 0.828008
1.000000 1.000000 0.828008
0.276318 1.000000 0.316247
0.285154 1.000000 0.319207
0.336356 1.000000 0.336356
0.506328 1.000000 0.384902
1.000000 1.000000 0.595114
1.000000 1.000000 0.828008
1.000000 1.000000 0.828008
1.000000 1.000000 0.828008
0.045659 0.045659 0.094606
0.049608 0.046850 0.096921
0.070936 0.053359 0.108787
0.144064 0.074910 0.144064
0.608773 0.181811 0.299635
1.000000 0.321181 0.482524
1.000000 0.321181 0.482524
1.000000 0.321181 0.482524
0.046850 0.049608 0.096921
0.051528 0.051528 0.099420
0.072856 0.058037 0.111286
0.146755 0.080358 0.146755
0.613915 0.189712 0.302938
1.000000 0.330788 0.486256
1.000000 0.330788 0.486256
1.000000 0.330788 0.486256
0.053359 0.070936 0.108787
0.058037 0.072856 0.111286
0.083595 0.083595 0.124211
0.160406 0.108828 0.160406
0.642728 0.233352 0.320379
1.000000 0.384902 0.506328
1.000000 0.384902 0.506328
1.000000 0.384902 0.506328
0.074910 0.144064 0.144064
0.080358 0.146755 0.146755
0.108828 0.160406 0.160406
0.200220 0.200220 0.200220
0.729885 0.372035 0.372035
1.000000 0.569456 0.569456
1.000000 0.569456 0.569456
1.000000 0.569456 0.569456
0.181811 0.608773 0.299635
0.189712 0.613915 0.302938
0.233352 0.642728 0.320379
0.372035 0.729885 0.372035
1.000000 1.000000 0.588383
1.000000 1.000000 0.826997
1.000000 1.000000 0.826997
1.000000 1.000000 0.826997
0.321181 1.000000 0.482524
0.330788 1.000000 0.486256
0.384902 1.000000 0.506328
0.569456 1.000000 0.569456
1.000000 1.000000 0.826997
1.000000 1.000000 1.000000
1.000000 1.000000 1.000000
1.000000 1.000000 1.000000
0.321181 1.000000 0.482524
0.330788 1.000000 0.486256
0.384902 1.000000 0.506328
0.569456 1.000000 0.569456
1.000000 1.000000 0.826997
1.000000 1.000000 1.000000
1.000000 1.000000 1.000000
1.000000 1.000000 1.000000
0.321181 1.000000 0.482524
0.330788 1.000000 0.486256
0.384902 1.000000 0.506328
0.569456 1.000000 0.569456
1.000000 1.000000 0.826997
1.000000 1.000000 1.000000
1.000000 1.000000 1.000000
1.000000 1.000000 1.000000
0.136325 0.136325 0.494386
0.142727 0.138129 0.499152
0.179228 0.148431 0.526179
0.299635 0.181811 0.608773
0.942286 0.333176 0.942286
1.000000 0.513780 1.000000
1.000000 0.513780 1.000000
1.000000 0.513780 1.000000
0.138129 0.142727 0.499152
0.145258 0.145258 0.504099
0.181759 0.155560 0.531126
0.302938 0.189712 0.613915
0.948041 0.343526 0.948041
1.000000 0.525838 1.000000
1.000000 0.525838 1.000000
1.000000 0.525838 1.000000
0.148431 0.179228 0.526179
0.155560 0.181759 0.531126
0.196277 0.196277 0.559203
0.320379 0.233352 0.642728
0.980646 0.402319 0.980646
1.000000 0.595114 1.000000
1.000000 0.595114 1.000000
1.000000 0.595114 1.000000
0.181811 0.299635 0.608773
0.189712 0.302938 0.613915
0.233352 0.320379 0.642728
0.372035 0.372035 0.729885
1.000000 0.588383 1.000000
1.000000 0.826997 1.000000
1.000000 0.826997 1.000000
1.000000 0.826997 1.000000
0.333176 0.942286 0.942286
0.343526 0.948041 0.948041
0.402319 0.980646 0.980646
0.588383 1.000000 1.000000
1.000000 1.000000 1.000000
1.000000 1.000000 1.000000
1.000000 1.000000 1.000000
1.000000 1.000000 1.000000
0.513780 1.000000 1.000000
0.525838 1.000000 1.000000
0.595114 1.000000 1.000000
0.826997 1.000000 1.000000
1.000000 1.000000 1.000000
1.000000 1.000000 1.000000
1.000000 1.000000 1.000000
1.000000 1.000000 1.000000
0.513780 1.000000 1.000000
0.525838 1.000000 1.000000
0.595114 1.000000 1.000000
0.826997 1.000000 1.000000
1.000000 1.000000 1.000000
1.000000 1.000000 1.000000
1.000000 1.000000 1.000000
1.000000 1.000000 1.000000
0.513780 1.000000 1.000000
0.525838 1.000000 1.000000
0.595114 1.000000 1.000000
0.826997 1.000000 1.000000
1.000000 1.000000 1.000000
1.000000 1.000000 1.000000
1.000000 1.000000 1.000000
1.000000 1.000000 1.000000
0.261168 0.261168 1.000000
0.269274 0.263397 1.000000
0.316247 0.276318 1.000000
0.482524 0.321181 1.000000
1.000000 0.513780 1.000000
1.000000 0.734466 1.000000
1.000000 0.734466 1.000000
1.000000 0.734466 1.000000
0.263397 0.269274 1.000000
0.272234 0.272234 1.000000
0.319207 0.285154 1.000000
0.486256 0.330788 1.000000
1.000000 0.525838 1.000000
1.000000 0.748234 1.000000
1.000000 0.748234 1.000000
1.000000 0.748234 1.000000
0.276318 0.316247 1.000000
0.285154 0.319207 1.000000
0.336356 0.336356 1.000000
0.506328 0.384902 1.000000
1.000000 0.595114 1.000000
1.000000 0.828008 1.000000
1.000000 0.828008 1.000000
1.000000 0.828008 1.000000
0.321181 0.482524 1.000000
0.330788 0.486256 1.000000
0.384902 0.506328 1.000000
0.569456 0.569456 1.000000
1.000000 0.826997 1.000000
1.000000 1.000000 1.000000
1.000000 1.000000 1.000000
1.000000 1.000000 1.000000
0.513780 1.000000 1.000000
0.525838 1.000000 1.000000
0.595114 1.000000 1.000000
0.826997 1.000000 1.000000
1.000000 1.000000 1.000000
1.000000 1.000000 1.000000
1.000000 1.000000 1.000000
1.000000 1.000000 1.000000
0.734466 1.000000 1.000000
0.748234 1.000000 1.000000
0.828008 1.000000 1.000000
1.000000 1.000000 1.000000
1.000000 1.000000 1.000000
1.000000 1.000000 1.000000
1.000000 1.000000 1.000000
1.000000 1.000000 1.000000
0.734466 1.000000 1.000000
0.748234 1.000000 1.000000
0.828008 1.000000 1.000000
1.000000 1.000000 1.000000
1.000000 1.000000 1.000000
1.000000 1.000000 1.000000
1.000000 1.000000 1.000000
1.000000 1.000000 1.000000
0.734466 1.000000 1.000000
0.748234 1.000000 1.000000
0.828008 1.000000 1.000000
1.000000 1.000000 1.000000
1.000000 1.000000 1.000000
1.000000 1.000000 1.000000
1.000000 1.000000 1.000000
1.000000 1.000000 1.000000
0.261168 0.261168 1.000000
0.269274 0.263397 1.000000
0.316247 0.276318 1.000000
0.482524 0.321181 1.000000
1.000000 0.513780 1.000000
1.000000 0.734466 1.000000
1.000000 0.734466 1.000000
1.000000 0.734466 1.000000
0.263397 0.269274 1.000000
0.272234 0.272234 1.000000
0.319207 0.285154 1.000000
0.486256 0.330788 1.000000
1.000000 0.525838 1.000000
1.000000 0.748234 1.000000
1.000000 0.748234 1.000000
1.000000 0.748234 1.000000
0.276318 0.316247 1.000000
0.285154 0.319207 1.000000
0.336356 0.336356 1.000000
0.506328 0.384902 1.000000
1.000000 0.595114 1.000000
1.000000 0.828008 1.000000
1.000000 0.828008 1.000000
1.000000 0.828008 1.000000
0.321181 0.482524 1.000000
0.330788 0.486256 1.000000
0.384902 0.506328 1.000000
0.569456 0.569456 1.000000
1.000000 0.826997 1.000000
1.000000 1.000000 1.000000
1.000000 1.000000 1.000000
1.000000 1.000000 1.000000
0.513780 1.000000 1.000000
0.525838 1.000000 1.000000
0.595114 1.000000 1.000000
0.826997 1.000000 1.000000
1.000000 1.000000 1.000000
1.000000 1.000000 1.000000
1.000000 1.000000 1.000000
1.000000 1.000000 1.000000
0.734466 1.000000 1.000000
0.748234 1.000000 1.000000
0.828008 1.000000 1.000000
1.000000 1.000000 1.000000
1.000000 1.000000 1.000000
1.000000 1.000000 1.000000
1.000000 1.000000 1.000000
1.000000 1.000000 1.000000
0.734466 1.000000 1.000000
0.748234 1.000000 1.000000
0.828008 1.000000 1.000000
1.000000 1.000000 1.000000
1.000000 1.000000 1.000000
1.000000 1.000000 1.000000
1.000000 1.000000 1.000000
1.000000 1.000000 1.000000
0.734466 1.000000 1.000000
0.748234 1.000000 1.000000
0.828008 1.000000 1.000000
1.000000 1.000000 1.000000
1.000000 1.000000 1.000000
1.000000 1.000000 1.000000
1.000000 1.000000 1.000000
1.000000 1.000000 1.000000
0.261168 0.261168 1.000000
0.269274 0.263397 1.000000
0.316247 0.276318 1.000000
0.482524 0.321181 1.000000
1.000000 0.513780 1.000000
1.000000 0.734466 1.000000
1.000000 0.734466 1.000000
1.000000 0.734466 1.000000
0.263397 0.269274 1.000000
0.272234 0.272234 1.000000
0.319207 0.285154 1.000000
0.486256 0.330788 1.000000
1.000000 0.525838 1.000000
1.000000 0.748234 1.000000
1.000000 0.748234 1.000000
1.000000 0.748234 1.000000
0.276318 0.316247 1.000000
0.285154 0.319207 1.000000
0.336356 0.336356 1.000000
0.506328 0.384902 1.000000
1.000000 0.595114 1.000000
1.000000 0.828008 1.000000
1.000000 0.828008 1.000000
1.000000 0.828008 1.000000
0.321181 0.482524 1.000000
0.330788 0.486256 1.000000
0.384902 0.506328 1.000000
0.569456 0.569456 1.000000
1.000000 0.826997 1.000000
1.000000 1.000000 1.000000
1.000000 1.000000 1.000000
1.000000 1.000000 1.000000
0.513780 1.000000 1.000000
0.525838 1.000000 1.000000
0.595114 1.000000 1.000000
0.826997 1.000000 1.000000
1.000000 1.000000 1.000000
1.000000 1.000000 1.000000
1.000000 1.000000 1.000000
1.000000 1.000000 1.000000
0.734466 1.000000 1.000000
0.748234 1.000000 1.000000
0.828008 1.000000 1.000000
1.000000 1.000000 1.000000
1.000000 1.000000 1.000000
1.000000 1.000000 1.000000
1.000000 1.000000 1.000000
1.000000 1.000000 1.000000
0.734466 1.000000 1.000000
0.748234 1.000000 1.000000
0.828008 1.000000 1.000000
1.000000 1.000000 1.000000
1.000000 1.000000 1.000000
1.000000 1.000000 1.000000
1.000000 1.000000 1.000000
1.000000 1.000000 1.000000
0.734466 1.000000 1.000000
0.748234 1.000000 1.000000
0.828008 1.000000 1.000000
1.000000 1.000000 1.000000
1.000000 1.000000 1.000000
1.000000 1.000000 1.000000
1.000000 1.000000 1.000000
1.000000 1.000000 1.000000
