Assets/Art/Materials/LUT/BleachBypass.CUBE
#Created by: Adobe Photoshop Export Color Lookup Plugin
TITLE "Frame.exr"
#LUT size
LUT_3D_SIZE 32
#data domain
DOMAIN_MIN 0.0 0.0 0.0
DOMAIN_MAX 1.0 1.0 1.0
#LUT data points
0.023120 0.023120 0.023120
0.023120 0.023120 0.023120
0.023120 0.023120 0.023120
0.023482 0.023240 0.023240
0.025568 0.023935 0.023935
0.028005 0.024746 0.024746
0.030857 0.025696 0.025696
0.034561 0.026929 0.026929
0.039754 0.028658 0.028658
0.046895 0.031036 0.031036
0.056600 0.034268 0.034268
0.069584 0.038591 0.038591
0.094606 0.045659 0.045659
0.133627 0.056062 0.056062
0.197192 0.071813 0.071813
0.304011 0.096330 0.096330
0.494386 0.136325 0.136325
0.829692 0.201953 0.201953
1.000000 0.261168 0.261168
1.000000 0.261168 0.261168
1.000000 0.261168 0.261168
1.000000 0.261168 0.261168
1.000000 0.261168 0.261168
1.000000 0.261168 0.261168
1.000000 0.261168 0.261168
1.000000 0.261168 0.261168
1.000000 0.261168 0.261168
1.000000 0.261168 0.261168
1.000000 0.261168 0.261168
1.000000 0.261168 0.261168
1.000000 0.261168 0.261168
1.000000 0.261168 0.261168
0.023120 0.023120 0.023120
0.023120 0.023120 0.023120
0.023120 0.023120 0.023120
0.023482 0.023240 0.023240
0.025568 0.023935 0.023935
0.028005 0.024746 0.024746
0.030857 0.025696 0.025696
0.034561 0.026929 0.026929
0.039754 0.028658 0.028658
0.046895 0.031036 0.031036
0.056600 0.034268 0.034268
0.069584 0.038591 0.038591
0.094606 0.045659 0.045659
0.133627 0.056062 0.056062
0.197192 0.071813 0.071813
0.304011 0.096330 0.096330
0.494386 0.136325 0.136325
0.829692 0.201953 0.201953
1.000000 0.261168 0.261168
1.000000 0.261168 0.261168
1.000000 0.261168 0.261168
1.000000 0.261168 0.261168
1.000000 0.261168 0.261168
1.000000 0.261168 0.261168
1.000000 0.261168 0.261168
1.000000 0.261168 0.261168
1.000000 0.261168 0.261168
1.000000 0.261168 0.261168
1.000000 0.261168 0.261168
1.000000 0.261168 0.261168
1.000000 0.261168 0.261168
1.000000 0.261168 0.261168
0.023120 0.023120 0.023120
0.023120 0.023120 0.023120
0.023120 0.023120 0.023120
0.023482 0.023240 0.023240
0.025568 0.023935 0.023935
0.028005 0.024746 0.024746
0.030857 0.025696 0.025696
0.034561 0.026929 0.026929
0.039754 0.028658 0.028658
0.046895 0.031036 0.031036
0.056600 0.034268 0.034268
0.069584 0.038591 0.038591
0.094606 0.045659 0.045659
0.133627 0.056062 0.056062
0.197192 0.071813 0.071813
0.304011 0.096330 0.096330
0.494386 0.136325 0.136325
0.829692 0.201953 0.201953
1.000000 0.261168 0.261168
1.000000 0.261168 0.261168
1.000000 0.261168 0.261168
1.000000 0.261168 0.261168
1.000000 0.261168 0.261168
1.000000 0.261168 0.261168
1.000000 0.261168 0.261168
1.000000 0.261168 0.261168
1.000000 0.261168 0.261168
1.000000 0.261168 0.261168
1.000000 0.261168 0.261168
1.000000 0.261168 0.261168
1.000000 0.261168 0.261168
1.000000 0.261168 0.261168
0.023240 0.023482 0.023240
0.023240 0.023482 0.023240
0.023240 0.023482 0.023240
0.023711 0.023711 0.023388
0.025797 0.024406 0.024082
0.028234 0.025217 0.024894
0.031086 0.026167 0.025844
0.034789 0.027400 0.027077
0.039983 0.029129 0.028806
0.047123 0.031507 0.031184
0.056829 0.034738 0.034415
0.069812 0.039061 0.038738
0.094949 0.046244 0.045836
0.133970 0.056646 0.056238
0.197654 0.072515 0.072018
0.304593 0.097154 0.096566
0.495091 0.137273 0.136592
0.830523 0.203026 0.202251
1.000000 0.262368 0.261498
1.000000 0.262368 0.261498
1.000000 0.262368 0.261498
1.000000 0.262368 0.261498
1.000000 0.262368 0.261498
1.000000 0.262368 0.261498
1.000000 0.262368 0.261498
1.000000 0.262368 0.261498
1.000000 0.262368 0.261498
1.000000 0.262368 0.261498
1.000000 0.262368 0.261498
1.000000 0.262368 0.261498
1.000000 0.262368 0.261498
1.000000 0.262368 0.261498
0.023935 0.025568 0.023935
0.023935 0.025568 0.023935
0.023935 0.025568 0.023935
0.024406 0.025797 0.024082
0.027113 0.027113 0.024931
0.029550 0.027925 0.025743
0.032402 0.028874 0.026692
0.036106 0.030107 0.027926
0.041299 0.031837 0.029655
0.048440 0.034214 0.032032
0.058145 0.037446 0.035264
0.071129 0.041769 0.039587
0.096921 0.049608 0.046850
0.135942 0.060010 0.057252
0.200307 0.076558 0.073201
0.307943 0.101893 0.097923
0.499152 0.142727 0.138129
0.835306 0.209202 0.203969
1.000000 0.269274 0.263397
1.000000 0.269274 0.263397
1.000000 0.269274 0.263397
1.000000 0.269274 0.263397
1.000000 0.269274 0.263397
1.000000 0.269274 0.263397
1.000000 0.269274 0.263397
1.000000 0.269274 0.263397
1.000000 0.269274 0.263397
1.000000 0.269274 0.263397
1.000000 0.269274 0.263397
1.000000 0.269274 0.263397
1.000000 0.269274 0.263397
1.000000 0.269274 0.263397
0.024746 0.028005 0.024746
0.024746 0.028005 0.024746
0.024746 0.028005 0.024746
0.025217 0.028234 0.024894
0.027925 0.029550 0.025743
0.031088 0.031088 0.026735
0.033940 0.032038 0.027684
0.037644 0.033271 0.028917
0.042837 0.035000 0.030647
0.049978 0.037378 0.033024
0.059683 0.040610 0.036256
0.072667 0.044933 0.040579
0.099226 0.053538 0.048036
0.138247 0.063940 0.058438
0.203407 0.081280 0.074582
0.311858 0.107430 0.099509
0.503896 0.149099 0.139924
0.840893 0.216417 0.205977
1.000000 0.277344 0.265617
1.000000 0.277344 0.265617
1.000000 0.277344 0.265617
1.000000 0.277344 0.265617
1.000000 0.277344 0.265617
1.000000 0.277344 0.265617
1.000000 0.277344 0.265617
1.000000 0.277344 0.265617
1.000000 0.277344 0.265617
1.000000 0.277344 0.265617
1.000000 0.277344 0.265617
1.000000 0.277344 0.265617
1.000000 0.277344 0.265617
1.000000 0.277344 0.265617
0.025696 0.030857 0.025696
0.025696 0.030857 0.025696
0.025696 0.030857 0.025696
0.026167 0.031086 0.025844
0.028874 0.032402 0.026692
0.032038 0.033940 0.027684
0.035740 0.035740 0.028845
0.039444 0.036974 0.030078
0.044637 0.038703 0.031807
0.051778 0.041080 0.034185
0.061483 0.044312 0.037417
0.074467 0.048635 0.041740
0.101922 0.058137 0.049423
0.140944 0.068539 0.059825
0.207035 0.086808 0.076199
0.316392 0.113864 0.101354
0.509448 0.156557 0.142025
0.847432 0.224862 0.208326
1.000000 0.286788 0.268215
1.000000 0.286788 0.268215
1.000000 0.286788 0.268215
1.000000 0.286788 0.268215
1.000000 0.286788 0.268215
1.000000 0.286788 0.268215
1.000000 0.286788 0.268215
1.000000 0.286788 0.268215
1.000000 0.286788 0.268215
1.000000 0.286788 0.268215
1.000000 0.286788 0.268215
1.000000 0.286788 0.268215
1.000000 0.286788 0.268215
1.000000 0.286788 0.268215
0.026929 0.034561 0.026929
0.026929 0.034561 0.026929
0.026929 0.034561 0.026929
0.027400 0.034789 0.027077
0.030107 0.036106 0.027926
0.033271 0.037644 0.028917
0.036974 0.039444 0.030078
0.041781 0.041781 0.031585
0.046974 0.043510 0.033314
0.054115 0.045888 0.035692
0.063821 0.049120 0.038924
0.076804 0.053443 0.043247
0.105424 0.064109 0.051224
0.144446 0.074511 0.061626
0.211746 0.093985 0.078299
0.321103 0.121041 0.103453
0.516657 0.166241 0.144753
0.855923 0.235827 0.211377
1.000000 0.299051 0.271588
1.000000 0.299051 0.271588
1.000000 0.299051 0.271588
1.000000 0.299051 0.271588
1.000000 0.299051 0.271588
1.000000 0.299051 0.271588
1.000000 0.299051 0.271588
1.000000 0.299051 0.271588
1.000000 0.299051 0.271588
1.000000 0.299051 0.271588
1.000000 0.299051 0.271588
1.000000 0.299051 0.271588
1.000000 0.299051 0.271588
1.000000 0.299051 0.271588
0.028658 0.039754 0.028658
0.028658 0.039754 0.028658
0.028658 0.039754 0.028658
0.029129 0.039983 0.028806
0.031837 0.041299 0.029655
0.035000 0.042837 0.030647
0.038703 0.044637 0.031807
0.043510 0.046974 0.033314
0.050252 0.050252 0.035428
0.057393 0.052630 0.037806
0.067098 0.055861 0.041037
0.080082 0.060184 0.045360
0.108787 0.070936 0.053359
0.149356 0.082886 0.064152
0.218097 0.103795 0.081180
0.327709 0.131106 0.106397
0.526179 0.179228 0.148431
0.867830 0.251204 0.215655
1.000000 0.316247 0.276318
1.000000 0.316247 0.276318
1.000000 0.316247 0.276318
1.000000 0.316247 0.276318
1.000000 0.316247 0.276318
1.000000 0.316247 0.276318
1.000000 0.316247 0.276318
1.000000 0.316247 0.276318
1.000000 0.316247 0.276318
1.000000 0.316247 0.276318
1.000000 0.316247 0.276318
1.000000 0.316247 0.276318
1.000000 0.316247 0.276318
1.000000 0.316247 0.276318
0.031036 0.046895 0.031036
0.031036 0.046895 0.031036
0.031036 0.046895 0.031036
0.031507 0.047123 0.031184
0.034214 0.048440 0.032032
0.037378 0.049978 0.033024
0.041080 0.051778 0.034185
0.045888 0.054115 0.035692
0.052630 0.057393 0.037806
0.061900 0.061900 0.040712
0.071605 0.065131 0.043943
0.084588 0.069454 0.048266
0.113293 0.080205 0.056265
0.156109 0.094402 0.067626
0.224849 0.115311 0.084653
0.336792 0.144944 0.110446
0.537648 0.195453 0.153077
0.884201 0.272346 0.221537
1.000000 0.339891 0.282821
1.000000 0.339891 0.282821
1.000000 0.339891 0.282821
1.000000 0.339891 0.282821
1.000000 0.339891 0.282821
1.000000 0.339891 0.282821
1.000000 0.339891 0.282821
1.000000 0.339891 0.282821
1.000000 0.339891 0.282821
1.000000 0.339891 0.282821
1.000000 0.339891 0.282821
1.000000 0.339891 0.282821
1.000000 0.339891 0.282821
1.000000 0.339891 0.282821
0.034268 0.056600 0.034268
0.034268 0.056600 0.034268
0.034268 0.056600 0.034268
0.034738 0.056829 0.034415
0.037446 0.058145 0.035264
0.040610 0.059683 0.036256
0.044312 0.061483 0.037417
0.049120 0.063821 0.038924
0.055861 0.067098 0.041037
0.065131 0.071605 0.043943
0.077730 0.077730 0.047893
0.090714 0.082054 0.052216
0.119419 0.092805 0.060215
0.165286 0.110053 0.072346
0.234027 0.130962 0.089374
0.349138 0.163753 0.115948
0.553236 0.217504 0.159393
0.906453 0.301083 0.229531
1.000000 0.372028 0.291661
1.000000 0.372028 0.291661
1.000000 0.372028 0.291661
1.000000 0.372028 0.291661
1.000000 0.372028 0.291661
1.000000 0.372028 0.291661
1.000000 0.372028 0.291661
1.000000 0.372028 0.291661
1.000000 0.372028 0.291661
1.000000 0.372028 0.291661
1.000000 0.372028 0.291661
1.000000 0.372028 0.291661
1.000000 0.372028 0.291661
1.000000 0.372028 0.291661
0.038591 0.069584 0.038591
0.038591 0.069584 0.038591
0.038591 0.069584 0.038591
0.039061 0.069812 0.038738
0.041769 0.071129 0.039587
0.044933 0.072667 0.040579
0.048635 0.074467 0.041740
0.053443 0.076804 0.043247
0.060184 0.080082 0.045360
0.069454 0.084588 0.048266
0.082054 0.090714 0.052216
0.098908 0.098908 0.057500
0.127613 0.109659 0.065499
0.174187 0.127614 0.077809
0.246303 0.151899 0.095689
0.365653 0.188915 0.123308
0.574088 0.247002 0.167841
0.935153 0.338456 0.239957
1.000000 0.415019 0.303486
1.000000 0.415019 0.303486
1.000000 0.415019 0.303486
1.000000 0.415019 0.303486
1.000000 0.415019 0.303486
1.000000 0.415019 0.303486
1.000000 0.415019 0.303486
1.000000 0.415019 0.303486
1.000000 0.415019 0.303486
1.000000 0.415019 0.303486
1.000000 0.415019 0.303486
1.000000 0.415019 0.303486
1.000000 0.415019 0.303486
1.000000 0.415019 0.303486
0.045659 0.094606 0.045659
0.045659 0.094606 0.045659
0.045659 0.094606 0.045659
0.046244 0.094949 0.045836
0.049608 0.096921 0.046850
0.053538 0.099226 0.048036
0.058137 0.101922 0.049423
0.064109 0.105424 0.051224
0.070936 0.108787 0.053359
0.080205 0.113293 0.056265
0.092805 0.119419 0.060215
0.109659 0.127613 0.065499
0.144064 0.144064 0.074910
0.190639 0.162020 0.087220
0.268668 0.192230 0.106583
0.392663 0.233876 0.135355
0.608773 0.299635 0.181811
0.976175 0.397439 0.255513
1.000000 0.482524 0.321181
1.000000 0.482524 0.321181
1.000000 0.482524 0.321181
1.000000 0.482524 0.321181
1.000000 0.482524 0.321181
1.000000 0.482524 0.321181
1.000000 0.482524 0.321181
1.000000 0.482524 0.321181
1.000000 0.482524 0.321181
1.000000 0.482524 0.321181
1.000000 0.482524 0.321181
1.000000 0.482524 0.321181
1.000000 0.482524 0.321181
1.000000 0.482524 0.321181
0.056062 0.133627 0.056062
0.056062 0.133627 0.056062
0.056062 0.133627 0.056062
0.056646 0.133970 0.056238
0.060010 0.135942 0.057252
0.063940 0.138247 0.058438
0.068539 0.140944 0.059825
0.074511 0.144446 0.061626
0.082886 0.149356 0.064152
0.094402 0.156109 0.067626
0.110053 0.165286 0.072346
0.127614 0.174187 0.077809
0.162020 0.190639 0.087220
0.216618 0.216618 0.101516
0.296072 0.248257 0.121236
0.426901 0.296760 0.151716
0.652658 0.372138 0.200578
1.000000 0.486249 0.278356
1.000000 0.580246 0.346272
1.000000 0.580246 0.346272
1.000000 0.580246 0.346272
1.000000 0.580246 0.346272
1.000000 0.580246 0.346272
1.000000 0.580246 0.346272
1.000000 0.580246 0.346272
1.000000 0.580246 0.346272
1.000000 0.580246 0.346272
1.000000 0.580246 0.346272
1.000000 0.580246 0.346272
1.000000 0.580246 0.346272
1.000000 0.580246 0.346272
1.000000 0.580246 0.346272
0.071813 0.197192 0.071813
0.071813 0.197192 0.071813
0.071813 0.197192 0.071813
0.072515 0.197654 0.072018
0.076558 0.200307 0.073201
0.081280 0.203407 0.074582
0.086808 0.207035 0.076199
0.093985 0.211746 0.078299
0.103795 0.218097 0.081180
0.115311 0.224849 0.084653
0.130962 0.234027 0.089374
0.151899 0.246303 0.095689
0.192230 0.268668 0.106583
0.248257 0.296072 0.121236
0.338959 0.338959 0.143771
0.478321 0.396019 0.176385
0.718576 0.485888 0.228870
1.000000 0.615187 0.310448
1.000000 0.724830 0.382278
1.000000 0.724830 0.382278
1.000000 0.724830 0.382278
1.000000 0.724830 0.382278
1.000000 0.724830 0.382278
1.000000 0.724830 0.382278
1.000000 0.724830 0.382278
1.000000 0.724830 0.382278
1.000000 0.724830 0.382278
1.000000 0.724830 0.382278
1.000000 0.724830 0.382278
1.000000 0.724830 0.382278
1.000000 0.724830 0.382278
1.000000 0.724830 0.382278
0.096330 0.304011 0.096330
0.096330 0.304011 0.096330
0.096330 0.304011 0.096330
0.097154 0.304593 0.096566
0.101893 0.307943 0.097923
0.107430 0.311858 0.099509
0.113864 0.316392 0.101354
0.121041 0.321103 0.103453
0.131106 0.327709 0.106397
0.144944 0.336792 0.110446
0.163753 0.349138 0.115948
0.188915 0.365653 0.123308
0.233876 0.392663 0.135355
0.296760 0.426901 0.151716
0.396019 0.478321 0.176385
0.551300 0.551300 0.213016
0.807843 0.657495 0.269575
1.000000 0.813825 0.357920
1.000000 0.944011 0.434860
1.000000 0.944011 0.434860
1.000000 0.944011 0.434860
1.000000 0.944011 0.434860
1.000000 0.944011 0.434860
1.000000 0.944011 0.434860
1.000000 0.944011 0.434860
1.000000 0.944011 0.434860
1.000000 0.944011 0.434860
1.000000 0.944011 0.434860
1.000000 0.944011 0.434860
1.000000 0.944011 0.434860
1.000000 0.944011 0.434860
1.000000 0.944011 0.434860
0.136325 0.494386 0.136325
0.136325 0.494386 0.136325
0.136325 0.494386 0.136325
0.137273 0.495091 0.136592
0.142727 0.499152 0.138129
0.149099 0.503896 0.139924
0.156557 0.509448 0.142025
0.166241 0.516657 0.144753
0.179228 0.526179 0.148431
0.195453 0.537648 0.153077
0.217504 0.553236 0.159393
0.247002 0.574088 0.167841
0.299635 0.608773 0.181811
0.372138 0.652658 0.200578
0.485888 0.718576 0.228870
0.657495 0.807843 0.269575
0.942286 0.942286 0.333176
1.000000 1.000000 0.430058
1.000000 1.000000 0.513780
1.000000 1.000000 0.513780
1.000000 1.000000 0.513780
1.000000 1.000000 0.513780
1.000000 1.000000 0.513780
1.000000 1.000000 0.513780
1.000000 1.000000 0.513780
1.000000 1.000000 0.513780
1.000000 1.000000 0.513780
1.000000 1.000000 0.513780
1.000000 1.000000 0.513780
1.000000 1.000000 0.513780
1.000000 1.000000 0.513780
1.000000 1.000000 0.513780
0.201953 0.829692 0.201953
0.201953 0.829692 0.201953
0.201953 0.829692 0.201953
0.203026 0.830523 0.202251
0.209202 0.835306 0.203969
0.216417 0.840893 0.205977
0.224862 0.847432 0.208326
0.235827 0.855923 0.211377
0.251204 0.867830 0.215655
0.272346 0.884201 0.221537
0.301083 0.906453 0.229531
0.338456 0.935153 0.239957
0.397439 0.976175 0.255513
0.486249 1.000000 0.278356
0.615187 1.000000 0.310448
0.813825 1.000000 0.357920
1.000000 1.000000 0.430058
1.000000 1.000000 0.540559
1.000000 1.000000 0.633417
1.000000 1.000000 0.633417
1.000000 1.000000 0.633417
1.000000 1.000000 0.633417
1.000000 1.000000 0.633417
1.000000 1.000000 0.633417
1.000000 1.000000 0.633417
1.000000 1.000000 0.633417
1.000000 1.000000 0.633417
1.000000 1.000000 0.633417
1.000000 1.000000 0.633417
1.000000 1.000000 0.633417
1.000000 1.000000 0.633417
1.000000 1.000000 0.633417
0.261168 1.000000 0.261168
0.261168 1.000000 0.261168
0.261168 1.000000 0.261168
0.262368 1.000000 0.261498
0.269274 1.000000 0.263397
0.277344 1.000000 0.265617
0.286788 1.000000 0.268215
0.299051 1.000000 0.271588
0.316247 1.000000 0.276318
0.339891 1.000000 0.282821
0.372028 1.000000 0.291661
0.415019 1.000000 0.303486
0.482524 1.000000 0.321181
0.580246 1.000000 0.346272
0.724830 1.000000 0.382278
0.944011 1.000000 0.434860
1.000000 1.000000 0.513780
1.000000 1.000000 0.633417
1.000000 1.000000 0.734466
1.000000 1.000000 0.734466
1.000000 1.000000 0.734466
1.000000 1.000000 0.734466
1.000000 1.000000 0.734466
1.000000 1.000000 0.734466
1.000000 1.000000 0.734466
1.000000 1.000000 0.734466
1.000000 1.000000 0.734466
1.000000 1.000000 0.734466
1.000000 1.000000 0.734466
1.000000 1.000000 0.734466
1.000000 1.000000 0.734466
1.000000 1.000000 0.734466
0.261168 1.000000 0.261168
0.261168 1.000000 0.261168
0.261168 1.000000 0.261168
0.262368 1.000000 0.261498
0.269274 1.000000 0.263397
0.277344 1.000000 0.265617
0.286788 1.000000 0.268215
0.299051 1.000000 0.271588
0.316247 1.000000 0.276318
0.339891 1.000000 0.282821
0.372028 1.000000 0.291661
0.415019 1.000000 0.303486
0.482524 1.000000 0.321181
0.580246 1.000000 0.346272
0.724830 1.000000 0.382278
0.944011 1.000000 0.434860
1.000000 1.000000 0.513780
1.000000 1.000000 0.633417
1.000000 1.000000 0.734466
1.000000 1.000000 0.734466
1.000000 1.000000 0.734466
1.000000 1.000000 0.734466
1.000000 1.000000 0.734466
1.000000 1.000000 0.734466
1.000000 1.000000 0.734466
1.000000 1.000000 0.734466
1.000000 1.000000 0.734466
1.000000 1.000000 0.734466
1.000000 1.000000 0.734466
1.000000 1.000000 0.734466
1.000000 1.000000 0.734466
1.000000 1.000000 0.734466
0.261168 1.000000 0.261168
0.261168 1.000000 0.261168
0.261168 1.000000 0.261168
0.262368 1.000000 0.261498
0.269274 1.000000 0.263397
0.277344 1.000000 0.265617
0.286788 1.000000 0.268215
0.299051 1.000000 0.271588
0.316247 1.000000 0.276318
0.339891 1.000000 0.282821
0.372028 1.000000 0.291661
0.415019 1.000000 0.303486
0.482524 1.000000 0.321181
0.580246 1.000000 0.346272
0.724830 1.000000 0.382278
0.944011 1.000000 0.434860
1.000000 1.000000 0.513780
1.000000 1.000000 0.633417
1.000000 1.000000 0.734466
1.000000 1.000000 0.734466
1.000000 1.000000 0.734466
1.000000 1.000000 0.734466
1.000000 1.000000 0.734466
1.000000 1.000000 0.734466
1.000000 1.000000 0.734466
1.000000 1.000000 0.734466
1.000000 1.000000 0.734466
1.000000 1.000000 0.734466
1.000000 1.000000 0.734466
1.000000 1.000000 0.734466
1.000000 1.000000 0.734466
1.000000 1.000000 0.734466
0.261168 1.000000 0.261168
0.261168 1.000000 0.261168
0.261168 1.000000 0.261168
0.262368 1.000000 0.261498
0.269274 1.000000 0.263397
0.277344 1.000000 0.265617
0.286788 1.000000 0.268215
0.299051 1.000000 0.271588
0.316247 1.000000 0.276318
0.339891 1.000000 0.282821
0.372028 1.000000 0.291661
0.415019 1.000000 0.303486
0.482524 1.000000 0.321181
0.580246 1.000000 0.346272
0.724830 1.000000 0.382278
0.944011 1.000000 0.434860
1.000000 1.000000 0.513780
1.000000 1.000000 0.633417
1.000000 1.000000 0.734466
1.000000 1.000000 0.734466
1.000000 1.000000 0.734466
1.000000 1.000000 0.734466
1.000000 1.000000 0.734466
1.000000 1.000000 0.734466
1.000000 1.000000 0.734466
1.000000 1.000000 0.734466
1.000000 1.000000 0.734466
1.000000 1.000000 0.734466
1.000000 1.000000 0.734466
1.000000 1.000000 0.734466
1.000000 1.000000 0.734466
1.000000 1.000000 0.734466
0.261168 1.000000 0.261168
0.261168 1.000000 0.261168
0.261168 1.000000 0.261168
0.262368 1.000000 0.261498
0.269274 1.000000 0.263397
0.277344 1.000000 0.265617
0.286788 1.000000 0.268215
0.299051 1.000000 0.271588
0.316247 1.000000 0.276318
0.339891 1.000000 0.282821
0.372028 1.000000 0.291661
0.415019 1.000000 0.303486
0.482524 1.000000 0.321181
0.580246 1.000000 0.346272
0.724830 1.000000 0.382278
0.944011 1.000000 0.434860
1.000000 1.000000 0.513780
1.000000 1.000000 0.633417
1.000000 1.000000 0.734466
1.000000 1.000000 0.734466
1.000000 1.000000 0.734466
1.000000 1.000000 0.734466
1.000000 1.000000 0.734466
1.000000 1.000000 0.734466
1.000000 1.000000 0.734466
1.000000 1.000000 0.734466
1.000000 1.000000 0.734466
1.000000 1.000000 0.734466
1.000000 1.000000 0.734466
1.000000 1.000000 0.734466
1.000000 1.000000 0.734466
1.000000 1.000000 0.734466
0.261168 1.000000 0.261168
0.261168 1.000000 0.261168
0.261168 1.000000 0.261168
0.262368 1.000000 0.261498
0.269274 1.000000 0.263397
0.277344 1.000000 0.265617
0.286788 1.000000 0.268215
0.299051 1.000000 0.271588
0.316247 1.000000 0.276318
0.339891 1.000000 0.282821
0.372028 1.000000 0.291661
0.415019 1.000000 0.303486
0.482524 1.000000 0.321181
0.580246 1.000000 0.346272
0.724830 1.000000 0.382278
0.944011 1.000000 0.434860
1.000000 1.000000 0.513780
1.000000 1.000000 0.633417
1.000000 1.000000 0.734466
1.000000 1.000000 0.734466
1.000000 1.000000 0.734466
1.000000 1.000000 0.734466
1.000000 1.000000 0.734466
1.000000 1.000000 0.734466
1.000000 1.000000 0.734466
1.000000 1.000000 0.734466
1.000000 1.000000 0.734466
1.000000 1.000000 0.734466
1.000000 1.000000 0.734466
1.000000 1.000000 0.734466
1.000000 1.000000 0.734466
1.000000 1.000000 0.734466
0.261168 1.000000 0.261168
0.261168 1.000000 0.261168
0.261168 1.000000 0.261168
0.262368 1.000000 0.261498
0.269274 1.000000 0.263397
0.277344 1.000000 0.265617
0.286788 1.000000 0.268215
0.299051 1.000000 0.271588
0.316247 1.000000 0.276318
0.339891 1.000000 0.282821
0.372028 1.000000 0.291661
0.415019 1.000000 0.303486
0.482524 1.000000 0.321181
0.580246 1.000000 0.346272
0.724830 1.000000 0.382278
0.944011 1.000000 0.434860
1.000000 1.000000 0.513780
1.000000 1.000000 0.633417
1.000000 1.000000 0.734466
1.000000 1.000000 0.734466
1.000000 1.000000 0.734466
1.000000 1.000000 0.734466
1.000000 1.000000 0.734466
1.000000 1.000000 0.734466
1.000000 1.000000 0.734466
1.000000 1.000000 0.734466
1.000000 1.000000 0.734466
1.000000 1.000000 0.734466
1.000000 1.000000 0.734466
1.000000 1.000000 0.734466
1.000000 1.000000 0.734466
1.000000 1.000000 0.734466
0.261168 1.000000 0.261168
0.261168 1.000000 0.261168
0.261168 1.000000 0.261168
0.262368 1.000000 0.261498
0.269274 1.000000 0.263397
0.277344 1.000000 0.265617
0.286788 1.000000 0.268215
0.299051 1.000000 0.271588
0.316247 1.000000 0.276318
0.339891 1.000000 0.282821
0.372028 1.000000 0.291661
0.415019 1.000000 0.303486
0.482524 1.000000 0.321181
0.580246 1.000000 0.346272
0.724830 1.000000 0.382278
0.944011 1.000000 0.434860
1.000000 1.000000 0.513780
1.000000 1.000000 0.633417
1.000000 1.000000 0.734466
1.000000 1.000000 0.734466
1.000000 1.000000 0.734466
1.000000 1.000000 0.734466
1.000000 1.000000 0.734466
1.000000 1.000000 0.734466
1.000000 1.000000 0.734466
1.000000 1.000000 0.734466
1.000000 1.000000 0.734466
1.000000 1.000000 0.734466
1.000000 1.000000 0.734466
1.000000 1.000000 0.734466
1.000000 1.000000 0.734466
1.000000 1.000000 0.734466
0.261168 1.000000 0.261168
0.261168 1.000000 0.261168
0.261168 1.000000 0.261168
0.262368 1.000000 0.261498
0.269274 1.000000 0.263397
0.277344 1.000000 0.265617
0.286788 1.000000 0.268215
0.299051 1.000000 0.271588
0.316247 1.000000 0.276318
0.339891 1.000000 0.282821
0.372028 1.000000 0.291661
0.415019 1.000000 0.303486
0.482524 1.000000 0.321181
0.580246 1.000000 0.346272
0.724830 1.000000 0.382278
0.944011 1.000000 0.434860
1.000000 1.000000 0.513780
1.000000 1.000000 0.633417
1.000000 1.000000 0.734466
1.000000 1.000000 0.734466
1.000000 1.000000 0.734466
1.000000 1.000000 0.734466
1.000000 1.000000 0.734466
1.000000 1.000000 0.734466
1.000000 1.000000 0.734466
1.000000 1.000000 0.734466
1.000000 1.000000 0.734466
1.000000 1.000000 0.734466
1.000000 1.000000 0.734466
1.000000 1.000000 0.734466
1.000000 1.000000 0.734466
1.000000 1.000000 0.734466
0.261168 1.000000 0.261168
0.261168 1.000000 0.261168
0.261168 1.000000 0.261168
0.262368 1.000000 0.261498
0.269274 1.000000 0.263397
0.277344 1.000000 0.265617
0.286788 1.000000 0.268215
0.299051 1.000000 0.271588
0.316247 1.000000 0.276318
0.339891 1.000000 0.282821
0.372028 1.000000 0.291661
0.415019 1.000000 0.303486
0.482524 1.000000 0.321181
0.580246 1.000000 0.346272
0.724830 1.000000 0.382278
0.944011 1.000000 0.434860
1.000000 1.000000 0.513780
1.000000 1.000000 0.633417
