Assets/Art/Materials/LUT/Contrail.CUBE
#Created by: Adobe Photoshop Export Color Lookup Plugin
TITLE "Frame.exr"
#LUT size
LUT_3D_SIZE 8
#data domain
#LUT data points
DOMAIN_MIN 0.000000 0.000000 0.000000
DOMAIN_MAX 0.903226 0.903226 0.903226
0.004028 0.003418 0.012604
0.006469 0.003424 0.012610
0.020958 0.003473 0.012647
0.085568 0.003700 0.012813
0.704405 0.005763 0.014248
0.969512 0.007446 0.015412
0.969512 0.007446 0.015412
0.969513 0.007446 0.015412
0.004060 0.005846 0.012661
0.006507 0.005859 0.012667
0.020990 0.005908 0.012704
0.085618 0.006148 0.012869
0.704443 0.008229 0.014323
0.969512 0.009925 0.015487
0.969512 0.009925 0.015487
0.969513 0.009925 0.015487
0.004243 0.020274 0.012990
0.006696 0.020287 0.013002
0.021178 0.020360 0.013045
0.085893 0.020636 0.013223
0.704663 0.022752 0.014762
0.969512 0.024337 0.015926
0.969512 0.024337 0.015926
0.969513 0.024337 0.015926
0.005028 0.084578 0.014461
0.007488 0.084591 0.014473
0.021938 0.084694 0.014546
0.086984 0.085069 0.014761
0.705503 0.087930 0.016448
0.969512 0.090082 0.017734
0.969512 0.090082 0.017734
0.969513 0.090082 0.017734
0.012859 0.701327 0.024666
0.015389 0.701339 0.024685
0.030733 0.701426 0.024794
0.096769 0.701793 0.025174
0.711537 0.703866 0.027498
0.969512 0.705069 0.028847
0.969512 0.705069 0.028847
0.969513 0.705069 0.028847
0.019013 0.988647 0.031647
0.021422 0.988647 0.031666
0.036727 0.988647 0.031776
0.103912 0.988647 0.032143
0.714990 0.988647 0.034238
0.969512 0.988647 0.035309
0.969512 0.988647 0.035309
0.969513 0.988647 0.035309
0.019013 0.988647 0.031647
0.021422 0.988647 0.031666
0.036727 0.988647 0.031776
0.103912 0.988647 0.032143
0.714990 0.988647 0.034238
0.969512 0.988647 0.035309
0.969512 0.988647 0.035309
0.969513 0.988647 0.035309
0.019013 0.988647 0.031647
0.021422 0.988647 0.031666
0.036727 0.988647 0.031776
0.103912 0.988647 0.032143
0.714991 0.988647 0.034238
0.969512 0.988647 0.035309
0.969512 0.988647 0.035309
0.969513 0.988647 0.035309
0.004035 0.003418 0.014994
0.006482 0.003424 0.015001
0.020971 0.003473 0.015044
0.085580 0.003700 0.015203
0.704411 0.005769 0.016651
0.969512 0.007453 0.017827
0.969512 0.007453 0.017827
0.969513 0.007453 0.017827
0.004066 0.005853 0.015058
0.006513 0.005859 0.015064
0.020990 0.005908 0.015107
0.085618 0.006148 0.015266
0.704449 0.008235 0.016727
0.969512 0.009932 0.017909
0.969512 0.009932 0.017909
0.969513 0.009932 0.017909
0.004249 0.020281 0.015399
0.006696 0.020293 0.015405
0.021184 0.020366 0.015454
0.085899 0.020642 0.015626
0.704669 0.022752 0.017171
0.969512 0.024350 0.018360
0.969512 0.024350 0.018360
0.969513 0.024350 0.018360
0.005034 0.084585 0.016870
0.007494 0.084597 0.016883
0.021951 0.084700 0.016950
0.086991 0.085069 0.017177
0.705509 0.087937 0.018876
0.969512 0.090088 0.020168
0.969512 0.090088 0.020168
0.969513 0.090088 0.020168
0.012872 0.701333 0.027163
0.015401 0.701346 0.027182
0.030739 0.701438 0.027292
0.096782 0.701799 0.027666
0.711544 0.703866 0.029870
0.969512 0.705076 0.031168
0.969512 0.705076 0.031168
0.969513 0.705076 0.031168
0.019025 0.988647 0.034069
0.021428 0.988647 0.034088
0.036746 0.988647 0.034191
0.103931 0.988647 0.034540
0.714997 0.988647 0.036666
0.969512 0.988647 0.037902
0.969512 0.988647 0.037902
0.969513 0.988647 0.037902
0.019025 0.988647 0.034069
0.021428 0.988647 0.034088
0.036746 0.988647 0.034191
0.103931 0.988647 0.034540
0.714997 0.988647 0.036666
0.969512 0.988647 0.037902
0.969512 0.988647 0.037902
0.969513 0.988647 0.037902
0.019025 0.988647 0.034069
0.021428 0.988647 0.034088
0.036746 0.988647 0.034191
0.103931 0.988647 0.034540
0.714997 0.988647 0.036666
0.969512 0.988647 0.037902
0.969512 0.988647 0.037902
0.969513 0.988647 0.037902
0.004071 0.003418 0.029499
0.006518 0.003431 0.029505
0.021019 0.003486 0.029542
0.085641 0.003730 0.029738
0.704448 0.005793 0.031254
0.969512 0.007489 0.032515
0.969512 0.007489 0.032515
0.969513 0.007489 0.032515
0.004103 0.005859 0.029562
0.006550 0.005872 0.029575
0.021044 0.005920 0.029611
0.085685 0.006171 0.029807
0.704485 0.008266 0.031336
0.969512 0.009968 0.032603
0.969512 0.009968 0.032603
0.969513 0.009968 0.032603
0.004273 0.020317 0.029940
0.006727 0.020330 0.029953
0.021221 0.020372 0.029995
0.085935 0.020666 0.030203
0.704707 0.022795 0.031804
0.969512 0.024380 0.033072
0.969512 0.024380 0.033072
0.969513 0.024380 0.033072
0.005071 0.084621 0.031479
0.007531 0.084634 0.031492
0.021981 0.084737 0.031565
0.087040 0.085099 0.031810
0.705546 0.087986 0.033649
0.969512 0.090155 0.034948
0.969512 0.090155 0.034948
0.969513 0.090155 0.034948
0.012945 0.701370 0.042351
0.015474 0.701388 0.042370
0.030818 0.701481 0.042492
0.096868 0.701836 0.042871
0.711592 0.703892 0.044910
0.969512 0.705112 0.046136
0.969512 0.705112 0.046136
0.969513 0.705112 0.046136
0.019098 0.988647 0.049373
0.021502 0.988647 0.049392
0.036819 0.988647 0.049490
0.104010 0.988647 0.049827
0.715033 0.988647 0.052041
0.969512 0.988647 0.053600
0.969512 0.988647 0.053600
0.969513 0.988647 0.053600
0.019098 0.988647 0.049373
0.021502 0.988647 0.049392
0.036819 0.988647 0.049490
0.104010 0.988647 0.049827
0.715033 0.988647 0.052041
0.969512 0.988647 0.053600
0.969512 0.988647 0.053600
0.969513 0.988647 0.053600
0.019098 0.988647 0.049373
0.021502 0.988647 0.049392
0.036819 0.988647 0.049490
0.104010 0.988647 0.049827
0.715033 0.988647 0.052041
0.969512 0.988647 0.053600
0.969512 0.988647 0.053600
0.969513 0.988647 0.053600
0.004194 0.003510 0.091877
0.006641 0.003522 0.091889
0.021129 0.003595 0.091932
0.085807 0.003835 0.092159
0.704602 0.005941 0.093876
0.969512 0.007673 0.095254
0.969512 0.007673 0.095254
0.969513 0.007673 0.095254
0.004225 0.005951 0.091965
0.006679 0.005963 0.091971
0.021161 0.006036 0.092014
0.085857 0.006276 0.092241
0.704639 0.008413 0.093964
0.969512 0.010152 0.095355
0.969512 0.010152 0.095355
0.969513 0.010152 0.095355
0.004408 0.020409 0.092411
0.006862 0.020422 0.092417
0.021356 0.020477 0.092484
0.086114 0.020752 0.092711
0.704802 0.022936 0.094507
0.969512 0.024563 0.095940
0.969512 0.024563 0.095940
0.969513 0.024563 0.095940
0.005254 0.084756 0.094275
0.007714 0.084769 0.094282
0.022152 0.084872 0.094348
0.087262 0.085252 0.094624
0.705730 0.088183 0.096671
0.969512 0.090382 0.098179
0.969512 0.090382 0.098179
0.969513 0.090382 0.098179
0.013264 0.701506 0.107038
0.015793 0.701518 0.107063
0.031119 0.701621 0.107179
0.097234 0.701959 0.107590
0.711765 0.704033 0.110245
0.969512 0.705206 0.111794
0.969512 0.705206 0.111794
0.969513 0.705206 0.111794
0.019399 0.988647 0.115521
0.021784 0.988647 0.115540
0.037119 0.988647 0.115668
0.104403 0.988647 0.116109
0.715186 0.988647 0.118464
0.969512 0.988647 0.119623
0.969512 0.988647 0.119623
0.969513 0.988647 0.119623
0.019399 0.988647 0.115521
0.021784 0.988647 0.115540
0.037119 0.988647 0.115668
0.104403 0.988647 0.116109
0.715185 0.988647 0.118464
0.969512 0.988647 0.119623
0.969512 0.988647 0.119623
0.969513 0.988647 0.119623
0.019399 0.988647 0.115521
0.021784 0.988647 0.115540
0.037119 0.988647 0.115668
0.104403 0.988647 0.116109
0.715186 0.988647 0.118464
0.969512 0.988647 0.119623
0.969512 0.988647 0.119623
0.969513 0.988647 0.119623
0.005064 0.004089 0.680939
0.007531 0.004101 0.680945
0.022015 0.004173 0.680994
0.087025 0.004510 0.681134
0.705539 0.006951 0.682345
0.969512 0.008787 0.683207
0.969512 0.008787 0.683207
0.969513 0.008787 0.683207
0.005108 0.006536 0.681046
0.007568 0.006548 0.681052
0.022046 0.006621 0.681095
0.087088 0.006964 0.681248
0.705583 0.009429 0.682446
0.969512 0.011278 0.683321
0.969512 0.011278 0.683321
0.969513 0.011278 0.683321
0.005363 0.021048 0.681668
0.007830 0.021060 0.681674
0.022262 0.021146 0.681711
0.087405 0.021477 0.681882
0.705827 0.023902 0.683058
0.969512 0.025627 0.683955
0.969512 0.025627 0.683955
0.969513 0.025627 0.683955
0.006406 0.085626 0.684032
0.008879 0.085645 0.684032
0.023242 0.085768 0.684075
0.088766 0.086234 0.684254
0.706770 0.089461 0.685586
0.969512 0.091727 0.686468
0.969512 0.091727 0.686468
0.969513 0.091727 0.686468
0.015112 0.702274 0.698611
0.017654 0.702287 0.698624
0.033096 0.702361 0.698685
0.099401 0.702695 0.698944
0.712885 0.704726 0.700327
0.969512 0.705896 0.701098
0.969512 0.705896 0.701098
0.969513 0.705896 0.701098
0.021237 0.988647 0.707515
0.023729 0.988647 0.707521
0.039260 0.988647 0.707558
0.106435 0.988647 0.707786
0.716002 0.988647 0.708923
0.969512 0.988647 0.709387
0.969512 0.988647 0.709387
0.969513 0.988647 0.709387
0.021237 0.988647 0.707515
0.023729 0.988647 0.707521
0.039260 0.988647 0.707558
0.106435 0.988647 0.707786
0.716002 0.988647 0.708923
0.969512 0.988647 0.709387
0.969512 0.988647 0.709387
0.969513 0.988647 0.709387
0.021237 0.988647 0.707515
0.023729 0.988647 0.707521
0.039260 0.988647 0.707558
0.106435 0.988647 0.707786
0.716002 0.988647 0.708923
0.969512 0.988647 0.709387
0.969512 0.988647 0.709387
0.969513 0.988647 0.709387
0.005707 0.004517 0.969604
0.008186 0.004536 0.969610
0.022659 0.004633 0.969635
0.087890 0.004964 0.969635
0.706184 0.007593 0.969695
0.969512 0.009461 0.969726
0.969512 0.009461 0.969726
0.969513 0.009461 0.969726
0.005757 0.006970 0.969661
0.008224 0.006983 0.969661
0.022691 0.007080 0.969685
0.087953 0.007424 0.969685
0.706228 0.010078 0.969745
0.969512 0.011958 0.969777
0.969512 0.011958 0.969777
0.969513 0.011958 0.969777
0.006050 0.021520 0.969977
0.008522 0.021532 0.969977
0.022916 0.021618 0.969977
0.088331 0.021985 0.969977
0.706486 0.024513 0.970038
0.969512 0.026541 0.970069
0.969512 0.026541 0.970069
0.969513 0.026541 0.970069
0.007190 0.086252 0.971130
0.009675 0.086283 0.971130
0.024019 0.086388 0.971130
0.089785 0.086895 0.971148
0.707463 0.090288 0.971208
0.969512 0.092610 0.971240
0.969512 0.092610 0.971239
0.969513 0.092610 0.971240
0.016276 0.702677 0.977982
0.018811 0.702702 0.977982
0.034267 0.702836 0.977982
0.100731 0.703175 0.977983
0.713534 0.705157 0.978013
0.969512 0.706297 0.978014
0.969512 0.706297 0.978014
0.969513 0.706297 0.978014
0.022309 0.988647 0.982055
0.024970 0.988647 0.982055
0.040874 0.988647 0.982055
0.107630 0.988647 0.982055
0.716495 0.988647 0.982055
0.969512 0.988647 0.982055
0.969512 0.988647 0.982055
0.969513 0.988647 0.982055
0.022309 0.988647 0.982055
0.024970 0.988647 0.982055
0.040874 0.988647 0.982055
0.107630 0.988647 0.982055
0.716495 0.988647 0.982055
0.969512 0.988647 0.982055
0.969512 0.988647 0.982055
0.969513 0.988647 0.982055
0.022309 0.988647 0.982055
0.024970 0.988647 0.982055
0.040874 0.988647 0.982055
0.107630 0.988647 0.982055
0.716495 0.988647 0.982055
0.969512 0.988647 0.982055
0.969512 0.988647 0.982055
0.969513 0.988647 0.982055
0.005707 0.004517 0.969604
0.008186 0.004536 0.969610
0.022659 0.004633 0.969635
0.087890 0.004964 0.969635
0.706184 0.007593 0.969695
0.969512 0.009461 0.969726
0.969512 0.009461 0.969726
0.969513 0.009461 0.969726
0.005757 0.006970 0.969661
0.008224 0.006983 0.969661
0.022691 0.007080 0.969685
0.087953 0.007424 0.969685
0.706228 0.010078 0.969745
0.969512 0.011958 0.969777
0.969512 0.011958 0.969777
0.969513 0.011958 0.969777
0.006050 0.021520 0.969977
0.008522 0.021532 0.969977
0.022916 0.021618 0.969977
0.088331 0.021985 0.969977
0.706486 0.024513 0.970038
0.969512 0.026541 0.970069
0.969512 0.026541 0.970069
0.969513 0.026541 0.970069
0.007190 0.086252 0.971130
0.009675 0.086283 0.971130
0.024019 0.086388 0.971130
0.089785 0.086895 0.971148
0.707463 0.090288 0.971208
0.969512 0.092610 0.971240
0.969512 0.092610 0.971240
0.969513 0.092610 0.971240
0.016276 0.702677 0.977982
0.018811 0.702702 0.977982
0.034267 0.702836 0.977982
0.100731 0.703175 0.977983
0.713534 0.705157 0.978013
0.969512 0.706297 0.978014
0.969512 0.706297 0.978014
0.969513 0.706297 0.978014
0.022309 0.988647 0.982055
0.024970 0.988647 0.982055
0.040874 0.988647 0.982055
0.107630 0.988647 0.982055
0.716495 0.988647 0.982055
0.969512 0.988647 0.982055
0.969512 0.988647 0.982055
0.969513 0.988647 0.982055
0.022309 0.988647 0.982055
0.024970 0.988647 0.982055
0.040874 0.988647 0.982055
0.107630 0.988647 0.982055
0.716495 0.988647 0.982055
0.969512 0.988647 0.982055
0.969512 0.988647 0.982055
0.969513 0.988647 0.982055
0.022309 0.988647 0.982055
0.024970 0.988647 0.982055
0.040874 0.988647 0.982055
0.107630 0.988647 0.982055
0.716495 0.988647 0.982055
0.969512 0.988647 0.982055
0.969512 0.988647 0.982055
0.969513 0.988647 0.982055
0.005707 0.004517 0.969604
0.008186 0.004536 0.969610
0.022659 0.004633 0.969635
0.087890 0.004964 0.969635
0.706184 0.007593 0.969694
0.969512 0.009461 0.969727
0.969512 0.009461 0.969727
0.969513 0.009461 0.969727
0.005757 0.006970 0.969662
0.008224 0.006983 0.969662
0.022691 0.007080 0.969685
0.087953 0.007424 0.969685
0.706228 0.010078 0.969746
0.969512 0.011958 0.969776
0.969512 0.011958 0.969776
0.969513 0.011958 0.969776
0.006050 0.021520 0.969978
0.008522 0.021532 0.969978
0.022916 0.021618 0.969978
0.088331 0.021985 0.969978
0.706486 0.024513 0.970039
0.969512 0.026541 0.970070
0.969512 0.026541 0.970070
0.969513 0.026541 0.970070
0.007190 0.086252 0.971130
0.009675 0.086283 0.971130
0.024019 0.086388 0.971130
0.089785 0.086895 0.971148
0.707463 0.090288 0.971209
0.969512 0.092610 0.971239
0.969512 0.092610 0.971239
0.969513 0.092610 0.971239
0.016276 0.702677 0.977982
0.018811 0.702702 0.977982
0.034267 0.702836 0.977982
0.100731 0.703175 0.977983
0.713534 0.705158 0.978012
0.969512 0.706297 0.978014
0.969512 0.706297 0.978014
0.969513 0.706298 0.978014
0.022309 0.988647 0.982056
0.024970 0.988647 0.982056
0.040874 0.988647 0.982056
0.107630 0.988647 0.982056
0.716495 0.988647 0.982056
0.969512 0.988647 0.982056
0.969512 0.988647 0.982056
0.969513 0.988647 0.982056
0.022309 0.988647 0.982056
0.024970 0.988647 0.982056
0.040874 0.988647 0.982056
0.107630 0.988647 0.982056
0.716495 0.988647 0.982056
0.969512 0.988647 0.982056
0.969512 0.988647 0.982056
0.969513 0.988647 0.982056
0.022309 0.988647 0.982056
0.024970 0.988647 0.982056
0.040874 0.988647 0.982056
0.107630 0.988647 0.982056
0.716495 0.988647 0.982056
0.969512 0.988647 0.982056
0.969512 0.988647 0.982056
0.969513 0.988647 0.982056
