Assets/Art/Materials/LUT/Contrail.CUBE
#Created by: Adobe Photoshop Export Color Lookup Plugin
TITLE "Frame.exr"
#LUT size
LUT_3D_SIZE 32
#data domain
DOMAIN_MIN 0.0 0.0 0.0
DOMAIN_MAX 1.0 1.0 1.0
#LUT data points
0.004028 0.003418 0.012604
0.004028 0.003418 0.012604
0.004028 0.003418 0.012604
0.004390 0.003419 0.012605
0.006469 0.003424 0.012610
0.008899 0.003431 0.012617
0.011743 0.003438 0.012624
0.015435 0.003447 0.012633
0.020958 0.003473 0.012647
0.028608 0.003510 0.012665
0.040835 0.003560 0.012715
0.058035 0.003599 0.012754
0.085568 0.003700 0.012813
0.133020 0.003900 0.012919
0.225601 0.004180 0.013141
0.414546 0.004778 0.013541
0.704405 0.005763 0.014248
0.912133 0.006812 0.014997
0.969512 0.007446 0.015412
0.969512 0.007446 0.015412
0.969512 0.007446 0.015412
0.969512 0.007446 0.015412
0.969512 0.007446 0.015412
0.969512 0.007446 0.015412
0.969512 0.007446 0.015412
0.969512 0.007446 0.015412
0.969512 0.007446 0.015412
0.969513 0.007446 0.015412
0.969513 0.007446 0.015412
0.969513 0.007446 0.015412
0.969513 0.007446 0.015412
0.969513 0.007446 0.015412
0.004028 0.003418 0.012604
0.004028 0.003418 0.012604
0.004028 0.003418 0.012604
0.004390 0.003419 0.012605
0.006469 0.003424 0.012610
0.008899 0.003431 0.012617
0.011743 0.003438 0.012624
0.015435 0.003447 0.012633
0.020958 0.003473 0.012647
0.028608 0.003510 0.012665
0.040835 0.003560 0.012715
0.058035 0.003599 0.012754
0.085568 0.003700 0.012813
0.133020 0.003900 0.012919
0.225601 0.004180 0.013141
0.414546 0.004778 0.013541
0.704405 0.005763 0.014248
0.912133 0.006812 0.014997
0.969512 0.007446 0.015412
0.969512 0.007446 0.015412
0.969512 0.007446 0.015412
0.969512 0.007446 0.015412
0.969512 0.007446 0.015412
0.969512 0.007446 0.015412
0.969512 0.007446 0.015412
0.969512 0.007446 0.015412
0.969513 0.007446 0.015412
0.969513 0.007446 0.015412
0.969513 0.007446 0.015412
0.969513 0.007446 0.015412
0.969513 0.007446 0.015412
0.969513 0.007446 0.015412
0.004028 0.003418 0.012604
0.004028 0.003418 0.012604
0.004028 0.003418 0.012604
0.004390 0.003419 0.012605
0.006469 0.003424 0.012610
0.008899 0.003431 0.012617
0.011743 0.003438 0.012624
0.015435 0.003447 0.012633
0.020958 0.003473 0.012647
0.028608 0.003510 0.012665
0.040835 0.003560 0.012715
0.058035 0.003599 0.012754
0.085568 0.003700 0.012813
0.133020 0.003900 0.012919
0.225601 0.004180 0.013141
0.414546 0.004778 0.013541
0.704405 0.005763 0.014248
0.912133 0.006812 0.014997
0.969512 0.007446 0.015412
0.969512 0.007446 0.015412
0.969512 0.007446 0.015412
0.969512 0.007446 0.015412
0.969512 0.007446 0.015412
0.969512 0.007446 0.015412
0.969512 0.007446 0.015412
0.969512 0.007446 0.015412
0.969513 0.007446 0.015412
0.969513 0.007446 0.015412
0.969513 0.007446 0.015412
0.969513 0.007446 0.015412
0.969513 0.007446 0.015412
0.969513 0.007446 0.015412
0.004033 0.003778 0.012612
0.004033 0.003778 0.012612
0.004033 0.003778 0.012612
0.004395 0.003779 0.012613
0.006475 0.003785 0.012619
0.008905 0.003791 0.012625
0.011748 0.003798 0.012632
0.015440 0.003808 0.012642
0.020963 0.003834 0.012655
0.028613 0.003870 0.012674
0.040841 0.003920 0.012724
0.058041 0.003960 0.012763
0.085575 0.004063 0.012821
0.133029 0.004260 0.012929
0.225609 0.004543 0.013151
0.414555 0.005141 0.013552
0.704410 0.006128 0.014259
0.912134 0.007179 0.015008
0.969512 0.007813 0.015423
0.969512 0.007813 0.015423
0.969512 0.007813 0.015423
0.969512 0.007813 0.015423
0.969512 0.007813 0.015423
0.969512 0.007813 0.015423
0.969512 0.007813 0.015423
0.969512 0.007813 0.015423
0.969512 0.007813 0.015423
0.969513 0.007813 0.015423
0.969513 0.007813 0.015423
0.969513 0.007813 0.015423
0.969513 0.007813 0.015423
0.969513 0.007813 0.015423
0.004060 0.005846 0.012661
0.004060 0.005846 0.012661
0.004060 0.005846 0.012661
0.004422 0.005848 0.012662
0.006507 0.005859 0.012667
0.008937 0.005865 0.012673
0.011780 0.005873 0.012681
0.015473 0.005882 0.012690
0.020990 0.005908 0.012704
0.028640 0.005945 0.012722
0.040873 0.005995 0.012772
0.058073 0.006040 0.012811
0.085618 0.006148 0.012869
0.133077 0.006334 0.012982
0.225652 0.006628 0.013210
0.414603 0.007232 0.013617
0.704443 0.008229 0.014323
0.912139 0.009291 0.015073
0.969512 0.009925 0.015487
0.969512 0.009925 0.015487
0.969512 0.009925 0.015487
0.969512 0.009925 0.015487
0.969512 0.009925 0.015487
0.969512 0.009925 0.015487
0.969512 0.009925 0.015487
0.969512 0.009925 0.015487
0.969512 0.009925 0.015487
0.969513 0.009925 0.015487
0.969513 0.009925 0.015487
0.969513 0.009925 0.015487
0.969513 0.009925 0.015487
0.969513 0.009925 0.015487
0.004091 0.008264 0.012717
0.004091 0.008264 0.012717
0.004091 0.008264 0.012717
0.004454 0.008265 0.012718
0.006539 0.008276 0.012724
0.008975 0.008289 0.012730
0.011818 0.008296 0.012737
0.015510 0.008306 0.012747
0.021021 0.008331 0.012760
0.028671 0.008368 0.012779
0.040911 0.008418 0.012829
0.058111 0.008469 0.012867
0.085668 0.008584 0.012926
0.133133 0.008758 0.013045
0.225695 0.009064 0.013279
0.414659 0.009674 0.013692
0.704480 0.010684 0.014399
0.912146 0.011758 0.015148
0.969512 0.012393 0.015563
0.969512 0.012393 0.015563
0.969512 0.012393 0.015563
0.969512 0.012393 0.015563
0.969512 0.012393 0.015563
0.969512 0.012393 0.015563
0.969512 0.012393 0.015563
0.969512 0.012393 0.015563
0.969512 0.012393 0.015563
0.969513 0.012393 0.015563
0.969513 0.012393 0.015563
0.969513 0.012393 0.015563
0.969513 0.012393 0.015563
0.969513 0.012393 0.015563
0.004128 0.011092 0.012783
0.004128 0.011092 0.012783
0.004128 0.011092 0.012783
0.004490 0.011094 0.012784
0.006575 0.011105 0.012790
0.009011 0.011117 0.012796
0.011862 0.011132 0.012803
0.015554 0.011142 0.012813
0.021065 0.011167 0.012826
0.028708 0.011204 0.012845
0.040955 0.011254 0.012895
0.058155 0.011313 0.012934
0.085720 0.011434 0.012992
0.133180 0.011600 0.013125
0.225747 0.011914 0.013360
0.414726 0.012532 0.013780
0.704524 0.013557 0.014487
0.912153 0.014646 0.015236
0.969512 0.015280 0.015651
0.969512 0.015280 0.015651
0.969512 0.015280 0.015651
0.969512 0.015280 0.015651
0.969512 0.015280 0.015651
0.969512 0.015280 0.015651
0.969512 0.015280 0.015651
0.969512 0.015280 0.015651
0.969512 0.015280 0.015651
0.969513 0.015280 0.015651
0.969513 0.015280 0.015651
0.969513 0.015280 0.015651
0.969513 0.015280 0.015651
0.969513 0.015280 0.015651
0.004176 0.014766 0.012869
0.004176 0.014766 0.012869
0.004176 0.014766 0.012869
0.004538 0.014767 0.012870
0.006623 0.014778 0.012876
0.009059 0.014791 0.012882
0.011910 0.014805 0.012889
0.015612 0.014825 0.012899
0.021122 0.014850 0.012912
0.028756 0.014887 0.012931
0.041008 0.014937 0.012981
0.058212 0.015004 0.013019
0.085787 0.015136 0.013078
0.133238 0.015292 0.013230
0.225814 0.015616 0.013465
0.414814 0.016243 0.013895
0.704582 0.017287 0.014601
0.912167 0.018396 0.015351
0.969512 0.019030 0.015765
0.969512 0.019030 0.015765
0.969512 0.019030 0.015765
0.969512 0.019030 0.015765
0.969512 0.019030 0.015765
0.969512 0.019030 0.015765
0.969512 0.019030 0.015765
0.969512 0.019030 0.015765
0.969512 0.019030 0.015765
0.969513 0.019030 0.015765
0.969513 0.019030 0.015765
0.969513 0.019030 0.015765
0.969513 0.019030 0.015765
0.969513 0.019030 0.015765
0.004243 0.020274 0.012990
0.004243 0.020274 0.012990
0.004243 0.020274 0.012990
0.004606 0.020276 0.012991
0.006696 0.020287 0.013002
0.009138 0.020299 0.013015
0.011989 0.020314 0.013022
0.015691 0.020333 0.013031
0.021178 0.020360 0.013045
0.028811 0.020397 0.013063
0.041099 0.020447 0.013113
0.058305 0.020514 0.013152
0.085893 0.020636 0.013223
0.133330 0.020816 0.013377
0.225963 0.021146 0.013618
0.414948 0.021806 0.014043
0.704663 0.022752 0.014762
0.912182 0.023777 0.015511
0.969512 0.024337 0.015926
0.969512 0.024337 0.015926
0.969512 0.024337 0.015926
0.969512 0.024337 0.015926
0.969512 0.024337 0.015926
0.969512 0.024337 0.015926
0.969512 0.024337 0.015926
0.969512 0.024337 0.015926
0.969512 0.024337 0.015926
0.969513 0.024337 0.015926
0.969513 0.024337 0.015926
0.969513 0.024337 0.015926
0.969513 0.024337 0.015926
0.969513 0.024337 0.015926
0.004335 0.027905 0.013156
0.004335 0.027905 0.013156
0.004335 0.027905 0.013156
0.004698 0.027907 0.013158
0.006788 0.027918 0.013169
0.009230 0.027931 0.013181
0.012089 0.027945 0.013196
0.015800 0.027964 0.013215
0.021288 0.027991 0.013229
0.028885 0.028028 0.013248
0.041212 0.028078 0.013298
0.058434 0.028145 0.013337
0.086004 0.028249 0.013425
0.133493 0.028431 0.013580
0.226165 0.028796 0.013820
0.415128 0.029508 0.014246
0.704774 0.030316 0.014983
0.912206 0.031214 0.015733
0.969512 0.031667 0.016147
0.969512 0.031667 0.016147
0.969512 0.031667 0.016147
0.969512 0.031667 0.016147
0.969512 0.031667 0.016147
0.969512 0.031667 0.016147
0.969512 0.031667 0.016147
0.969512 0.031667 0.016147
0.969512 0.031667 0.016147
0.969513 0.031667 0.016147
0.969513 0.031667 0.016147
0.969513 0.031667 0.016147
0.969513 0.031667 0.016147
0.969513 0.031667 0.016147
0.004460 0.040032 0.013481
0.004460 0.040032 0.013481
0.004460 0.040032 0.013481
0.004823 0.040034 0.013483
0.006913 0.040045 0.013494
0.009355 0.040057 0.013506
0.012214 0.040072 0.013521
0.015925 0.040091 0.013540
0.021413 0.040130 0.013554
0.029010 0.040180 0.013573
0.041387 0.040205 0.013623
0.058634 0.040297 0.013662
0.086204 0.040401 0.013725
0.133718 0.040606 0.013880
0.226402 0.040998 0.014115
0.415403 0.041735 0.014571
0.704874 0.042868 0.015308
0.912232 0.044041 0.016107
0.969512 0.044694 0.016522
0.969512 0.044694 0.016522
0.969512 0.044694 0.016522
0.969512 0.044694 0.016522
0.969512 0.044694 0.016522
0.969512 0.044694 0.016522
0.969512 0.044694 0.016522
0.969512 0.044694 0.016522
0.969512 0.044694 0.016522
0.969513 0.044694 0.016522
0.969513 0.044694 0.016522
0.969513 0.044694 0.016522
0.969513 0.044694 0.016522
0.969513 0.044694 0.016522
0.004711 0.057127 0.013888
0.004711 0.057127 0.013888
0.004711 0.057127 0.013888
0.005073 0.057129 0.013889
0.007152 0.057140 0.013894
0.009582 0.057152 0.013900
0.012425 0.057167 0.013908
0.016120 0.057186 0.013919
0.021596 0.057225 0.013945
0.029178 0.057280 0.013980
0.041630 0.057330 0.014005
0.058871 0.057395 0.014069
0.086502 0.057542 0.014155
0.134047 0.057772 0.014295
0.226741 0.058193 0.014550
0.415804 0.058961 0.015006
0.705123 0.060220 0.015743
0.912302 0.061509 0.016551
0.969512 0.062233 0.017024
0.969512 0.062233 0.017024
0.969512 0.062233 0.017024
0.969512 0.062233 0.017024
0.969512 0.062233 0.017024
0.969512 0.062233 0.017024
0.969512 0.062233 0.017024
0.969512 0.062233 0.017024
0.969512 0.062233 0.017024
0.969513 0.062233 0.017024
0.969513 0.062233 0.017024
0.969513 0.062233 0.017024
0.969513 0.062233 0.017024
0.969513 0.062233 0.017024
0.005028 0.084578 0.014461
0.005028 0.084578 0.014461
0.005028 0.084578 0.014461
0.005392 0.084580 0.014463
0.007488 0.084591 0.014473
0.009936 0.084604 0.014486
0.012802 0.084625 0.014501
0.016523 0.084654 0.014520
0.021938 0.084694 0.014546
0.029463 0.084732 0.014565
0.041990 0.084807 0.014603
0.059290 0.084922 0.014670
0.086984 0.085069 0.014761
0.134540 0.085300 0.014898
0.227347 0.085768 0.015193
0.416411 0.086629 0.015655
0.705503 0.087930 0.016448
0.912390 0.089307 0.017289
0.969512 0.090082 0.017734
0.969512 0.090082 0.017734
0.969512 0.090082 0.017734
0.969512 0.090082 0.017734
0.969512 0.090082 0.017734
0.969512 0.090082 0.017734
0.969512 0.090082 0.017734
0.969512 0.090082 0.017734
0.969512 0.090082 0.017734
0.969513 0.090082 0.017734
0.969513 0.090082 0.017734
0.969513 0.090082 0.017734
0.969513 0.090082 0.017734
0.969513 0.090082 0.017734
0.005629 0.131833 0.015429
0.005629 0.131833 0.015429
0.005629 0.131833 0.015429
0.005994 0.131835 0.015430
0.008095 0.131846 0.015435
0.010550 0.131859 0.015441
0.013417 0.131880 0.015449
0.017137 0.131908 0.015458
0.022516 0.131948 0.015484
0.029969 0.132004 0.015521
0.042649 0.132067 0.015559
0.060019 0.132190 0.015621
0.087762 0.132382 0.015725
0.135411 0.132691 0.015880
0.228264 0.133198 0.016182
0.417461 0.134126 0.016723
0.706088 0.135556 0.017571
0.912550 0.137053 0.018425
0.969512 0.137862 0.018887
0.969512 0.137862 0.018887
0.969512 0.137862 0.018887
0.969512 0.137862 0.018887
0.969512 0.137862 0.018887
0.969512 0.137862 0.018887
0.969512 0.137862 0.018887
0.969512 0.137862 0.018887
0.969512 0.137862 0.018887
0.969513 0.137862 0.018887
0.969513 0.137862 0.018887
0.969513 0.137862 0.018887
0.969513 0.137862 0.018887
0.969513 0.137862 0.018887
0.006791 0.224052 0.017136
0.006791 0.224052 0.017136
0.006791 0.224052 0.017136
0.007157 0.224055 0.017138
0.009264 0.224077 0.017148
0.011731 0.224102 0.017161
0.014619 0.224131 0.017176
0.018368 0.224170 0.017195
0.023627 0.224217 0.017221
0.030903 0.224272 0.017240
0.043939 0.224378 0.017309
0.061461 0.224512 0.017381
0.089254 0.224738 0.017485
0.137018 0.225083 0.017675
0.230046 0.225668 0.018032
0.419334 0.226739 0.018583
0.707150 0.228316 0.019499
0.912840 0.229936 0.020395
0.969512 0.230777 0.020852
0.969512 0.230777 0.020852
0.969512 0.230777 0.020852
0.969512 0.230777 0.020852
0.969512 0.230777 0.020852
0.969512 0.230777 0.020852
0.969512 0.230777 0.020852
0.969512 0.230777 0.020852
0.969512 0.230777 0.020852
0.969513 0.230777 0.020852
0.969513 0.230777 0.020852
0.969513 0.230777 0.020852
0.969513 0.230777 0.020852
0.969513 0.230777 0.020852
0.009107 0.412247 0.020197
0.009107 0.412247 0.020197
0.009107 0.412247 0.020197
0.009476 0.412250 0.020199
0.011604 0.412272 0.020210
0.014091 0.412297 0.020223
0.017000 0.412326 0.020237
0.020775 0.412365 0.020256
0.026378 0.412418 0.020283
0.034105 0.412489 0.020322
0.046657 0.412589 0.020397
0.064213 0.412726 0.020496
0.092164 0.412958 0.020604
0.140111 0.413337 0.020834
0.233387 0.413993 0.021204
0.422656 0.415152 0.021863
0.708963 0.416759 0.022815
0.913259 0.418405 0.023691
0.969512 0.419238 0.024193
0.969512 0.419238 0.024193
0.969512 0.419238 0.024193
0.969512 0.419238 0.024193
0.969512 0.419238 0.024193
0.969512 0.419238 0.024193
0.969512 0.419238 0.024193
0.969512 0.419238 0.024193
0.969512 0.419237 0.024193
0.969513 0.419238 0.024193
0.969513 0.419237 0.024193
0.969513 0.419238 0.024193
0.969513 0.419237 0.024193
0.969513 0.419238 0.024193
0.012859 0.701327 0.024666
0.012859 0.701327 0.024666
0.012859 0.701327 0.024666
0.013234 0.701329 0.024668
0.015389 0.701339 0.024685
0.017906 0.701352 0.024703
0.020853 0.701367 0.024725
0.024678 0.701386 0.024754
0.030733 0.701426 0.024794
0.039143 0.701481 0.024849
0.051119 0.701556 0.024924
0.068605 0.701684 0.025024
0.096769 0.701793 0.025174
0.144965 0.702024 0.025419
0.238447 0.702375 0.025825
0.427685 0.702970 0.026513
0.711537 0.703866 0.027498
0.913878 0.704652 0.028371
0.969512 0.705069 0.028847
0.969512 0.705069 0.028847
0.969512 0.705069 0.028847
0.969512 0.705069 0.028847
0.969512 0.705069 0.028847
0.969512 0.705069 0.028847
0.969512 0.705069 0.028847
0.969512 0.705069 0.028847
0.969512 0.705069 0.028847
0.969513 0.705069 0.028847
0.969513 0.705069 0.028847
0.969513 0.705069 0.028847
0.969513 0.705069 0.028847
0.969513 0.705069 0.028847
0.016873 0.908782 0.029221
0.016873 0.908782 0.029221
0.016873 0.908782 0.029221
0.017243 0.908783 0.029223
0.019377 0.908788 0.029239
0.021869 0.908795 0.029258
0.024786 0.908802 0.029280
0.028594 0.908812 0.029314
0.034822 0.908813 0.029355
0.043459 0.908819 0.029410
0.055536 0.908844 0.029460
0.073155 0.908874 0.029580
0.101437 0.908904 0.029705
0.149837 0.908954 0.029966
0.243486 0.909044 0.030385
0.432403 0.909174 0.031069
0.713836 0.909371 0.031914
0.914413 0.909581 0.032730
0.969512 0.909678 0.033139
0.969512 0.909678 0.033139
0.969512 0.909678 0.033139
0.969512 0.909678 0.033139
0.969512 0.909678 0.033139
0.969512 0.909678 0.033139
0.969512 0.909678 0.033139
0.969512 0.909678 0.033139
0.969512 0.909678 0.033139
0.969513 0.909678 0.033139
0.969513 0.909678 0.033139
0.969513 0.909678 0.033139
0.969513 0.909678 0.033139
0.969513 0.909678 0.033139
0.019013 0.988647 0.031647
0.019013 0.988647 0.031647
0.019013 0.988647 0.031647
0.019369 0.988647 0.031650
0.021422 0.988647 0.031666
0.023820 0.988647 0.031685
0.026627 0.988647 0.031707
0.030272 0.988647 0.031736
0.036727 0.988647 0.031776
0.045759 0.988647 0.031831
0.057885 0.988647 0.031906
0.075543 0.988647 0.032006
0.103912 0.988647 0.032143
0.152403 0.988647 0.032373
0.246060 0.988647 0.032776
0.434808 0.988647 0.033434
0.714990 0.988647 0.034238
0.914657 0.988647 0.034931
0.969512 0.988647 0.035309
0.969512 0.988647 0.035309
0.969512 0.988647 0.035309
0.969512 0.988647 0.035309
0.969512 0.988647 0.035309
0.969512 0.988647 0.035309
0.969512 0.988647 0.035309
0.969512 0.988647 0.035309
0.969512 0.988647 0.035309
0.969513 0.988647 0.035309
0.969513 0.988647 0.035309
0.969513 0.988647 0.035309
0.969513 0.988647 0.035309
0.969513 0.988647 0.035309
0.019013 0.988647 0.031647
0.019013 0.988647 0.031647
0.019013 0.988647 0.031647
0.019369 0.988647 0.031650
0.021422 0.988647 0.031666
0.023820 0.988647 0.031685
0.026627 0.988647 0.031707
0.030272 0.988647 0.031736
0.036727 0.988647 0.031776
0.045759 0.988647 0.031831
0.057885 0.988647 0.031906
0.075543 0.988647 0.032006
0.103912 0.988647 0.032143
0.152403 0.988647 0.032373
0.246060 0.988647 0.032776
0.434808 0.988647 0.033434
0.714990 0.988647 0.034238
0.914657 0.988647 0.034931
0.969512 0.988647 0.035309
0.969512 0.988647 0.035309
0.969512 0.988647 0.035309
0.969512 0.988647 0.035309
0.969512 0.988647 0.035309
0.969512 0.988647 0.035309
0.969512 0.988647 0.035309
0.969512 0.988647 0.035309
0.969513 0.988647 0.035309
0.969513 0.988647 0.035309
0.969513 0.988647 0.035309
0.969513 0.988647 0.035309
0.969513 0.988647 0.035309
0.969513 0.988647 0.035309
0.019013 0.988647 0.031647
0.019013 0.988647 0.031647
0.019013 0.988647 0.031647
0.019369 0.988647 0.031650
0.021422 0.988647 0.031666
0.023820 0.988647 0.031685
0.026627 0.988647 0.031707
0.030272 0.988647 0.031736
0.036727 0.988647 0.031776
0.045759 0.988647 0.031831
0.057885 0.988647 0.031906
0.075543 0.988647 0.032006
0.103912 0.988647 0.032143
0.152403 0.988647 0.032373
0.246060 0.988647 0.032776
0.434808 0.988647 0.033434
0.714990 0.988647 0.034238
0.914657 0.988647 0.034931
0.969512 0.988647 0.035309
0.969512 0.988647 0.035309
0.969512 0.988647 0.035309
0.969512 0.988647 0.035309
0.969512 0.988647 0.035309
0.969512 0.988647 0.035309
0.969512 0.988647 0.035309
0.969512 0.988647 0.035309
0.969512 0.988647 0.035309
0.969513 0.988647 0.035309
0.969513 0.988647 0.035309
0.969513 0.988647 0.035309
0.969513 0.988647 0.035309
0.969513 0.988647 0.035309
0.019013 0.988647 0.031647
0.019013 0.988647 0.031647
0.019013 0.988647 0.031647
0.019369 0.988647 0.031650
0.021422 0.988647 0.031666
0.023820 0.988647 0.031685
0.026627 0.988647 0.031707
0.030272 0.988647 0.031736
0.036727 0.988647 0.031776
0.045759 0.988647 0.031831
0.057885 0.988647 0.031906
0.075543 0.988647 0.032006
0.103912 0.988647 0.032143
0.152403 0.988647 0.032373
0.246060 0.988647 0.032776
0.434808 0.988647 0.033434
0.714990 0.988647 0.034238
0.914657 0.988647 0.034931
0.969512 0.988647 0.035309
0.969512 0.988647 0.035309
0.969512 0.988647 0.035309
0.969512 0.988647 0.035309
0.969512 0.988647 0.035309
0.969512 0.988647 0.035309
0.969512 0.988647 0.035309
0.969512 0.988647 0.035309
0.969512 0.988647 0.035309
0.969513 0.988647 0.035309
0.969513 0.988647 0.035309
0.969513 0.988647 0.035309
0.969513 0.988647 0.035309
0.969513 0.988647 0.035309
0.019013 0.988647 0.031647
0.019013 0.988647 0.031647
0.019013 0.988647 0.031647
0.019369 0.988647 0.031650
0.021422 0.988647 0.031666
0.023820 0.988647 0.031685
0.026627 0.988647 0.031707
0.030272 0.988647 0.031736
0.036727 0.988647 0.031776
0.045759 0.988647 0.031831
0.057885 0.988647 0.031906
0.075543 0.988647 0.032006
0.103912 0.988647 0.032143
0.152403 0.988647 0.032373
0.246060 0.988647 0.032776
0.434808 0.988647 0.033434
0.714990 0.988647 0.034238
0.914657 0.988647 0.034931
0.969512 0.988647 0.035309
0.969512 0.988647 0.035309
0.969512 0.988647 0.035309
0.969512 0.988647 0.035309
0.969512 0.988647 0.035309
0.969512 0.988647 0.035309
0.969512 0.988647 0.035309
0.969512 0.988647 0.035309
0.969512 0.988647 0.035309
0.969513 0.988647 0.035309
0.969513 0.988647 0.035309
0.969513 0.988647 0.035309
0.969513 0.988647 0.035309
0.969513 0.988647 0.035309
0.019013 0.988647 0.031647
0.019013 0.988647 0.031647
0.019013 0.988647 0.031647
0.019369 0.988647 0.031650
0.021422 0.988647 0.031666
0.023820 0.988647 0.031685
0.026627 0.988647 0.031707
0.030272 0.988647 0.031736
0.036727 0.988647 0.031776
0.045759 0.988647 0.031831
0.057885 0.988647 0.031906
0.075543 0.988647 0.032006
0.103912 0.988647 0.032143
0.152403 0.988647 0.032373
0.246060 0.988647 0.032776
0.434808 0.988647 0.033434
0.714990 0.988647 0.034238
0.914657 0.988647 0.034931
0.969512 0.988647 0.035309
0.969512 0.988647 0.035309
0.969512 0.988647 0.035309
0.969512 0.988647 0.035309
0.969512 0.988647 0.035309
0.969512 0.988647 0.035309
0.969512 0.988647 0.035309
0.969512 0.988647 0.035309
0.969512 0.988647 0.035309
0.969513 0.988647 0.035309
0.969513 0.988647 0.035309
0.969513 0.988647 0.035309
0.969513 0.988647 0.035309
0.969513 0.988647 0.035309
0.019013 0.988647 0.031647
0.019013 0.988647 0.031647
0.019013 0.988647 0.031647
0.019369 0.988647 0.031650
0.021422 0.988647 0.031666
0.023820 0.988647 0.031685
0.026627 0.988647 0.031707
0.030272 0.988647 0.031736
0.036727 0.988647 0.031776
0.045759 0.988647 0.031831
0.057885 0.988647 0.031906
0.075543 0.988647 0.032006
0.103912 0.988647 0.032143
0.152403 0.988647 0.032373
0.246060 0.988647 0.032776
0.434808 0.988647 0.033434
0.714990 0.988647 0.034238
0.914657 0.988647 0.034931
0.969512 0.988647 0.035309
0.969512 0.988647 0.035309
0.969512 0.988647 0.035309
0.969512 0.988647 0.035309
0.969512 0.988647 0.035309
0.969512 0.988647 0.035309
0.969512 0.988647 0.035309
0.969513 0.988647 0.035309
0.969513 0.988647 0.035309
0.969513 0.988647 0.035309
0.969513 0.988647 0.035309
0.969513 0.988647 0.035309
0.969513 0.988647 0.035309
0.969513 0.988647 0.035309
0.019013 0.988647 0.031647
0.019013 0.988647 0.031647
0.019013 0.988647 0.031647
0.019369 0.988647 0.031650
0.021422 0.988647 0.031666
0.023820 0.988647 0.031685
0.026627 0.988647 0.031707
0.030272 0.988647 0.031736
0.036727 0.988647 0.031776
0.045759 0.988647 0.031831
0.057885 0.988647 0.031906
0.075543 0.988647 0.032006
0.103912 0.988647 0.032143
0.152403 0.988647 0.032373
0.246060 0.988647 0.032776
0.434808 0.988647 0.033434
0.714990 0.988647 0.034238
0.914657 0.988647 0.034931
0.969512 0.988647 0.035309
0.969512 0.988647 0.035309
0.969512 0.988647 0.035309
0.969512 0.988647 0.035309
0.969512 0.988647 0.035309
0.969512 0.988647 0.035309
0.969512 0.988647 0.035309
0.969512 0.988647 0.035309
0.969513 0.988647 0.035309
0.969513 0.988647 0.035309
0.969513 0.988647 0.035309
0.969513 0.988647 0.035309
0.969513 0.988647 0.035309
0.969513 0.988647 0.035309
0.019013 0.988647 0.031647
0.019013 0.988647 0.031647
0.019013 0.988647 0.031647
0.019369 0.988647 0.031650
0.021422 0.988647 0.031666
0.023820 0.988647 0.031685
0.026627 0.988647 0.031707
0.030272 0.988647 0.031736
0.036727 0.988647 0.031776
0.045759 0.988647 0.031831
0.057885 0.988647 0.031906
0.075543 0.988647 0.032006
0.103912 0.988647 0.032143
0.152403 0.988647 0.032373
0.246060 0.988647 0.032776
0.434808 0.988647 0.033434
0.714990 0.988647 0.034238
0.914657 0.988647 0.034931
0.969512 0.988647 0.035309
0.969512 0.988647 0.035309
0.969512 0.988647 0.035309
0.969512 0.988647 0.035309
0.969512 0.988647 0.035309
0.969512 0.988647 0.035309
0.969512 0.988647 0.035309
0.969512 0.988647 0.035309
0.969512 0.988647 0.035309
0.969513 0.988647 0.035309
0.969513 0.988647 0.035309
0.969513 0.988647 0.035309
0.969513 0.988647 0.035309
0.969513 0.988647 0.035309
0.019013 0.988647 0.031647
0.019013 0.988647 0.031647
0.019013 0.988647 0.031647
0.019369 0.988647 0.031650
0.021422 0.988647 0.031666
0.023820 0.988647 0.031685
0.026627 0.988647 0.031707
0.030272 0.988647 0.031736
0.036727 0.988647 0.031776
0.045759 0.988647 0.031831
0.057885 0.988647 0.031906
0.075543 0.988647 0.032006
0.103912 0.988647 0.032143
0.152403 0.988647 0.032373
0.246060 0.988647 0.032776
0.434808 0.988647 0.033434
0.714990 0.988647 0.034238
0.914657 0.988647 0.034931
