Assets/Art/Materials/LUT/Contrail.CUBE
#Created by: Adobe Photoshop Export Color Lookup Plugin
TITLE "Frame.exr"
#LUT size
LUT_3D_SIZE 5
#data domain
#LUT data points
DOMAIN_MIN 0.000000 0.000000 0.000000
DOMAIN_MAX 0.903226 0.903226 0.903226
0.004028 0.003418 0.012604
0.015435 0.003447 0.012633
0.225601 0.004180 0.013141
0.969512 0.007446 0.015412
0.969513 0.007446 0.015412
0.004176 0.014766 0.012869
0.015612 0.014825 0.012899
0.225814 0.015616 0.013465
0.969512 0.019030 0.015765
0.969513 0.019030 0.015765
0.006791 0.224052 0.017136
0.018368 0.224170 0.017195
0.230046 0.225668 0.018032
0.969512 0.230777 0.020852
0.969513 0.230777 0.020852
0.019013 0.988647 0.031647
0.030272 0.988647 0.031736
0.246060 0.988647 0.032776
0.969512 0.988647 0.035309
0.969513 0.988647 0.035309
0.019013 0.988647 0.031647
0.030272 0.988647 0.031736
0.246060 0.988647 0.032776
0.969512 0.988647 0.035309
0.969513 0.988647 0.035309
0.004058 0.003418 0.023775
0.015494 0.003447 0.023804
0.225637 0.004210 0.024341
0.969512 0.007476 0.026700
0.969513 0.007476 0.026700
0.004205 0.014795 0.024069
0.015641 0.014825 0.024099
0.225879 0.015669 0.024671
0.969512 0.019059 0.027083
0.969513 0.019059 0.027083
0.006820 0.224105 0.028501
0.018404 0.224205 0.028554
0.230129 0.225703 0.029421
0.969512 0.230853 0.032194
0.969513 0.230853 0.032194
0.019072 0.988647 0.042965
0.030301 0.988647 0.043054
0.246154 0.988647 0.043846
0.969512 0.988647 0.047423
0.969513 0.988647 0.047423
0.019072 0.988647 0.042965
0.030301 0.988647 0.043054
0.246154 0.988647 0.043846
0.969512 0.988647 0.047423
0.969513 0.988647 0.047423
0.004407 0.003644 0.225178
0.015872 0.003703 0.225208
0.226315 0.004534 0.225971
0.969512 0.007953 0.228963
0.969513 0.007953 0.228963
0.004607 0.015050 0.225638
0.016025 0.015138 0.225679
0.226568 0.015993 0.226425
0.969512 0.019595 0.229529
0.969513 0.019595 0.229529
0.007456 0.224655 0.232368
0.019051 0.224744 0.232433
0.231053 0.226308 0.233496
0.969512 0.231533 0.237103
0.969513 0.231533 0.237103
0.019952 0.988647 0.253896
0.030999 0.988647 0.253979
0.247158 0.988647 0.255244
0.969512 0.988647 0.258059
0.969513 0.988647 0.258059
0.019952 0.988647 0.253896
0.030999 0.988647 0.253979
0.247158 0.988647 0.255244
0.969512 0.988647 0.258059
0.969513 0.988647 0.258059
0.005707 0.004517 0.969604
0.017290 0.004605 0.969633
0.228463 0.005651 0.969635
0.969512 0.009461 0.969726
0.969513 0.009461 0.969726
0.005943 0.015982 0.969869
0.017467 0.016041 0.969869
0.228794 0.017176 0.969870
0.969512 0.021132 0.969962
0.969513 0.021132 0.969962
0.009458 0.226267 0.973118
0.021118 0.226391 0.973118
0.233873 0.228158 0.973130
0.969512 0.233529 0.973185
0.969513 0.233529 0.973185
0.022309 0.988647 0.982055
0.034747 0.988647 0.982055
0.249850 0.988647 0.982055
0.969512 0.988647 0.982055
0.969513 0.988647 0.982055
0.022309 0.988647 0.982055
0.034747 0.988647 0.982055
0.249850 0.988647 0.982055
0.969512 0.988647 0.982055
0.969513 0.988647 0.982055
0.005707 0.004517 0.969604
0.017290 0.004605 0.969633
0.228463 0.005651 0.969635
0.969512 0.009461 0.969727
0.969513 0.009461 0.969727
0.005943 0.015982 0.969870
0.017467 0.016041 0.969870
0.228794 0.017176 0.969870
0.969512 0.021132 0.969961
0.969513 0.021132 0.969961
0.009458 0.226267 0.973118
0.021118 0.226391 0.973118
0.233873 0.228158 0.973129
0.969512 0.233529 0.973185
0.969513 0.233529 0.973185
0.022309 0.988647 0.982056
0.034747 0.988647 0.982056
0.249850 0.988647 0.982056
0.969512 0.988647 0.982056
0.969513 0.988647 0.982056
0.022309 0.988647 0.982056
0.034747 0.988647 0.982056
0.249850 0.988647 0.982056
0.969512 0.988647 0.982056
0.969513 0.988647 0.982056
