Assets/Art/Materials/LUT/Django.CUBE
#Created by: Adobe Photoshop Export Color Lookup Plugin
TITLE "Frame.exr"
#LUT size
LUT_3D_SIZE 32
#data domain
DOMAIN_MIN 0.0 0.0 0.0
DOMAIN_MAX 1.0 1.0 1.0
#LUT data points
0.000000 0.000000 0.000000
0.000000 0.000000 0.000000
0.000000 0.000000 0.000000
0.000000 0.000000 0.000000
0.000000 0.000000 0.000000
0.000000 0.000000 0.000000
0.000000 0.000000 0.000000
0.000000 0.000000 0.000000
0.002701 0.000000 0.000000
0.006853 0.000000 0.000000
0.026681 0.000000 0.000000
0.053514 0.000000 0.000000
0.091191 0.000000 0.000000
0.145150 0.000000 0.000000
0.226174 0.000000 0.000000
0.350759 0.000000 0.000000
0.512565 0.000000 0.000000
0.697955 0.000000 0.000000
0.851225 0.000000 0.000000
0.851225 0.000000 0.000000
0.851225 0.000000 0.000000
0.851225 0.000000 0.000000
0.851224 0.000000 0.000000
0.851224 0.000000 0.000000
0.851224 0.000000 0.000000
0.851225 0.000000 0.000000
0.851225 0.000000 0.000000
0.851225 0.000000 0.000000
0.851225 0.000000 0.000000
0.851225 0.000000 0.000000
0.851223 0.000000 0.000000
0.851223 0.000000 0.000000
0.000000 0.000000 0.000000
0.000000 0.000000 0.000000
0.000000 0.000000 0.000000
0.000000 0.000000 0.000000
0.000000 0.000000 0.000000
0.000000 0.000000 0.000000
0.000000 0.000000 0.000000
0.000000 0.000000 0.000000
0.002701 0.000000 0.000000
0.006853 0.000000 0.000000
0.026681 0.000000 0.000000
0.053514 0.000000 0.000000
0.091191 0.000000 0.000000
0.145150 0.000000 0.000000
0.226174 0.000000 0.000000
0.350759 0.000000 0.000000
0.512565 0.000000 0.000000
0.697955 0.000000 0.000000
0.851225 0.000000 0.000000
0.851225 0.000000 0.000000
0.851225 0.000000 0.000000
0.851225 0.000000 0.000000
0.851224 0.000000 0.000000
0.851224 0.000000 0.000000
0.851224 0.000000 0.000000
0.851225 0.000000 0.000000
0.851225 0.000000 0.000000
0.851225 0.000000 0.000000
0.851225 0.000000 0.000000
0.851225 0.000000 0.000000
0.851223 0.000000 0.000000
0.851223 0.000000 0.000000
0.000000 0.000000 0.000000
0.000000 0.000000 0.000000
0.000000 0.000000 0.000000
0.000000 0.000000 0.000000
0.000000 0.000000 0.000000
0.000000 0.000000 0.000000
0.000000 0.000000 0.000000
0.000000 0.000000 0.000000
0.002701 0.000000 0.000000
0.006853 0.000000 0.000000
0.026681 0.000000 0.000000
0.053514 0.000000 0.000000
0.091191 0.000000 0.000000
0.145150 0.000000 0.000000
0.226174 0.000000 0.000000
0.350759 0.000000 0.000000
0.512565 0.000000 0.000000
0.697955 0.000000 0.000000
0.851225 0.000000 0.000000
0.851225 0.000000 0.000000
0.851225 0.000000 0.000000
0.851225 0.000000 0.000000
0.851224 0.000000 0.000000
0.851224 0.000000 0.000000
0.851224 0.000000 0.000000
0.851225 0.000000 0.000000
0.851225 0.000000 0.000000
0.851225 0.000000 0.000000
0.851225 0.000000 0.000000
0.851225 0.000000 0.000000
0.851223 0.000000 0.000000
0.851223 0.000000 0.000000
0.000000 0.000000 0.000000
0.000000 0.000000 0.000000
0.000000 0.000000 0.000000
0.000000 0.000000 0.000000
0.000000 0.000000 0.000000
0.000000 0.000000 0.000000
0.000000 0.000000 0.000000
0.000000 0.000000 0.000000
0.002791 0.000000 0.000000
0.006944 0.000000 0.000000
0.026777 0.000000 0.000000
0.053618 0.000000 0.000000
0.091307 0.000000 0.000000
0.145276 0.000000 0.000000
0.226310 0.000000 0.000000
0.350881 0.000000 0.000000
0.512628 0.000009 0.000000
0.697963 0.000381 0.000000
0.851225 0.000712 0.000000
0.851225 0.000712 0.000000
0.851225 0.000712 0.000000
0.851225 0.000712 0.000000
0.851225 0.000712 0.000000
0.851225 0.000712 0.000000
0.851225 0.000712 0.000000
0.851226 0.000712 0.000000
0.851226 0.000712 0.000000
0.851225 0.000712 0.000000
0.851225 0.000712 0.000000
0.851225 0.000712 0.000000
0.851227 0.000712 0.000000
0.851227 0.000712 0.000000
0.000000 0.000000 0.000000
0.000000 0.000000 0.000000
0.000000 0.000000 0.000000
0.000000 0.000000 0.000000
0.000000 0.000000 0.000000
0.000000 0.000000 0.000000
0.000000 0.000000 0.000000
0.000000 0.000000 0.000000
0.003307 0.000000 0.000000
0.007460 0.000000 0.000000
0.027330 0.000000 0.000000
0.054214 0.000000 0.000000
0.091973 0.000000 0.000000
0.146001 0.000000 0.000000
0.227094 0.000000 0.000000
0.351585 0.000000 0.000000
0.512991 0.000063 0.000000
0.698011 0.002573 0.000000
0.851231 0.004806 0.000000
0.851231 0.004806 0.000000
0.851231 0.004806 0.000000
0.851231 0.004806 0.000000
0.851231 0.004806 0.000000
0.851231 0.004806 0.000000
0.851231 0.004806 0.000000
0.851231 0.004806 0.000000
0.851231 0.004806 0.000000
0.851231 0.004806 0.000000
0.851231 0.004806 0.000000
0.851231 0.004806 0.000000
0.851231 0.004806 0.000000
0.851231 0.004806 0.000000
0.000000 0.000000 0.000000
0.000000 0.000000 0.000000
0.000000 0.000000 0.000000
0.000000 0.000000 0.000000
0.000000 0.000000 0.000000
0.000000 0.000000 0.000000
0.000000 0.000000 0.000000
0.000000 0.000000 0.000000
0.003886 0.000000 0.000000
0.008062 0.000000 0.000000
0.027977 0.000000 0.000000
0.054911 0.000000 0.000000
0.092751 0.000000 0.000000
0.146849 0.000000 0.000000
0.228005 0.000000 0.000000
0.352408 0.000000 0.000000
0.513415 0.000126 0.000000
0.698068 0.005135 0.000000
0.851237 0.009590 0.000000
0.851237 0.009590 0.000000
0.851237 0.009590 0.000000
0.851237 0.009590 0.000000
0.851237 0.009590 0.000000
0.851237 0.009590 0.000000
0.851237 0.009590 0.000000
0.851237 0.009590 0.000000
0.851237 0.009590 0.000000
0.851236 0.009590 0.000000
0.851236 0.009590 0.000000
0.851236 0.009590 0.000000
0.851238 0.009590 0.000000
0.851238 0.009590 0.000000
0.000000 0.000000 0.000000
0.000000 0.000000 0.000000
0.000000 0.000000 0.000000
0.000000 0.000000 0.000000
0.000000 0.000000 0.000000
0.000000 0.000000 0.000000
0.000000 0.000000 0.000000
0.000000 0.000000 0.000000
0.003886 0.000000 0.000000
0.008768 0.000000 0.000000
0.028734 0.000000 0.000000
0.055727 0.000000 0.000000
0.093619 0.000000 0.000000
0.147815 0.000000 0.000000
0.229070 0.000000 0.000000
0.353370 0.000000 0.000000
0.513911 0.000199 0.000000
0.698134 0.008133 0.000000
0.851244 0.015189 0.000000
0.851244 0.015189 0.000000
0.851244 0.015189 0.000000
0.851244 0.015189 0.000000
0.851244 0.015189 0.000000
0.851244 0.015189 0.000000
0.851244 0.015189 0.000000
0.851245 0.015189 0.000000
0.851245 0.015189 0.000000
0.851244 0.015189 0.000000
0.851244 0.015189 0.000000
0.851244 0.015189 0.000000
0.851246 0.015189 0.000000
0.851246 0.015189 0.000000
0.000000 0.000000 0.000000
0.000000 0.000000 0.000000
0.000000 0.000000 0.000000
0.000000 0.000000 0.000000
0.000000 0.000000 0.000000
0.000000 0.000000 0.000000
0.000000 0.000000 0.000000
0.000000 0.000000 0.000000
0.003886 0.000000 0.000000
0.009684 0.000000 0.000000
0.029687 0.000000 0.000000
0.056775 0.000000 0.000000
0.094745 0.000000 0.000000
0.149065 0.000000 0.000000
0.230453 0.000000 0.000000
0.354630 0.000000 0.000000
0.514555 0.000295 0.000000
0.698249 0.011696 0.000000
0.851254 0.022459 0.000000
0.851254 0.022459 0.000000
0.851254 0.022459 0.000000
0.851254 0.022459 0.000000
0.851254 0.022459 0.000000
0.851254 0.022459 0.000000
0.851254 0.022459 0.000000
0.851254 0.022459 0.000000
0.851254 0.022459 0.000000
0.851254 0.022459 0.000000
0.851254 0.022459 0.000000
0.851254 0.022459 0.000000
0.851254 0.022459 0.000000
0.851254 0.022459 0.000000
0.000000 0.002467 0.000000
0.000000 0.002467 0.000000
0.000000 0.002467 0.000000
0.000000 0.002478 0.000000
0.000000 0.002543 0.000000
0.000000 0.002615 0.000000
0.000000 0.002615 0.000000
0.000000 0.002615 0.000000
0.005341 0.002812 0.000000
0.011241 0.002818 0.000000
0.031316 0.003133 0.000000
0.058449 0.003442 0.000000
0.096546 0.004095 0.000000
0.150966 0.004774 0.000000
0.232424 0.005723 0.000000
0.356317 0.007265 0.000000
0.515338 0.010190 0.000000
0.698290 0.022228 0.000000
0.851267 0.033678 0.000000
0.851267 0.033678 0.000000
0.851267 0.033678 0.000000
0.851267 0.033678 0.000000
0.851267 0.033678 0.000000
0.851267 0.033678 0.000000
0.851267 0.033678 0.000000
0.851268 0.033678 0.000000
0.851268 0.033678 0.000000
0.851267 0.033678 0.000000
0.851267 0.033678 0.000000
0.851267 0.033678 0.000000
0.851269 0.033678 0.000000
0.851269 0.033678 0.000000
0.000000 0.006268 0.000000
0.000000 0.006268 0.000000
0.000000 0.006268 0.000000
0.000000 0.006280 0.000000
0.000000 0.006344 0.000000
0.000000 0.006420 0.000000
0.000000 0.006508 0.000000
0.000000 0.006622 0.000000
0.005371 0.006832 0.000000
0.013415 0.007127 0.000000
0.033568 0.007777 0.000000
0.060781 0.008619 0.000000
0.098978 0.009798 0.000000
0.153546 0.011519 0.000000
0.235146 0.014036 0.000000
0.358638 0.018062 0.000000
0.516395 0.024910 0.000000
0.698348 0.037414 0.000000
0.851286 0.049226 0.000000
0.851286 0.049226 0.000000
0.851286 0.049226 0.000000
0.851286 0.049226 0.000000
0.851286 0.049226 0.000000
0.851286 0.049226 0.000000
0.851286 0.049226 0.000000
0.851286 0.049226 0.000000
0.851286 0.049226 0.000000
0.851286 0.049226 0.000000
0.851286 0.049226 0.000000
0.851286 0.049226 0.000000
0.851284 0.049226 0.000000
0.851284 0.049226 0.000000
0.000000 0.025571 0.000000
0.000000 0.025571 0.000000
0.000000 0.025571 0.000000
0.000000 0.025584 0.000000
0.000000 0.025659 0.000000
0.000000 0.025747 0.000000
0.000000 0.025850 0.000000
0.000000 0.025975 0.000000
0.007056 0.026161 0.000000
0.016891 0.026430 0.000000
0.036969 0.026905 0.000000
0.064232 0.027746 0.000000
0.102541 0.029038 0.000000
0.157185 0.030852 0.000000
0.238798 0.033531 0.000000
0.361514 0.037815 0.000000
0.517495 0.045163 0.000000
0.698152 0.058312 0.000000
0.851311 0.070754 0.000000
0.851311 0.070754 0.000000
0.851311 0.070754 0.000000
0.851311 0.070754 0.000000
0.851311 0.070754 0.000000
0.851311 0.070754 0.000000
0.851311 0.070754 0.000000
0.851311 0.070754 0.000000
0.851311 0.070754 0.000000
0.851311 0.070754 0.000000
0.851311 0.070754 0.000000
0.851311 0.070754 0.000000
0.851311 0.070754 0.000000
0.851311 0.070754 0.000000
0.000000 0.051674 0.000000
0.000000 0.051674 0.000000
0.000000 0.051674 0.000000
0.000000 0.051687 0.000000
0.000000 0.051763 0.000000
0.000000 0.051851 0.000000
0.000000 0.051953 0.000000
0.000000 0.052087 0.000000
0.008943 0.052287 0.000000
0.021934 0.052560 0.000000
0.041936 0.052961 0.000000
0.069068 0.053700 0.000000
0.107416 0.055054 0.000000
0.162063 0.057029 0.000000
0.243511 0.059999 0.000000
0.364993 0.064825 0.000000
0.518613 0.072873 0.000000
0.697664 0.086892 0.000000
0.851344 0.100257 0.000000
0.851344 0.100257 0.000000
0.851344 0.100257 0.000000
0.851344 0.100257 0.000000
0.851344 0.100257 0.000000
0.851344 0.100257 0.000000
0.851344 0.100257 0.000000
0.851344 0.100257 0.000000
0.851344 0.100257 0.000000
0.851345 0.100257 0.000000
0.851345 0.100257 0.000000
0.851345 0.100257 0.000000
0.851345 0.100257 0.000000
0.851345 0.100257 0.000000
0.000000 0.088217 0.000000
0.000000 0.088217 0.000000
0.000000 0.088217 0.000000
0.000242 0.088234 0.000000
0.001634 0.088331 0.000000
0.003260 0.088444 0.000000
0.003953 0.088562 0.000000
0.004821 0.088715 0.000000
0.014661 0.088953 0.000000
0.029301 0.089267 0.000000
0.049192 0.089755 0.000000
0.076078 0.090421 0.000000
0.114013 0.091784 0.000000
0.168401 0.094000 0.000000
0.249225 0.097446 0.000000
0.368664 0.102993 0.000000
0.519044 0.112256 0.000000
0.696570 0.127876 0.000000
0.851451 0.142453 0.000000
0.851451 0.142453 0.000000
0.851451 0.142453 0.000000
0.851451 0.142453 0.000000
0.851451 0.142453 0.000000
0.851451 0.142453 0.000000
0.851451 0.142453 0.000000
0.851451 0.142453 0.000000
0.851451 0.142453 0.000000
0.851450 0.142453 0.000000
0.851452 0.142453 0.000000
0.851452 0.142453 0.000000
0.851452 0.142453 0.000000
0.851452 0.142453 0.000000
0.000000 0.140707 0.000000
0.000000 0.140707 0.000000
0.000000 0.140707 0.000000
0.000551 0.140730 0.000000
0.003721 0.140859 0.000000
0.007426 0.141009 0.000000
0.010724 0.141160 0.000000
0.014798 0.141351 0.000000
0.024840 0.141680 0.000000
0.039273 0.142090 0.000000
0.058957 0.142732 0.000000
0.085460 0.143613 0.000000
0.122566 0.144986 0.000000
0.175838 0.147473 0.000000
0.255098 0.151712 0.000000
0.371137 0.158557 0.000000
0.517444 0.169317 0.000000
0.694615 0.187389 0.000000
0.851543 0.203328 0.000000
0.851543 0.203328 0.000000
0.851543 0.203328 0.000000
0.851543 0.203328 0.000000
0.851543 0.203328 0.000000
0.851543 0.203328 0.000000
0.851543 0.203328 0.000000
0.851543 0.203328 0.000000
0.851543 0.203328 0.000000
0.851543 0.203328 0.000000
0.851543 0.203328 0.000000
0.851543 0.203328 0.000000
0.851543 0.203328 0.000000
0.851543 0.203328 0.000000
0.004779 0.220218 0.000000
0.004779 0.220218 0.000000
0.004779 0.220218 0.000000
0.005477 0.220252 0.000000
0.009494 0.220443 0.000000
0.014247 0.220638 0.000000
0.019809 0.220866 0.000000
0.027031 0.221162 0.000000
0.037100 0.221655 0.000000
0.051061 0.222301 0.000000
0.070039 0.223222 0.000000
0.095718 0.224568 0.000000
0.131548 0.226548 0.000000
0.182445 0.229590 0.000000
0.257505 0.234486 0.000000
0.368098 0.242794 0.000000
0.512023 0.256205 0.000000
0.691618 0.277075 0.000000
0.851731 0.294042 0.000000
0.851731 0.294042 0.000000
0.851731 0.294042 0.000000
0.851731 0.294042 0.000000
0.851731 0.294042 0.000000
0.851731 0.294042 0.000000
0.851731 0.294042 0.000000
0.851730 0.294042 0.000000
0.851730 0.294042 0.000000
0.851730 0.294042 0.000000
0.851730 0.294042 0.000000
0.851730 0.294042 0.000000
0.851730 0.294042 0.000000
0.851730 0.294042 0.000000
0.016192 0.345997 0.000000
0.016192 0.345997 0.000000
0.016192 0.345997 0.000000
0.016844 0.346043 0.000000
0.020594 0.346306 0.000000
0.024977 0.346614 0.000000
0.030105 0.346974 0.000000
0.036787 0.347438 0.000000
0.046109 0.348078 0.000000
0.058937 0.348963 0.000000
0.076389 0.350189 0.000000
0.099921 0.351968 0.000000
0.132808 0.354490 0.000000
0.179637 0.358198 0.000000
0.249361 0.363735 0.000000
0.355284 0.371923 0.000000
0.502379 0.385535 0.000000
0.688971 0.404708 0.000000
0.852011 0.418952 0.009081
0.852011 0.418952 0.009081
0.852011 0.418952 0.009081
0.852011 0.418952 0.009081
0.852011 0.418952 0.009081
0.852011 0.418952 0.009081
0.852011 0.418952 0.009081
0.852012 0.418952 0.009081
0.852012 0.418952 0.009081
0.852011 0.418952 0.009081
0.852011 0.418952 0.009081
0.852011 0.418952 0.009081
0.852013 0.418952 0.009081
0.852013 0.418952 0.009081
0.008131 0.514118 0.000000
0.008131 0.514118 0.000000
0.008131 0.514118 0.000000
0.008713 0.514159 0.000000
0.012060 0.514398 0.000000
0.015972 0.514678 0.000000
0.020549 0.515005 0.000000
0.026493 0.515429 0.000000
0.034881 0.516007 0.000000
0.046421 0.516803 0.000000
0.062348 0.517928 0.000000
0.084109 0.519463 0.000000
0.115027 0.521593 0.000000
0.160041 0.524549 0.000000
0.228778 0.528642 0.000000
0.338446 0.534153 0.000000
0.497164 0.541479 0.001692
0.689913 0.552090 0.017130
0.852442 0.559387 0.030026
0.852442 0.559387 0.030026
0.852442 0.559387 0.030026
0.852442 0.559387 0.030026
0.852442 0.559387 0.030026
0.852442 0.559387 0.030026
0.852442 0.559387 0.030026
0.852442 0.559387 0.030026
0.852442 0.559387 0.030026
0.852442 0.559387 0.030026
0.852442 0.559387 0.030026
0.852442 0.559387 0.030026
0.852444 0.559387 0.030026
0.852444 0.559387 0.030026
0.000000 0.704596 0.000000
0.000000 0.704596 0.000000
0.000000 0.704596 0.000000
0.000000 0.704626 0.000000
0.000000 0.704804 0.000000
0.000000 0.705011 0.000000
0.000000 0.705253 0.000000
0.000064 0.705568 0.000000
0.008206 0.705849 0.000000
0.020399 0.706236 0.000000
0.038755 0.706812 0.000000
0.063387 0.707557 0.001080
0.098534 0.708542 0.003406
0.148628 0.709823 0.007308
0.224052 0.711547 0.013079
0.346430 0.713462 0.020577
0.512265 0.716027 0.032137
0.702241 0.719621 0.050559
0.853178 0.724095 0.066849
0.853178 0.724095 0.066849
0.853178 0.724095 0.066849
0.853178 0.724095 0.066849
0.853179 0.724095 0.066849
0.853179 0.724095 0.066849
0.853179 0.724095 0.066849
0.853178 0.724095 0.066849
0.853178 0.724095 0.066849
0.853178 0.724095 0.066849
0.853178 0.724095 0.066849
0.853178 0.724095 0.066849
0.853180 0.724095 0.066849
0.853180 0.724095 0.066849
0.000000 0.851347 0.014038
0.000000 0.851347 0.014038
0.000000 0.851347 0.014038
0.000000 0.851362 0.014108
0.000000 0.851448 0.014511
0.000000 0.851548 0.014982
0.000000 0.851665 0.015533
0.000000 0.851818 0.016249
0.009708 0.851971 0.017191
0.024190 0.852171 0.018477
0.044343 0.852221 0.020077
0.071639 0.852260 0.022302
0.110685 0.852349 0.025583
0.167184 0.852428 0.030261
0.252924 0.852555 0.037135
0.381584 0.852748 0.047223
0.539102 0.853055 0.061536
0.716857 0.853446 0.081221
0.853697 0.853697 0.095338
0.853697 0.853697 0.095338
0.853697 0.853697 0.095338
0.853697 0.853697 0.095338
0.853697 0.853697 0.095338
0.853696 0.853697 0.095338
0.853696 0.853697 0.095338
0.853697 0.853697 0.095338
0.853697 0.853697 0.095338
0.853697 0.853697 0.095338
0.853697 0.853697 0.095338
0.853697 0.853697 0.095338
0.853695 0.853697 0.095338
0.853695 0.853697 0.095338
0.000000 0.851347 0.014038
0.000000 0.851347 0.014038
0.000000 0.851347 0.014038
0.000000 0.851362 0.014108
0.000000 0.851448 0.014511
0.000000 0.851548 0.014982
0.000000 0.851665 0.015533
0.000000 0.851818 0.016249
0.009708 0.851971 0.017191
0.024190 0.852171 0.018477
0.044343 0.852221 0.020077
0.071639 0.852260 0.022302
0.110685 0.852349 0.025583
0.167184 0.852428 0.030261
0.252924 0.852555 0.037135
0.381584 0.852748 0.047223
0.539102 0.853055 0.061536
0.716857 0.853446 0.081221
0.853697 0.853697 0.095338
0.853697 0.853697 0.095338
0.853697 0.853697 0.095338
0.853697 0.853697 0.095338
0.853697 0.853697 0.095338
0.853696 0.853697 0.095338
0.853696 0.853697 0.095338
0.853697 0.853697 0.095338
0.853697 0.853697 0.095338
0.853697 0.853697 0.095338
0.853697 0.853697 0.095338
0.853697 0.853697 0.095338
0.853695 0.853697 0.095338
0.853695 0.853697 0.095338
0.000000 0.851347 0.014038
0.000000 0.851347 0.014038
0.000000 0.851347 0.014038
0.000000 0.851362 0.014108
0.000000 0.851448 0.014511
0.000000 0.851548 0.014982
0.000000 0.851665 0.015533
0.000000 0.851818 0.016249
0.009708 0.851971 0.017191
0.024190 0.852171 0.018477
0.044343 0.852221 0.020077
0.071639 0.852260 0.022302
0.110685 0.852349 0.025583
0.167184 0.852428 0.030261
0.252924 0.852555 0.037135
0.381584 0.852748 0.047223
0.539102 0.853055 0.061536
0.716857 0.853446 0.081221
0.853697 0.853697 0.095338
0.853697 0.853697 0.095338
0.853697 0.853697 0.095338
0.853697 0.853697 0.095338
0.853697 0.853697 0.095338
0.853696 0.853697 0.095338
0.853696 0.853697 0.095338
0.853697 0.853697 0.095338
0.853697 0.853697 0.095338
0.853697 0.853697 0.095338
0.853697 0.853697 0.095338
0.853697 0.853697 0.095338
0.853695 0.853697 0.095338
0.853695 0.853697 0.095338
0.000000 0.851347 0.014038
0.000000 0.851347 0.014038
0.000000 0.851347 0.014038
0.000000 0.851362 0.014108
0.000000 0.851448 0.014511
0.000000 0.851548 0.014982
0.000000 0.851665 0.015533
0.000000 0.851818 0.016249
0.009708 0.851971 0.017191
0.024190 0.852171 0.018477
0.044343 0.852221 0.020077
0.071639 0.852260 0.022302
0.110685 0.852349 0.025583
0.167184 0.852428 0.030261
0.252924 0.852555 0.037135
0.381584 0.852748 0.047223
0.539102 0.853055 0.061536
0.716857 0.853446 0.081221
0.853697 0.853697 0.095338
0.853697 0.853697 0.095338
0.853697 0.853697 0.095338
0.853697 0.853697 0.095338
0.853697 0.853697 0.095338
0.853696 0.853697 0.095338
0.853696 0.853697 0.095338
0.853697 0.853697 0.095338
0.853697 0.853697 0.095338
0.853697 0.853697 0.095338
0.853697 0.853697 0.095338
0.853697 0.853697 0.095338
0.853695 0.853697 0.095338
0.853695 0.853697 0.095338
0.000000 0.851346 0.014038
0.000000 0.851346 0.014038
0.000000 0.851346 0.014038
0.000000 0.851362 0.014108
0.000000 0.851448 0.014511
0.000000 0.851548 0.014982
0.000000 0.851665 0.015533
0.000000 0.851818 0.016249
0.009708 0.851971 0.017191
0.024190 0.852171 0.018477
0.044343 0.852221 0.020077
0.071639 0.852260 0.022302
0.110685 0.852349 0.025583
0.167184 0.852428 0.030261
0.252924 0.852555 0.037135
0.381584 0.852748 0.047223
0.539102 0.853055 0.061536
0.716857 0.853446 0.081221
0.853697 0.853697 0.095338
0.853697 0.853697 0.095338
0.853697 0.853697 0.095338
0.853697 0.853697 0.095338
0.853697 0.853697 0.095338
0.853696 0.853697 0.095338
0.853696 0.853697 0.095338
0.853697 0.853697 0.095338
0.853697 0.853697 0.095338
0.853697 0.853697 0.095338
0.853697 0.853697 0.095338
0.853697 0.853697 0.095338
0.853695 0.853697 0.095338
0.853695 0.853697 0.095338
0.000000 0.851346 0.014038
0.000000 0.851346 0.014038
0.000000 0.851346 0.014038
0.000000 0.851362 0.014108
0.000000 0.851448 0.014511
0.000000 0.851548 0.014982
0.000000 0.851665 0.015533
0.000000 0.851818 0.016249
0.009708 0.851971 0.017191
0.024190 0.852171 0.018477
0.044343 0.852221 0.020077
0.071639 0.852260 0.022302
0.110685 0.852349 0.025583
0.167184 0.852428 0.030261
0.252924 0.852555 0.037135
0.381584 0.852748 0.047223
0.539102 0.853055 0.061536
0.716857 0.853446 0.081221
0.853697 0.853696 0.095338
0.853697 0.853696 0.095338
0.853697 0.853696 0.095338
0.853697 0.853696 0.095338
0.853697 0.853696 0.095338
0.853696 0.853696 0.095338
0.853696 0.853696 0.095338
0.853697 0.853696 0.095338
0.853697 0.853696 0.095338
0.853697 0.853696 0.095338
0.853697 0.853696 0.095338
0.853697 0.853696 0.095338
0.853695 0.853696 0.095338
0.853695 0.853696 0.095338
0.000000 0.851346 0.014038
0.000000 0.851346 0.014038
0.000000 0.851346 0.014038
0.000000 0.851362 0.014108
0.000000 0.851448 0.014511
0.000000 0.851548 0.014982
0.000000 0.851665 0.015533
0.000000 0.851818 0.016249
0.009708 0.851971 0.017191
0.024190 0.852171 0.018477
0.044343 0.852221 0.020077
0.071639 0.852260 0.022302
0.110685 0.852349 0.025583
0.167184 0.852428 0.030261
0.252924 0.852555 0.037135
0.381584 0.852748 0.047223
0.539102 0.853055 0.061536
0.716857 0.853446 0.081221
0.853697 0.853696 0.095338
0.853697 0.853696 0.095338
0.853697 0.853696 0.095338
0.853697 0.853696 0.095338
0.853697 0.853696 0.095338
0.853696 0.853696 0.095338
0.853696 0.853696 0.095338
0.853697 0.853696 0.095338
0.853697 0.853696 0.095338
0.853697 0.853696 0.095338
0.853697 0.853696 0.095338
0.853697 0.853696 0.095338
0.853695 0.853696 0.095338
0.853695 0.853696 0.095338
0.000000 0.851347 0.014038
0.000000 0.851347 0.014038
0.000000 0.851347 0.014038
0.000000 0.851361 0.014108
0.000000 0.851447 0.014511
0.000000 0.851548 0.014982
0.000000 0.851665 0.015533
0.000000 0.851818 0.016249
0.009708 0.851971 0.017191
0.024190 0.852171 0.018477
0.044343 0.852221 0.020077
0.071639 0.852260 0.022302
0.110685 0.852348 0.025583
0.167184 0.852428 0.030261
0.252924 0.852554 0.037135
0.381584 0.852748 0.047223
0.539102 0.853055 0.061536
0.716857 0.853446 0.081221
0.853697 0.853697 0.095338
0.853697 0.853697 0.095338
0.853697 0.853697 0.095338
0.853697 0.853697 0.095338
0.853697 0.853697 0.095338
0.853696 0.853697 0.095338
0.853696 0.853697 0.095338
0.853697 0.853697 0.095338
0.853697 0.853697 0.095338
0.853697 0.853697 0.095338
0.853697 0.853697 0.095338
0.853697 0.853697 0.095338
0.853695 0.853697 0.095338
0.853695 0.853697 0.095338
0.000000 0.851347 0.014038
0.000000 0.851347 0.014038
0.000000 0.851347 0.014038
0.000000 0.851361 0.014108
0.000000 0.851447 0.014511
0.000000 0.851548 0.014982
0.000000 0.851665 0.015533
0.000000 0.851818 0.016249
0.009708 0.851971 0.017191
0.024190 0.852171 0.018477
0.044343 0.852221 0.020077
0.071639 0.852260 0.022302
0.110685 0.852348 0.025583
0.167184 0.852428 0.030261
0.252924 0.852554 0.037135
0.381584 0.852748 0.047223
0.539102 0.853055 0.061536
0.716857 0.853446 0.081221
0.853697 0.853697 0.095338
0.853697 0.853697 0.095338
0.853697 0.853697 0.095338
0.853697 0.853697 0.095338
0.853697 0.853697 0.095338
0.853696 0.853697 0.095338
0.853696 0.853697 0.095338
0.853697 0.853697 0.095338
0.853697 0.853697 0.095338
0.853697 0.853697 0.095338
0.853697 0.853697 0.095338
0.853697 0.853697 0.095338
0.853695 0.853697 0.095338
0.853695 0.853697 0.095338
0.000000 0.851347 0.014038
0.000000 0.851347 0.014038
0.000000 0.851347 0.014038
0.000000 0.851362 0.014108
0.000000 0.851448 0.014511
0.000000 0.851547 0.014982
0.000000 0.851665 0.015533
0.000000 0.851818 0.016249
0.009708 0.851971 0.017191
0.024190 0.852171 0.018477
0.044343 0.852221 0.020077
0.071639 0.852261 0.022302
0.110685 0.852348 0.025583
0.167184 0.852428 0.030261
0.252924 0.852554 0.037135
0.381584 0.852749 0.047223
0.539102 0.853054 0.061536
0.716857 0.853447 0.081221
