Assets/Art/Materials/LUT/Django.CUBE
#Created by: Adobe Photoshop Export Color Lookup Plugin
TITLE "Frame.exr"
#LUT size
LUT_3D_SIZE 8
#data domain
#LUT data points
DOMAIN_MIN 0.000000 0.000000 0.000000
DOMAIN_MAX 0.903226 0.903226 0.903226
0.000000 0.000000 0.000000
0.000000 0.000000 0.000000
0.002701 0.000000 0.000000
0.091191 0.000000 0.000000
0.512565 0.000000 0.000000
0.851225 0.000000 0.000000
0.851224 0.000000 0.000000
0.851225 0.000000 0.000000
0.000000 0.000000 0.000000
0.000000 0.000000 0.000000
0.003307 0.000000 0.000000
0.091973 0.000000 0.000000
0.512991 0.000063 0.000000
0.851231 0.004806 0.000000
0.851231 0.004806 0.000000
0.851231 0.004806 0.000000
0.000000 0.002467 0.000000
0.000000 0.002543 0.000000
0.005341 0.002812 0.000000
0.096546 0.004095 0.000000
0.515338 0.010190 0.000000
0.851267 0.033678 0.000000
0.851267 0.033678 0.000000
0.851267 0.033678 0.000000
0.000000 0.088217 0.000000
0.001634 0.088331 0.000000
0.014661 0.088953 0.000000
0.114013 0.091784 0.000000
0.519044 0.112256 0.000000
0.851451 0.142453 0.000000
0.851451 0.142453 0.000000
0.851452 0.142453 0.000000
0.008131 0.514118 0.000000
0.012060 0.514398 0.000000
0.034881 0.516007 0.000000
0.115027 0.521593 0.000000
0.497164 0.541479 0.001692
0.852442 0.559387 0.030026
0.852442 0.559387 0.030026
0.852442 0.559387 0.030026
0.000000 0.851347 0.014038
0.000000 0.851448 0.014511
0.009708 0.851971 0.017191
0.110685 0.852349 0.025583
0.539102 0.853055 0.061536
0.853697 0.853697 0.095338
0.853696 0.853697 0.095338
0.853697 0.853697 0.095338
0.000000 0.851346 0.014038
0.000000 0.851448 0.014511
0.009708 0.851971 0.017191
0.110685 0.852349 0.025583
0.539102 0.853055 0.061536
0.853697 0.853696 0.095338
0.853696 0.853696 0.095338
0.853697 0.853696 0.095338
0.000000 0.851347 0.014038
0.000000 0.851448 0.014511
0.009708 0.851971 0.017191
0.110685 0.852348 0.025583
0.539102 0.853054 0.061536
0.853697 0.853697 0.095338
0.853696 0.853697 0.095338
0.853697 0.853697 0.095338
0.000000 0.000000 0.000000
0.000000 0.000000 0.000000
0.002809 0.000000 0.000000
0.091330 0.000000 0.000000
0.512688 0.000000 0.000000
0.851319 0.000000 0.000000
0.851319 0.000000 0.000000
0.851318 0.000000 0.000000
0.000000 0.000000 0.000000
0.000000 0.000000 0.000000
0.003509 0.000000 0.000000
0.092194 0.000000 0.000000
0.513143 0.000221 0.000000
0.851326 0.005014 0.000000
0.851326 0.005014 0.000000
0.851326 0.005014 0.000000
0.000000 0.002505 0.000000
0.000000 0.002644 0.000000
0.005556 0.002920 0.000000
0.096779 0.004203 0.000000
0.515483 0.010354 0.000000
0.851362 0.033905 0.000000
0.851362 0.033905 0.000000
0.851362 0.033905 0.000000
0.000000 0.088325 0.000000
0.001892 0.088445 0.000000
0.014919 0.089079 0.000000
0.114240 0.091922 0.000000
0.519107 0.112483 0.000000
0.851546 0.142749 0.001179
0.851545 0.142749 0.001179
0.851545 0.142749 0.001179
0.008036 0.514313 0.000000
0.011953 0.514575 0.000000
0.034774 0.516190 0.000000
0.114920 0.521789 0.000612
0.497262 0.541668 0.006321
0.852530 0.559564 0.034574
0.852530 0.559564 0.034574
0.852530 0.559564 0.034574
0.000000 0.851347 0.018548
0.000082 0.851448 0.019009
0.009897 0.852002 0.021694
0.110956 0.852437 0.030112
0.539386 0.853143 0.066021
0.853785 0.853785 0.099716
0.853785 0.853785 0.099716
0.853785 0.853785 0.099716
0.000000 0.851346 0.018548
0.000082 0.851448 0.019009
0.009897 0.852002 0.021694
0.110956 0.852437 0.030112
0.539386 0.853143 0.066021
0.853785 0.853785 0.099716
0.853785 0.853785 0.099716
0.853785 0.853785 0.099716
0.000000 0.851347 0.018548
0.000082 0.851448 0.019009
0.009897 0.852001 0.021694
0.110956 0.852436 0.030112
0.539386 0.853144 0.066021
0.853785 0.853785 0.099716
0.853785 0.853785 0.099716
0.853785 0.853785 0.099716
0.000000 0.000000 0.001826
0.000000 0.000000 0.001826
0.003121 0.000000 0.001863
0.092128 0.000000 0.002405
0.513330 0.000000 0.004157
0.851732 0.000000 0.006550
0.851732 0.000000 0.006550
0.851732 0.000000 0.006550
0.000000 0.000000 0.001838
0.000000 0.000000 0.001901
0.003840 0.000000 0.001932
0.093024 0.000000 0.002487
0.513819 0.000347 0.004239
0.851807 0.005241 0.006935
0.851808 0.005241 0.006935
0.851807 0.005241 0.006935
0.000000 0.002615 0.001875
0.000000 0.002766 0.001951
0.006180 0.003207 0.002134
0.098102 0.004490 0.002689
0.516315 0.011252 0.004367
0.851923 0.035191 0.008030
0.851923 0.035191 0.008030
0.851923 0.035191 0.008030
0.000000 0.088812 0.002516
0.002132 0.088988 0.002573
0.016351 0.089732 0.002640
0.115604 0.092631 0.002775
0.519522 0.113600 0.005156
0.852088 0.144287 0.013505
0.852088 0.144287 0.013505
0.852089 0.144287 0.013505
0.007417 0.515323 0.007500
0.011346 0.515647 0.007758
0.034108 0.517259 0.008450
0.114267 0.522899 0.011389
0.497800 0.542741 0.033072
0.853042 0.560514 0.061024
0.853042 0.560514 0.061024
0.853043 0.560514 0.061024
0.000000 0.851347 0.044826
0.000227 0.851448 0.045249
0.010623 0.852032 0.047856
0.112608 0.852949 0.056590
0.540987 0.853654 0.092179
0.854272 0.854272 0.125362
0.854272 0.854272 0.125362
0.854271 0.854272 0.125362
0.000000 0.851346 0.044826
0.000227 0.851448 0.045249
0.010623 0.852032 0.047856
0.112608 0.852949 0.056590
0.540987 0.853654 0.092179
0.854272 0.854272 0.125362
0.854272 0.854272 0.125362
0.854271 0.854272 0.125362
0.000000 0.851347 0.044826
0.000227 0.851448 0.045249
0.010623 0.852032 0.047856
0.112608 0.852949 0.056590
0.540987 0.853653 0.092179
0.854272 0.854271 0.125362
0.854272 0.854271 0.125362
0.854271 0.854271 0.125362
0.000000 0.000000 0.083960
0.000000 0.000000 0.083960
0.004539 0.000000 0.083972
0.094948 0.000000 0.084151
0.514867 0.000000 0.088915
0.851865 0.002175 0.095900
0.851865 0.002175 0.095900
0.851866 0.002175 0.095900
0.000000 0.000000 0.083979
0.000000 0.000000 0.084035
0.005347 0.000000 0.084041
0.095887 0.000000 0.084226
0.515315 0.000732 0.088997
0.851979 0.007580 0.096341
0.851979 0.007580 0.096341
0.851978 0.007580 0.096341
0.000000 0.003368 0.084058
0.000000 0.003531 0.084134
0.007882 0.003935 0.084474
0.101325 0.004860 0.084725
0.517787 0.013316 0.089483
0.852619 0.038970 0.098829
0.852619 0.038970 0.098829
0.852619 0.038970 0.098829
0.000000 0.089677 0.084407
0.002901 0.089879 0.084483
0.020287 0.091020 0.084922
0.120153 0.095207 0.086244
0.520713 0.117605 0.092522
0.853961 0.149684 0.107987
0.853961 0.149684 0.107987
0.853962 0.149684 0.107987
0.003962 0.517309 0.097855
0.007904 0.517663 0.098126
0.030864 0.519696 0.099780
0.112185 0.526603 0.105499
0.499448 0.546250 0.126942
0.854801 0.563493 0.155043
0.854801 0.563493 0.155043
0.854801 0.563493 0.155043
0.000000 0.851377 0.137013
0.000902 0.851484 0.137486
0.013914 0.852106 0.140107
0.118229 0.854139 0.150038
0.546412 0.855351 0.186429
0.855876 0.855876 0.219054
0.855876 0.855876 0.219054
0.855877 0.855876 0.219054
0.000000 0.851377 0.137013
0.000902 0.851484 0.137486
0.013914 0.852106 0.140107
0.118229 0.854139 0.150038
0.546412 0.855351 0.186429
0.855876 0.855876 0.219054
0.855876 0.855876 0.219054
0.855877 0.855876 0.219054
0.000000 0.851377 0.137013
0.000902 0.851484 0.137486
0.013914 0.852106 0.140107
0.118229 0.854139 0.150038
0.546412 0.855352 0.186429
0.855876 0.855877 0.219054
0.855876 0.855877 0.219054
0.855877 0.855877 0.219054
0.000000 0.000000 0.491900
0.000114 0.000000 0.491900
0.010341 0.000000 0.491906
0.110086 0.000000 0.491960
0.518669 0.000000 0.492558
0.852109 0.014162 0.501773
0.852109 0.014162 0.501773
0.852108 0.014162 0.501773
0.000000 0.000000 0.491951
0.001123 0.000000 0.491995
0.011344 0.000000 0.491998
0.111077 0.000000 0.492049
0.518893 0.002252 0.492647
0.852222 0.019650 0.502148
0.852222 0.019650 0.502148
0.852222 0.019650 0.502148
0.000000 0.005995 0.492181
0.002151 0.006165 0.492273
0.017203 0.006599 0.492530
0.116829 0.007759 0.492574
0.520013 0.021147 0.493370
0.852868 0.051570 0.504217
0.852868 0.051570 0.504217
0.852867 0.051570 0.504218
0.002592 0.097600 0.492540
0.007481 0.097865 0.492619
0.036016 0.099316 0.493134
0.133560 0.104450 0.494350
0.517501 0.128241 0.498495
0.854980 0.164396 0.511587
0.854980 0.164396 0.511587
0.854980 0.164396 0.511587
0.000000 0.524000 0.500887
0.002056 0.524366 0.501111
0.018076 0.526514 0.502423
0.101426 0.533794 0.507035
0.506254 0.556925 0.525435
0.860702 0.573397 0.543936
0.860702 0.573397 0.543936
0.860703 0.573398 0.543936
0.000000 0.851681 0.527177
0.004005 0.851795 0.527521
0.029751 0.852427 0.529473
0.137899 0.854492 0.536156
0.564272 0.860948 0.559553
0.861162 0.861162 0.572755
0.861163 0.861162 0.572755
0.861162 0.861162 0.572755
0.000000 0.851682 0.527177
0.004005 0.851795 0.527521
0.029751 0.852427 0.529473
0.137899 0.854492 0.536156
0.564272 0.860948 0.559553
0.861162 0.861163 0.572755
0.861163 0.861163 0.572755
0.861162 0.861163 0.572755
0.000000 0.851681 0.527177
0.004005 0.851795 0.527521
0.029751 0.852427 0.529473
0.137899 0.854492 0.536156
0.564273 0.860949 0.559553
0.861162 0.861162 0.572755
0.861163 0.861162 0.572755
0.861162 0.861162 0.572755
0.000000 0.000000 0.851286
0.003053 0.000000 0.851286
0.024553 0.000000 0.851298
0.124311 0.000000 0.851347
0.523947 0.000000 0.851743
0.852323 0.026184 0.852323
0.852323 0.026184 0.852323
0.852324 0.026184 0.852323
0.000000 0.000000 0.851374
0.004106 0.000000 0.851393
0.025600 0.000000 0.851399
0.125225 0.000549 0.851454
0.523916 0.004674 0.851850
0.852437 0.031710 0.852437
0.852437 0.031710 0.852437
0.852436 0.031710 0.852437
0.000284 0.008647 0.851762
0.005304 0.008874 0.851851
0.031586 0.009424 0.852002
0.130382 0.012051 0.852075
0.523412 0.033118 0.852483
0.853095 0.063872 0.853095
0.853095 0.063872 0.853095
0.853094 0.063872 0.853095
0.015586 0.106005 0.852135
0.020304 0.106339 0.852230
0.047890 0.108122 0.852796
0.142336 0.114704 0.854078
0.517040 0.143119 0.854613
0.855195 0.177300 0.855195
0.855195 0.177300 0.855195
0.855194 0.177300 0.855195
0.000000 0.534457 0.851471
0.000643 0.534841 0.851553
0.011533 0.537072 0.852041
0.101381 0.544210 0.853839
0.516744 0.565269 0.860243
0.861254 0.578305 0.861254
0.861254 0.578305 0.861254
0.861254 0.578305 0.861254
0.011933 0.852049 0.852049
0.017332 0.852162 0.852162
0.048738 0.852808 0.852808
0.159365 0.854907 0.854907
0.575570 0.861194 0.861194
0.865721 0.865721 0.865721
0.865721 0.865721 0.865721
0.865721 0.865721 0.865721
0.011933 0.852048 0.852049
0.017332 0.852162 0.852162
0.048738 0.852808 0.852808
0.159365 0.854908 0.854907
0.575570 0.861194 0.861194
0.865721 0.865721 0.865721
0.865721 0.865721 0.865721
0.865721 0.865721 0.865721
0.011933 0.852049 0.852049
0.017332 0.852161 0.852162
0.048738 0.852808 0.852808
0.159365 0.854908 0.854907
0.575570 0.861195 0.861194
0.865721 0.865721 0.865721
0.865721 0.865721 0.865721
0.865721 0.865721 0.865721
0.000000 0.000000 0.851285
0.003053 0.000000 0.851285
0.024553 0.000000 0.851298
0.124311 0.000000 0.851346
0.523947 0.000000 0.851743
0.852323 0.026184 0.852323
0.852323 0.026184 0.852323
0.852324 0.026184 0.852323
0.000000 0.000000 0.851374
0.004106 0.000000 0.851393
0.025600 0.000000 0.851399
0.125225 0.000549 0.851454
0.523916 0.004674 0.851850
0.852437 0.031710 0.852437
0.852437 0.031710 0.852437
0.852436 0.031710 0.852437
0.000284 0.008647 0.851762
0.005304 0.008874 0.851851
0.031586 0.009424 0.852002
0.130382 0.012051 0.852075
0.523412 0.033118 0.852483
0.853095 0.063872 0.853095
0.853095 0.063872 0.853095
0.853094 0.063872 0.853095
0.015586 0.106005 0.852135
0.020304 0.106339 0.852230
0.047890 0.108122 0.852796
0.142336 0.114704 0.854078
0.517040 0.143119 0.854613
0.855195 0.177300 0.855195
0.855195 0.177300 0.855195
0.855194 0.177300 0.855195
0.000000 0.534457 0.851471
0.000643 0.534841 0.851553
0.011533 0.537072 0.852041
0.101381 0.544210 0.853839
0.516744 0.565269 0.860243
0.861254 0.578305 0.861254
0.861254 0.578305 0.861254
0.861254 0.578305 0.861254
0.011933 0.852049 0.852048
0.017332 0.852162 0.852162
0.048738 0.852808 0.852808
0.159365 0.854907 0.854908
0.575570 0.861194 0.861194
0.865721 0.865721 0.865721
0.865721 0.865721 0.865721
0.865721 0.865721 0.865721
0.011933 0.852048 0.852048
0.017332 0.852162 0.852162
0.048738 0.852808 0.852808
0.159365 0.854908 0.854908
0.575570 0.861194 0.861194
0.865721 0.865721 0.865721
0.865721 0.865721 0.865721
0.865721 0.865721 0.865721
0.011933 0.852049 0.852048
0.017332 0.852161 0.852162
0.048738 0.852808 0.852808
0.159365 0.854908 0.854908
0.575570 0.861195 0.861194
0.865721 0.865721 0.865721
0.865721 0.865721 0.865721
0.865721 0.865721 0.865721
0.000000 0.000000 0.851286
0.003053 0.000000 0.851286
0.024553 0.000000 0.851297
0.124311 0.000000 0.851347
0.523947 0.000000 0.851742
0.852323 0.026184 0.852324
0.852323 0.026184 0.852324
0.852324 0.026184 0.852324
0.000000 0.000000 0.851374
0.004106 0.000000 0.851393
0.025600 0.000000 0.851398
0.125225 0.000549 0.851454
0.523916 0.004674 0.851851
0.852437 0.031710 0.852436
0.852437 0.031710 0.852436
0.852436 0.031710 0.852436
0.000284 0.008647 0.851763
0.005304 0.008874 0.851851
0.031586 0.009424 0.852001
0.130382 0.012051 0.852076
0.523412 0.033118 0.852484
0.853095 0.063872 0.853094
0.853095 0.063872 0.853094
0.853094 0.063872 0.853094
0.015586 0.106005 0.852135
0.020304 0.106339 0.852230
0.047890 0.108122 0.852795
0.142336 0.114704 0.854078
0.517040 0.143119 0.854612
0.855195 0.177300 0.855194
0.855195 0.177300 0.855194
0.855194 0.177300 0.855194
0.000000 0.534457 0.851471
0.000643 0.534842 0.851553
0.011533 0.537072 0.852041
0.101381 0.544210 0.853840
0.516744 0.565269 0.860243
0.861254 0.578305 0.861254
0.861254 0.578305 0.861254
0.861254 0.578306 0.861254
0.011933 0.852049 0.852049
0.017332 0.852162 0.852161
0.048738 0.852808 0.852808
0.159365 0.854907 0.854908
0.575570 0.861194 0.861195
0.865721 0.865721 0.865721
0.865721 0.865721 0.865721
0.865721 0.865721 0.865721
0.011933 0.852048 0.852049
0.017332 0.852162 0.852161
0.048738 0.852808 0.852808
0.159365 0.854908 0.854908
0.575570 0.861194 0.861195
0.865721 0.865721 0.865721
0.865721 0.865721 0.865721
0.865721 0.865721 0.865721
0.011933 0.852049 0.852049
0.017332 0.852161 0.852161
0.048738 0.852808 0.852808
0.159365 0.854908 0.854908
0.575570 0.861195 0.861195
0.865721 0.865721 0.865721
0.865721 0.865721 0.865721
0.865721 0.865721 0.865721
