Assets/Art/Materials/LUT/Django.CUBE
#Created by: Adobe Photoshop Export Color Lookup Plugin
TITLE "Frame.exr"
#LUT size
LUT_3D_SIZE 5
#data domain
#LUT data points
DOMAIN_MIN 0.000000 0.000000 0.000000
DOMAIN_MAX 0.903226 0.903226 0.903226
0.000000 0.000000 0.000000
0.000000 0.000000 0.000000
0.226174 0.000000 0.000000
0.851225 0.000000 0.000000
0.851225 0.000000 0.000000
0.000000 0.000000 0.000000
0.000000 0.000000 0.000000
0.230453 0.000000 0.000000
0.851254 0.022459 0.000000
0.851254 0.022459 0.000000
0.004779 0.220218 0.000000
0.027031 0.221162 0.000000
0.257505 0.234486 0.000000
0.851731 0.294042 0.000000
0.851730 0.294042 0.000000
0.000000 0.851347 0.014038
0.000000 0.851818 0.016249
0.252924 0.852555 0.037135
0.853697 0.853697 0.095338
0.853697 0.853697 0.095338
0.000000 0.851347 0.014038
0.000000 0.851818 0.016249
0.252924 0.852554 0.037135
0.853697 0.853697 0.095338
0.853697 0.853697 0.095338
0.000000 0.000000 0.000000
0.000000 0.000000 0.000000
0.227093 0.000000 0.000000
0.851667 0.000000 0.000000
0.851667 0.000000 0.000000
0.000000 0.000000 0.000000
0.000000 0.000000 0.000000
0.231685 0.000000 0.000000
0.851696 0.023432 0.000000
0.851696 0.023432 0.000000
0.005775 0.220943 0.000000
0.028033 0.221952 0.000000
0.257769 0.235453 0.000000
0.852143 0.295386 0.017309
0.852144 0.295386 0.017309
0.000000 0.851347 0.035112
0.000383 0.851818 0.037264
0.254739 0.852991 0.058315
0.854109 0.854109 0.115793
0.854109 0.854109 0.115793
0.000000 0.851347 0.035112
0.000383 0.851818 0.037264
0.254739 0.852991 0.058315
0.854109 0.854109 0.115793
0.854109 0.854109 0.115793
0.000000 0.000000 0.209576
0.000000 0.000000 0.209576
0.234825 0.000000 0.209991
0.851932 0.006161 0.222959
0.851933 0.006161 0.222959
0.000000 0.000000 0.209706
0.000000 0.000000 0.209995
0.239576 0.000000 0.210474
0.852457 0.031567 0.225088
0.852457 0.031567 0.225088
0.011979 0.225236 0.210619
0.033841 0.226881 0.211055
0.258549 0.245761 0.218002
0.856392 0.308918 0.252238
0.856392 0.308918 0.252238
0.000000 0.851475 0.265910
0.008243 0.851952 0.268244
0.273121 0.856697 0.294261
0.857741 0.857741 0.347983
0.857742 0.857741 0.347983
0.000000 0.851475 0.265910
0.008243 0.851952 0.268244
0.273121 0.856697 0.294261
0.857741 0.857742 0.347983
0.857742 0.857742 0.347983
0.000000 0.000000 0.851286
0.014265 0.000000 0.851286
0.259314 0.000000 0.851469
0.852323 0.026184 0.852323
0.852324 0.026184 0.852323
0.000000 0.000000 0.851698
0.019188 0.000000 0.851787
0.262690 0.007313 0.851952
0.852854 0.052004 0.852854
0.852854 0.052004 0.852854
0.021738 0.245688 0.852256
0.041348 0.247840 0.852663
0.251727 0.272500 0.856387
0.857503 0.329521 0.857503
0.857504 0.329521 0.857503
0.011933 0.852049 0.852049
0.037162 0.852579 0.852579
0.312916 0.857265 0.857265
0.865721 0.865721 0.865721
0.865721 0.865721 0.865721
0.011933 0.852049 0.852049
0.037162 0.852579 0.852579
0.312916 0.857265 0.857265
0.865721 0.865721 0.865721
0.865721 0.865721 0.865721
0.000000 0.000000 0.851286
0.014265 0.000000 0.851286
0.259314 0.000000 0.851469
0.852323 0.026184 0.852324
0.852324 0.026184 0.852324
0.000000 0.000000 0.851698
0.019188 0.000000 0.851786
0.262690 0.007313 0.851952
0.852854 0.052004 0.852854
0.852854 0.052004 0.852854
0.021738 0.245688 0.852257
0.041348 0.247840 0.852663
0.251727 0.272500 0.856386
0.857503 0.329521 0.857504
0.857504 0.329521 0.857504
0.011933 0.852049 0.852049
0.037162 0.852579 0.852579
0.312916 0.857265 0.857265
0.865721 0.865721 0.865721
0.865721 0.865721 0.865721
0.011933 0.852049 0.852049
0.037162 0.852579 0.852579
0.312916 0.857265 0.857265
0.865721 0.865721 0.865721
0.865721 0.865721 0.865721
