Assets/Art/Materials/LUT/FallColours.CUBE
#Created by: Adobe Photoshop Export Color Lookup Plugin
TITLE "Frame.exr"
#LUT size
LUT_3D_SIZE 5
#data domain
#LUT data points
DOMAIN_MIN 0.000000 0.000000 0.000000
DOMAIN_MAX 0.903226 0.903226 0.903226
0.010823 0.006171 0.003342
0.028640 0.005351 0.002676
0.311538 0.000699 0.000000
1.000000 0.000000 0.000000
1.000000 0.000000 0.000000
0.027311 0.023670 0.014733
0.027085 0.018845 0.002312
0.308075 0.010818 0.000000
1.000000 0.000204 0.000000
1.000000 0.000204 0.000000
0.106006 0.161347 0.069489
0.120164 0.165049 0.072207
0.268157 0.230524 0.000000
1.000000 0.197928 0.000000
1.000000 0.197928 0.000000
0.289200 0.561750 0.194203
0.307600 0.566903 0.197781
0.478111 0.628414 0.217254
1.000000 0.986247 0.000000
1.000000 0.986247 0.000000
0.289200 0.561750 0.194203
0.307600 0.566904 0.197781
0.478111 0.628414 0.217254
1.000000 0.986246 0.000000
1.000000 0.986246 0.000000
0.014850 0.010465 0.018429
0.032662 0.011163 0.014876
0.310915 0.000590 0.007150
1.000000 0.000000 0.000000
1.000000 0.000000 0.000000
0.015907 0.023157 0.018489
0.026629 0.018216 0.012564
0.307454 0.010583 0.006086
1.000000 0.000128 0.000000
1.000000 0.000128 0.000000
0.107315 0.162547 0.076228
0.121518 0.166256 0.079021
0.267729 0.229984 0.000026
1.000000 0.197409 0.000000
1.000000 0.197409 0.000000
0.290905 0.563430 0.203039
0.309344 0.568587 0.206660
0.485612 0.623306 0.233450
1.000000 0.985473 0.000000
1.000000 0.985473 0.000000
0.290905 0.563430 0.203039
0.309344 0.568586 0.206660
0.485612 0.623305 0.233450
1.000000 0.985473 0.000000
1.000000 0.985473 0.000000
0.019802 0.015987 0.217636
0.035450 0.015978 0.217619
0.276975 0.024675 0.159627
1.000000 0.000000 0.192444
1.000000 0.000000 0.192444
0.019780 0.029706 0.217585
0.035429 0.029691 0.217568
0.279681 0.038676 0.161345
1.000000 0.000573 0.187173
1.000000 0.000573 0.187173
0.019579 0.232354 0.217278
0.035199 0.232337 0.217253
0.266481 0.223893 0.189867
1.000000 0.192241 0.159432
1.000000 0.192241 0.159432
0.308156 0.580335 0.296915
0.326877 0.585533 0.300925
0.510969 0.633833 0.338289
1.000000 0.978064 0.115436
1.000000 0.978064 0.115436
0.308156 0.580335 0.296915
0.326877 0.585532 0.300925
0.510969 0.633834 0.338289
1.000000 0.978063 0.115436
1.000000 0.978063 0.115436
0.019707 0.015915 0.932197
0.035355 0.015906 0.932147
0.250604 0.015819 0.931774
1.000000 0.044511 0.670277
1.000000 0.044511 0.670277
0.019690 0.029616 0.932110
0.035324 0.029606 0.932060
0.250551 0.029502 0.931837
1.000000 0.060586 0.672806
1.000000 0.060586 0.672806
0.019494 0.232190 0.931675
0.035104 0.232190 0.931637
0.250162 0.232008 0.931225
1.000000 0.264557 0.697395
1.000000 0.264557 0.697395
0.019059 0.933535 0.930592
0.034594 0.933497 0.930555
0.249404 0.933112 0.930170
1.000000 0.964555 0.889001
1.000000 0.964555 0.889001
0.019059 0.933535 0.930592
0.034594 0.933497 0.930555
0.249404 0.933112 0.930170
1.000000 0.964554 0.889001
1.000000 0.964554 0.889001
0.019707 0.015915 0.932197
0.035355 0.015906 0.932148
0.250604 0.015819 0.931774
1.000000 0.044511 0.670278
1.000000 0.044511 0.670278
0.019690 0.029616 0.932110
0.035324 0.029606 0.932058
0.250551 0.029502 0.931838
1.000000 0.060586 0.672805
1.000000 0.060586 0.672805
0.019494 0.232190 0.931674
0.035104 0.232190 0.931638
0.250162 0.232008 0.931225
1.000000 0.264557 0.697395
1.000000 0.264557 0.697395
0.019059 0.933535 0.930592
0.034594 0.933497 0.930554
0.249404 0.933112 0.930169
1.000000 0.964555 0.889002
1.000000 0.964555 0.889002
0.019059 0.933535 0.930592
0.034594 0.933497 0.930554
0.249404 0.933112 0.930169
1.000000 0.964554 0.889002
1.000000 0.964554 0.889002
