Assets/Art/Materials/LUT/FallColours.CUBE
#Created by: Adobe Photoshop Export Color Lookup Plugin
TITLE "Frame.exr"
#LUT size
LUT_3D_SIZE 32
#data domain
DOMAIN_MIN 0.0 0.0 0.0
DOMAIN_MAX 1.0 1.0 1.0
#LUT data points
0.010823 0.006171 0.003342
0.010823 0.006171 0.003342
0.010823 0.006171 0.003342
0.011312 0.006144 0.003320
0.014235 0.005993 0.003196
0.017867 0.005817 0.003052
0.022386 0.005613 0.002887
0.028640 0.005351 0.002676
0.038066 0.004989 0.002387
0.052124 0.004504 0.002005
0.072699 0.004030 0.001651
0.102842 0.003436 0.001222
0.147413 0.002682 0.000706
0.213495 0.001756 0.000159
0.311538 0.000699 0.000000
0.456800 0.000000 0.000000
0.671942 0.000000 0.000000
0.990950 0.000000 0.000000
1.000000 0.000000 0.000000
1.000000 0.000000 0.000000
1.000000 0.000000 0.000000
1.000000 0.000000 0.000000
1.000000 0.000000 0.000000
1.000000 0.000000 0.000000
1.000000 0.000000 0.000000
1.000000 0.000000 0.000000
1.000000 0.000000 0.000000
1.000000 0.000000 0.000000
1.000000 0.000000 0.000000
1.000000 0.000000 0.000000
1.000000 0.000000 0.000000
1.000000 0.000000 0.000000
0.010823 0.006171 0.003342
0.010823 0.006171 0.003342
0.010823 0.006171 0.003342
0.011312 0.006144 0.003320
0.014235 0.005993 0.003196
0.017867 0.005817 0.003052
0.022386 0.005613 0.002887
0.028640 0.005351 0.002676
0.038066 0.004989 0.002387
0.052124 0.004504 0.002005
0.072699 0.004030 0.001651
0.102842 0.003436 0.001222
0.147413 0.002682 0.000706
0.213495 0.001756 0.000159
0.311538 0.000699 0.000000
0.456800 0.000000 0.000000
0.671942 0.000000 0.000000
0.990950 0.000000 0.000000
1.000000 0.000000 0.000000
1.000000 0.000000 0.000000
1.000000 0.000000 0.000000
1.000000 0.000000 0.000000
1.000000 0.000000 0.000000
1.000000 0.000000 0.000000
1.000000 0.000000 0.000000
1.000000 0.000000 0.000000
1.000000 0.000000 0.000000
1.000000 0.000000 0.000000
1.000000 0.000000 0.000000
1.000000 0.000000 0.000000
1.000000 0.000000 0.000000
1.000000 0.000000 0.000000
0.010823 0.006171 0.003342
0.010823 0.006171 0.003342
0.010823 0.006171 0.003342
0.011312 0.006144 0.003320
0.014235 0.005993 0.003196
0.017867 0.005817 0.003052
0.022386 0.005613 0.002887
0.028640 0.005351 0.002676
0.038066 0.004989 0.002387
0.052124 0.004504 0.002005
0.072699 0.004030 0.001651
0.102842 0.003436 0.001222
0.147413 0.002682 0.000706
0.213495 0.001756 0.000159
0.311538 0.000699 0.000000
0.456800 0.000000 0.000000
0.671942 0.000000 0.000000
0.990950 0.000000 0.000000
1.000000 0.000000 0.000000
1.000000 0.000000 0.000000
1.000000 0.000000 0.000000
1.000000 0.000000 0.000000
1.000000 0.000000 0.000000
1.000000 0.000000 0.000000
1.000000 0.000000 0.000000
1.000000 0.000000 0.000000
1.000000 0.000000 0.000000
1.000000 0.000000 0.000000
1.000000 0.000000 0.000000
1.000000 0.000000 0.000000
1.000000 0.000000 0.000000
1.000000 0.000000 0.000000
0.011279 0.006622 0.003628
0.011279 0.006622 0.003628
0.011279 0.006622 0.003628
0.011273 0.006510 0.003308
0.014194 0.006356 0.003184
0.017823 0.006178 0.003040
0.022339 0.005970 0.002875
0.028591 0.005704 0.002664
0.038013 0.005336 0.002375
0.052065 0.004841 0.001994
0.072621 0.004351 0.001634
0.102756 0.003744 0.001206
0.147324 0.002965 0.000687
0.213396 0.002009 0.000147
0.311428 0.000900 0.000000
0.456678 0.000000 0.000000
0.671808 0.000000 0.000000
0.990800 0.000000 0.000000
1.000000 0.000000 0.000000
1.000000 0.000000 0.000000
1.000000 0.000000 0.000000
1.000000 0.000000 0.000000
1.000000 0.000000 0.000000
1.000000 0.000000 0.000000
1.000000 0.000000 0.000000
1.000000 0.000000 0.000000
1.000000 0.000000 0.000000
1.000000 0.000000 0.000000
1.000000 0.000000 0.000000
1.000000 0.000000 0.000000
1.000000 0.000000 0.000000
1.000000 0.000000 0.000000
0.013998 0.009375 0.005393
0.013998 0.009375 0.005393
0.013998 0.009375 0.005393
0.013992 0.009252 0.005034
0.013958 0.008556 0.003113
0.017572 0.008362 0.002971
0.022072 0.008137 0.002806
0.028305 0.007847 0.002597
0.037705 0.007445 0.002310
0.051730 0.006902 0.001932
0.072170 0.006320 0.001539
0.102261 0.005645 0.001119
0.146812 0.004726 0.000584
0.212827 0.003625 0.000083
0.310796 0.002275 0.000000
0.455979 0.000786 0.000000
0.671036 0.000000 0.000000
0.989935 0.000000 0.000000
1.000000 0.000000 0.000000
1.000000 0.000000 0.000000
1.000000 0.000000 0.000000
1.000000 0.000000 0.000000
1.000000 0.000000 0.000000
1.000000 0.000000 0.000000
1.000000 0.000000 0.000000
1.000000 0.000000 0.000000
1.000000 0.000000 0.000000
1.000000 0.000000 0.000000
1.000000 0.000000 0.000000
1.000000 0.000000 0.000000
1.000000 0.000000 0.000000
1.000000 0.000000 0.000000
0.017366 0.012892 0.007671
0.017366 0.012892 0.007671
0.017366 0.012892 0.007671
0.017360 0.012759 0.007277
0.017323 0.011998 0.005121
0.017281 0.011125 0.002890
0.021762 0.010882 0.002727
0.027973 0.010568 0.002519
0.037346 0.010132 0.002235
0.051339 0.009541 0.001860
0.071645 0.008850 0.001429
0.101683 0.008109 0.001019
0.146214 0.007035 0.000470
0.212162 0.005797 0.000022
0.310058 0.004238 0.000000
0.455163 0.002386 0.000000
0.670135 0.000465 0.000000
0.988926 0.000000 0.000000
1.000000 0.000000 0.000000
1.000000 0.000000 0.000000
1.000000 0.000000 0.000000
1.000000 0.000000 0.000000
1.000000 0.000000 0.000000
1.000000 0.000000 0.000000
1.000000 0.000000 0.000000
1.000000 0.000000 0.000000
1.000000 0.000000 0.000000
1.000000 0.000000 0.000000
1.000000 0.000000 0.000000
1.000000 0.000000 0.000000
1.000000 0.000000 0.000000
1.000000 0.000000 0.000000
0.021544 0.017365 0.010592
0.021544 0.017365 0.010592
0.021544 0.017365 0.010592
0.021537 0.017220 0.010160
0.021498 0.016394 0.007777
0.021453 0.015443 0.005228
0.021400 0.014349 0.002634
0.027586 0.014011 0.002428
0.036927 0.013540 0.002147
0.050882 0.012899 0.001776
0.071032 0.012081 0.001304
0.101009 0.011273 0.000905
0.145515 0.010025 0.000345
0.211385 0.008654 0.000000
0.309195 0.006899 0.000000
0.454208 0.004736 0.000000
0.669080 0.002232 0.000000
0.987745 0.000013 0.000000
1.000000 0.000000 0.000000
1.000000 0.000000 0.000000
1.000000 0.000000 0.000000
1.000000 0.000000 0.000000
1.000000 0.000000 0.000000
1.000000 0.000000 0.000000
1.000000 0.000000 0.000000
1.000000 0.000000 0.000000
1.000000 0.000000 0.000000
1.000000 0.000000 0.000000
1.000000 0.000000 0.000000
1.000000 0.000000 0.000000
1.000000 0.000000 0.000000
1.000000 0.000000 0.000000
0.027311 0.023670 0.014733
0.027311 0.023670 0.014733
0.027311 0.023670 0.014733
0.027304 0.023513 0.014261
0.027263 0.022613 0.011629
0.027214 0.021574 0.008748
0.027158 0.020374 0.005680
0.027085 0.018845 0.002312
0.036384 0.018334 0.002035
0.050290 0.017638 0.001670
0.070334 0.016714 0.001186
0.100135 0.015768 0.000762
0.144609 0.014297 0.000200
0.210377 0.012780 0.000000
0.308075 0.010818 0.000000
0.452968 0.008339 0.000000
0.667712 0.005322 0.000000
0.986212 0.001959 0.000000
1.000000 0.000204 0.000000
1.000000 0.000204 0.000000
1.000000 0.000204 0.000000
1.000000 0.000204 0.000000
1.000000 0.000204 0.000000
1.000000 0.000204 0.000000
1.000000 0.000204 0.000000
1.000000 0.000204 0.000000
1.000000 0.000204 0.000000
1.000000 0.000204 0.000000
1.000000 0.000204 0.000000
1.000000 0.000204 0.000000
1.000000 0.000204 0.000000
1.000000 0.000204 0.000000
0.035982 0.033330 0.021110
0.035982 0.033330 0.021110
0.035982 0.033330 0.021110
0.035974 0.033157 0.020590
0.035930 0.032168 0.017664
0.035878 0.031024 0.014405
0.035817 0.029699 0.010833
0.035738 0.028001 0.006641
0.035628 0.025667 0.001880
0.049464 0.024904 0.001524
0.069429 0.023888 0.001053
0.098913 0.022698 0.000575
0.143319 0.020958 0.000050
0.208969 0.019227 0.000000
0.306506 0.017027 0.000000
0.451232 0.014195 0.000000
0.665794 0.010643 0.000000
0.984106 0.006374 0.000000
1.000000 0.003596 0.000000
1.000000 0.003596 0.000000
1.000000 0.003596 0.000000
1.000000 0.003596 0.000000
1.000000 0.003596 0.000000
1.000000 0.003596 0.000000
1.000000 0.003596 0.000000
1.000000 0.003596 0.000000
1.000000 0.003596 0.000000
1.000000 0.003596 0.000000
1.000000 0.003596 0.000000
1.000000 0.003596 0.000000
1.000000 0.003596 0.000000
1.000000 0.003596 0.000000
0.048884 0.047943 0.030799
0.048884 0.047943 0.030799
0.048884 0.047943 0.030799
0.048876 0.047753 0.030222
0.048827 0.046661 0.026960
0.048771 0.045394 0.023281
0.048705 0.043923 0.019167
0.048619 0.042033 0.014167
0.048499 0.039421 0.007914
0.048334 0.035904 0.001328
0.068190 0.034781 0.000877
0.097317 0.033295 0.000363
0.141468 0.031305 0.000000
0.207043 0.029138 0.000000
0.304354 0.026668 0.000000
0.448857 0.023445 0.000000
0.663159 0.019331 0.000000
0.981217 0.014193 0.000000
1.000000 0.010626 0.000000
1.000000 0.010626 0.000000
1.000000 0.010626 0.000000
1.000000 0.010626 0.000000
1.000000 0.010626 0.000000
1.000000 0.010626 0.000000
1.000000 0.010626 0.000000
1.000000 0.010626 0.000000
1.000000 0.010626 0.000000
1.000000 0.010626 0.000000
1.000000 0.010626 0.000000
1.000000 0.010626 0.000000
1.000000 0.010626 0.000000
1.000000 0.010626 0.000000
0.054931 0.058330 0.034975
0.054931 0.058330 0.034975
0.054931 0.058330 0.034975
0.054781 0.058414 0.034359
0.053921 0.058901 0.030873
0.052921 0.059472 0.026932
0.051756 0.060141 0.022511
0.051186 0.059076 0.017210
0.051065 0.056206 0.010550
0.050897 0.052325 0.003106
0.066183 0.050870 0.000569
0.095105 0.049221 0.000134
0.138468 0.047135 0.000000
0.203618 0.044544 0.000000
0.300948 0.041587 0.000000
0.445615 0.037824 0.000000
0.659564 0.033107 0.000000
0.977314 0.027084 0.000000
1.000000 0.022775 0.000000
1.000000 0.022775 0.000000
1.000000 0.022775 0.000000
1.000000 0.022775 0.000000
1.000000 0.022775 0.000000
1.000000 0.022775 0.000000
1.000000 0.022775 0.000000
1.000000 0.022775 0.000000
1.000000 0.022775 0.000000
1.000000 0.022775 0.000000
1.000000 0.022775 0.000000
1.000000 0.022775 0.000000
1.000000 0.022775 0.000000
1.000000 0.022775 0.000000
0.061928 0.071782 0.039681
0.061928 0.071782 0.039681
0.061928 0.071782 0.039681
0.061773 0.071872 0.039044
0.060884 0.072387 0.035431
0.059850 0.072990 0.031333
0.058646 0.073697 0.026715
0.057093 0.074619 0.021030
0.054934 0.075916 0.013726
0.052692 0.076188 0.005330
0.068107 0.074577 0.002182
0.092131 0.072867 0.000000
0.134818 0.070663 0.000000
0.199064 0.067795 0.000000
0.296358 0.064063 0.000000
0.441299 0.059635 0.000000
0.654749 0.054276 0.000000
0.971990 0.047336 0.000000
1.000000 0.042287 0.000000
1.000000 0.042287 0.000000
1.000000 0.042287 0.000000
1.000000 0.042287 0.000000
1.000000 0.042287 0.000000
1.000000 0.042287 0.000000
1.000000 0.042287 0.000000
1.000000 0.042287 0.000000
1.000000 0.042287 0.000000
1.000000 0.042287 0.000000
1.000000 0.042287 0.000000
1.000000 0.042287 0.000000
1.000000 0.042287 0.000000
1.000000 0.042287 0.000000
0.071832 0.091298 0.046364
0.071832 0.091298 0.046364
0.071832 0.091298 0.046364
0.072004 0.091469 0.046181
0.072991 0.092453 0.045131
0.074148 0.093606 0.043913
0.075509 0.094961 0.042499
0.077287 0.096728 0.040681
0.078456 0.098918 0.036378
0.075223 0.100843 0.024679
0.075917 0.105879 0.007778
0.089281 0.108267 0.000000
0.130097 0.105920 0.000000
0.193593 0.102716 0.000000
0.288868 0.098805 0.000000
0.433163 0.093617 0.000000
0.648246 0.087201 0.000000
0.964681 0.079280 0.000000
1.000000 0.073457 0.000000
1.000000 0.073457 0.000000
1.000000 0.073457 0.000000
1.000000 0.073457 0.000000
1.000000 0.073457 0.000000
1.000000 0.073457 0.000000
1.000000 0.073457 0.000000
1.000000 0.073457 0.000000
1.000000 0.073457 0.000000
1.000000 0.073457 0.000000
1.000000 0.073457 0.000000
1.000000 0.073457 0.000000
1.000000 0.073457 0.000000
1.000000 0.073457 0.000000
0.085886 0.119699 0.055870
0.085886 0.119699 0.055870
0.085886 0.119699 0.055870
0.086303 0.119807 0.055951
0.088712 0.120427 0.056415
0.091549 0.121152 0.056959
0.094899 0.122003 0.057598
0.099298 0.123110 0.058429
0.104253 0.125067 0.058157
0.107998 0.128742 0.054355
0.102931 0.140617 0.032444
0.100375 0.152414 0.007967
0.124218 0.158928 0.000000
0.185948 0.155624 0.000000
0.280498 0.151114 0.000000
0.421123 0.145689 0.000000
0.635775 0.138214 0.000000
0.954788 0.128898 0.000000
1.000000 0.122227 0.000000
1.000000 0.122227 0.000000
1.000000 0.122227 0.000000
1.000000 0.122227 0.000000
1.000000 0.122227 0.000000
1.000000 0.122227 0.000000
1.000000 0.122227 0.000000
1.000000 0.122227 0.000000
1.000000 0.122227 0.000000
1.000000 0.122227 0.000000
1.000000 0.122227 0.000000
1.000000 0.122227 0.000000
1.000000 0.122227 0.000000
1.000000 0.122227 0.000000
0.106006 0.161347 0.069489
0.106006 0.161347 0.069489
0.106006 0.161347 0.069489
0.106447 0.161464 0.069575
0.108996 0.162137 0.070068
0.111993 0.162925 0.070646
0.115529 0.163848 0.071324
0.120164 0.165049 0.072207
0.126745 0.166737 0.073450
0.135948 0.169064 0.075168
0.136716 0.180080 0.062089
0.136496 0.195953 0.044269
0.138614 0.221804 0.006706
0.178259 0.233957 0.000000
0.268157 0.230524 0.000000
0.408757 0.224300 0.000000
0.616714 0.216468 0.000000
0.935104 0.205821 0.000000
1.000000 0.197928 0.000000
1.000000 0.197928 0.000000
1.000000 0.197928 0.000000
1.000000 0.197928 0.000000
1.000000 0.197928 0.000000
1.000000 0.197928 0.000000
1.000000 0.197928 0.000000
1.000000 0.197928 0.000000
1.000000 0.197928 0.000000
1.000000 0.197928 0.000000
1.000000 0.197928 0.000000
1.000000 0.197928 0.000000
1.000000 0.197928 0.000000
1.000000 0.197928 0.000000
0.135078 0.222931 0.089226
0.135077 0.222931 0.089226
0.135077 0.222931 0.089226
0.135548 0.223058 0.089318
0.138267 0.223788 0.089844
0.141461 0.224642 0.090461
0.145225 0.225642 0.091184
0.150151 0.226942 0.092125
0.157133 0.228770 0.093449
0.166872 0.231293 0.095281
0.180004 0.234647 0.097724
0.195237 0.241196 0.097764
0.189901 0.275670 0.060510
0.193836 0.323457 0.009634
0.254860 0.350097 0.000000
0.389187 0.343683 0.000000
0.598382 0.335035 0.000000
0.905877 0.323620 0.000000
1.000000 0.314938 0.000000
1.000000 0.314938 0.000000
1.000000 0.314938 0.000000
1.000000 0.314938 0.000000
1.000000 0.314938 0.000000
1.000000 0.314938 0.000000
1.000000 0.314938 0.000000
1.000000 0.314938 0.000000
1.000000 0.314938 0.000000
1.000000 0.314938 0.000000
1.000000 0.314938 0.000000
1.000000 0.314938 0.000000
1.000000 0.314938 0.000000
1.000000 0.314938 0.000000
0.177262 0.314111 0.117904
0.177262 0.314111 0.117904
0.177262 0.314111 0.117904
0.177769 0.314251 0.118003
0.180692 0.315055 0.118572
0.184124 0.315995 0.119238
0.188163 0.317094 0.120019
0.193442 0.318522 0.121034
0.200911 0.320528 0.122462
0.211304 0.323292 0.124433
0.225281 0.326963 0.127054
0.244305 0.331880 0.130579
0.263456 0.345576 0.126583
0.266857 0.392769 0.084616
0.275884 0.474153 0.012376
0.369706 0.523664 0.000000
0.567119 0.514326 0.000000
0.879167 0.502377 0.000000
1.000000 0.492853 0.000000
1.000000 0.492853 0.000000
1.000000 0.492853 0.000000
1.000000 0.492853 0.000000
1.000000 0.492853 0.000000
1.000000 0.492853 0.000000
1.000000 0.492853 0.000000
1.000000 0.492853 0.000000
1.000000 0.492853 0.000000
1.000000 0.492853 0.000000
1.000000 0.492853 0.000000
1.000000 0.492853 0.000000
1.000000 0.492853 0.000000
1.000000 0.492853 0.000000
0.239001 0.449991 0.159975
0.239001 0.449991 0.159975
0.239001 0.449991 0.159975
0.239551 0.450145 0.160082
0.242720 0.451029 0.160699
0.246436 0.452062 0.161420
0.250805 0.453273 0.162265
0.256509 0.454846 0.163364
0.264577 0.457079 0.164918
0.275780 0.460159 0.167063
0.290804 0.464256 0.169921
0.311158 0.469668 0.173738
0.339079 0.476955 0.178886
0.375870 0.488721 0.183704
0.377897 0.567850 0.120709
0.400067 0.696334 0.018772
0.538940 0.786289 0.000000
0.829368 0.772269 0.000000
1.000000 0.763576 0.000000
1.000000 0.763576 0.000000
1.000000 0.763576 0.000000
1.000000 0.763576 0.000000
1.000000 0.763577 0.000000
1.000000 0.763577 0.000000
1.000000 0.763577 0.000000
1.000000 0.763577 0.000000
1.000000 0.763577 0.000000
1.000000 0.763576 0.000000
1.000000 0.763577 0.000000
1.000000 0.763577 0.000000
1.000000 0.763576 0.000000
1.000000 0.763576 0.000000
0.289200 0.561750 0.194203
0.289200 0.561750 0.194203
0.289200 0.561750 0.194203
0.289778 0.561913 0.194317
0.293112 0.562852 0.194968
0.297019 0.563949 0.195729
0.301610 0.565233 0.196621
0.307600 0.566903 0.197781
0.316053 0.569246 0.199411
0.327776 0.572472 0.201658
0.343487 0.576753 0.204644
0.364766 0.582480 0.208649
0.393877 0.590200 0.214056
0.433872 0.600602 0.221374
0.478111 0.628414 0.217254
0.474250 0.773136 0.100127
0.544301 0.951582 0.000000
0.806603 0.997613 0.000000
1.000000 0.986247 0.000000
1.000000 0.986247 0.000000
1.000000 0.986247 0.000000
1.000000 0.986247 0.000000
1.000000 0.986247 0.000000
1.000000 0.986247 0.000000
1.000000 0.986247 0.000000
1.000000 0.986247 0.000000
1.000000 0.986247 0.000000
1.000000 0.986247 0.000000
1.000000 0.986247 0.000000
1.000000 0.986247 0.000000
1.000000 0.986247 0.000000
1.000000 0.986247 0.000000
0.289200 0.561750 0.194203
0.289200 0.561750 0.194203
0.289200 0.561750 0.194203
0.289778 0.561913 0.194317
0.293112 0.562852 0.194968
0.297019 0.563949 0.195729
0.301610 0.565233 0.196621
0.307600 0.566903 0.197781
0.316053 0.569246 0.199411
0.327776 0.572472 0.201658
0.343487 0.576753 0.204644
0.364766 0.582480 0.208649
0.393877 0.590200 0.214056
0.433872 0.600602 0.221374
0.478111 0.628414 0.217254
0.474250 0.773136 0.100127
0.544301 0.951582 0.000000
0.806603 0.997613 0.000000
1.000000 0.986247 0.000000
1.000000 0.986247 0.000000
1.000000 0.986247 0.000000
1.000000 0.986247 0.000000
1.000000 0.986247 0.000000
1.000000 0.986247 0.000000
1.000000 0.986247 0.000000
1.000000 0.986247 0.000000
1.000000 0.986247 0.000000
1.000000 0.986247 0.000000
1.000000 0.986247 0.000000
1.000000 0.986247 0.000000
1.000000 0.986247 0.000000
1.000000 0.986247 0.000000
0.289200 0.561750 0.194203
0.289200 0.561750 0.194203
0.289200 0.561750 0.194203
0.289778 0.561913 0.194317
0.293112 0.562852 0.194968
0.297019 0.563949 0.195729
0.301610 0.565233 0.196621
0.307600 0.566903 0.197781
0.316053 0.569246 0.199411
0.327776 0.572472 0.201658
0.343487 0.576753 0.204644
0.364766 0.582481 0.208649
0.393877 0.590200 0.214056
0.433872 0.600602 0.221374
0.478111 0.628414 0.217254
0.474250 0.773136 0.100127
0.544301 0.951582 0.000000
0.806603 0.997613 0.000000
1.000000 0.986247 0.000000
1.000000 0.986247 0.000000
1.000000 0.986247 0.000000
1.000000 0.986247 0.000000
1.000000 0.986247 0.000000
1.000000 0.986247 0.000000
1.000000 0.986247 0.000000
1.000000 0.986247 0.000000
1.000000 0.986247 0.000000
1.000000 0.986247 0.000000
1.000000 0.986247 0.000000
1.000000 0.986247 0.000000
1.000000 0.986247 0.000000
1.000000 0.986247 0.000000
0.289200 0.561750 0.194203
0.289200 0.561750 0.194203
0.289200 0.561750 0.194203
0.289778 0.561913 0.194317
0.293112 0.562852 0.194968
0.297019 0.563949 0.195729
0.301610 0.565233 0.196621
0.307600 0.566903 0.197781
0.316053 0.569246 0.199411
0.327776 0.572472 0.201658
0.343487 0.576753 0.204644
0.364766 0.582481 0.208649
0.393877 0.590200 0.214056
0.433872 0.600602 0.221374
0.478111 0.628414 0.217254
0.474250 0.773136 0.100127
0.544301 0.951582 0.000000
0.806603 0.997613 0.000000
1.000000 0.986247 0.000000
1.000000 0.986247 0.000000
1.000000 0.986247 0.000000
1.000000 0.986247 0.000000
1.000000 0.986247 0.000000
1.000000 0.986247 0.000000
1.000000 0.986247 0.000000
1.000000 0.986247 0.000000
1.000000 0.986247 0.000000
1.000000 0.986247 0.000000
1.000000 0.986247 0.000000
1.000000 0.986247 0.000000
1.000000 0.986247 0.000000
1.000000 0.986247 0.000000
0.289200 0.561750 0.194203
0.289200 0.561750 0.194203
0.289200 0.561750 0.194203
0.289778 0.561913 0.194317
0.293112 0.562852 0.194968
0.297019 0.563949 0.195729
0.301610 0.565233 0.196621
0.307600 0.566903 0.197781
0.316053 0.569246 0.199411
0.327776 0.572472 0.201658
0.343487 0.576753 0.204644
0.364766 0.582481 0.208649
0.393877 0.590200 0.214056
0.433872 0.600602 0.221374
0.478111 0.628414 0.217254
0.474250 0.773136 0.100127
0.544301 0.951582 0.000000
0.806604 0.997613 0.000000
1.000000 0.986247 0.000000
1.000000 0.986247 0.000000
1.000000 0.986247 0.000000
1.000000 0.986247 0.000000
1.000000 0.986247 0.000000
1.000000 0.986247 0.000000
1.000000 0.986247 0.000000
1.000000 0.986247 0.000000
1.000000 0.986247 0.000000
1.000000 0.986247 0.000000
1.000000 0.986247 0.000000
1.000000 0.986247 0.000000
1.000000 0.986247 0.000000
1.000000 0.986247 0.000000
0.289200 0.561750 0.194203
0.289200 0.561750 0.194203
0.289200 0.561750 0.194203
0.289778 0.561913 0.194317
0.293112 0.562852 0.194968
0.297019 0.563949 0.195729
0.301610 0.565233 0.196621
0.307600 0.566903 0.197781
0.316053 0.569246 0.199411
0.327776 0.572472 0.201658
0.343487 0.576753 0.204644
0.364766 0.582481 0.208649
0.393877 0.590200 0.214056
0.433872 0.600602 0.221374
0.478111 0.628414 0.217254
0.474250 0.773136 0.100127
0.544301 0.951582 0.000000
0.806604 0.997613 0.000000
1.000000 0.986247 0.000000
1.000000 0.986247 0.000000
1.000000 0.986247 0.000000
1.000000 0.986247 0.000000
1.000000 0.986247 0.000000
1.000000 0.986247 0.000000
1.000000 0.986247 0.000000
1.000000 0.986247 0.000000
1.000000 0.986247 0.000000
1.000000 0.986247 0.000000
1.000000 0.986247 0.000000
1.000000 0.986247 0.000000
1.000000 0.986247 0.000000
1.000000 0.986247 0.000000
0.289200 0.561750 0.194203
0.289200 0.561750 0.194203
0.289200 0.561750 0.194203
0.289778 0.561913 0.194317
0.293112 0.562852 0.194968
0.297019 0.563949 0.195729
0.301610 0.565233 0.196621
0.307600 0.566903 0.197781
0.316053 0.569246 0.199411
0.327776 0.572472 0.201658
0.343487 0.576753 0.204644
0.364766 0.582481 0.208649
0.393877 0.590200 0.214056
0.433872 0.600602 0.221374
0.478111 0.628414 0.217254
0.474250 0.773136 0.100127
0.544301 0.951582 0.000000
0.806604 0.997613 0.000000
1.000000 0.986247 0.000000
1.000000 0.986247 0.000000
1.000000 0.986247 0.000000
1.000000 0.986247 0.000000
1.000000 0.986247 0.000000
1.000000 0.986247 0.000000
1.000000 0.986247 0.000000
1.000000 0.986247 0.000000
1.000000 0.986247 0.000000
1.000000 0.986247 0.000000
1.000000 0.986247 0.000000
1.000000 0.986247 0.000000
1.000000 0.986247 0.000000
1.000000 0.986247 0.000000
0.289200 0.561750 0.194203
0.289200 0.561750 0.194203
0.289200 0.561750 0.194203
0.289778 0.561913 0.194317
0.293112 0.562852 0.194968
0.297019 0.563948 0.195729
0.301610 0.565233 0.196621
0.307600 0.566903 0.197781
0.316053 0.569246 0.199411
0.327776 0.572473 0.201658
0.343487 0.576753 0.204644
0.364766 0.582481 0.208649
0.393877 0.590200 0.214056
0.433872 0.600602 0.221374
0.478111 0.628414 0.217254
0.474250 0.773136 0.100127
0.544301 0.951581 0.000000
0.806604 0.997614 0.000000
1.000000 0.986247 0.000000
1.000000 0.986247 0.000000
1.000000 0.986247 0.000000
1.000000 0.986247 0.000000
1.000000 0.986247 0.000000
1.000000 0.986247 0.000000
1.000000 0.986247 0.000000
1.000000 0.986247 0.000000
1.000000 0.986247 0.000000
1.000000 0.986247 0.000000
1.000000 0.986247 0.000000
1.000000 0.986247 0.000000
1.000000 0.986247 0.000000
1.000000 0.986247 0.000000
0.289200 0.561750 0.194203
0.289200 0.561750 0.194203
0.289200 0.561750 0.194203
0.289778 0.561913 0.194317
0.293112 0.562852 0.194968
0.297019 0.563948 0.195729
0.301610 0.565233 0.196621
0.307600 0.566903 0.197781
0.316053 0.569246 0.199411
0.327776 0.572473 0.201658
0.343487 0.576753 0.204644
0.364766 0.582481 0.208649
0.393877 0.590200 0.214056
0.433872 0.600602 0.221374
0.478111 0.628414 0.217254
0.474250 0.773136 0.100127
0.544301 0.951581 0.000000
0.806604 0.997614 0.000000
1.000000 0.986247 0.000000
1.000000 0.986247 0.000000
1.000000 0.986247 0.000000
1.000000 0.986247 0.000000
1.000000 0.986247 0.000000
1.000000 0.986247 0.000000
1.000000 0.986247 0.000000
1.000000 0.986247 0.000000
1.000000 0.986247 0.000000
1.000000 0.986247 0.000000
1.000000 0.986247 0.000000
1.000000 0.986247 0.000000
1.000000 0.986247 0.000000
1.000000 0.986247 0.000000
0.289200 0.561750 0.194203
0.289200 0.561750 0.194203
0.289200 0.561750 0.194203
0.289778 0.561913 0.194317
0.293112 0.562851 0.194968
0.297019 0.563949 0.195729
0.301610 0.565232 0.196621
0.307600 0.566904 0.197781
0.316053 0.569245 0.199411
0.327776 0.572473 0.201658
0.343487 0.576754 0.204644
0.364766 0.582479 0.208649
0.393877 0.590200 0.214056
0.433872 0.600601 0.221374
0.478111 0.628414 0.217254
0.474250 0.773136 0.100127
0.544301 0.951581 0.000000
0.806603 0.997613 0.000000
