Assets/Art/Materials/LUT/FallColours.CUBE
#Created by: Adobe Photoshop Export Color Lookup Plugin
TITLE "Frame.exr"
#LUT size
LUT_3D_SIZE 8
#data domain
#LUT data points
DOMAIN_MIN 0.000000 0.000000 0.000000
DOMAIN_MAX 0.903226 0.903226 0.903226
0.010823 0.006171 0.003342
0.014235 0.005993 0.003196
0.038066 0.004989 0.002387
0.147413 0.002682 0.000706
0.671942 0.000000 0.000000
1.000000 0.000000 0.000000
1.000000 0.000000 0.000000
1.000000 0.000000 0.000000
0.013998 0.009375 0.005393
0.013958 0.008556 0.003113
0.037705 0.007445 0.002310
0.146812 0.004726 0.000584
0.671036 0.000000 0.000000
1.000000 0.000000 0.000000
1.000000 0.000000 0.000000
1.000000 0.000000 0.000000
0.035982 0.033330 0.021110
0.035930 0.032168 0.017664
0.035628 0.025667 0.001880
0.143319 0.020958 0.000050
0.665794 0.010643 0.000000
1.000000 0.003596 0.000000
1.000000 0.003596 0.000000
1.000000 0.003596 0.000000
0.071832 0.091298 0.046364
0.072991 0.092453 0.045131
0.078456 0.098918 0.036378
0.130097 0.105920 0.000000
0.648246 0.087201 0.000000
1.000000 0.073457 0.000000
1.000000 0.073457 0.000000
1.000000 0.073457 0.000000
0.177262 0.314111 0.117904
0.180692 0.315055 0.118572
0.200911 0.320528 0.122462
0.263456 0.345576 0.126583
0.567119 0.514326 0.000000
1.000000 0.492853 0.000000
1.000000 0.492853 0.000000
1.000000 0.492853 0.000000
0.289200 0.561750 0.194203
0.293112 0.562852 0.194968
0.316053 0.569246 0.199411
0.393877 0.590200 0.214056
0.544301 0.951582 0.000000
1.000000 0.986247 0.000000
1.000000 0.986247 0.000000
1.000000 0.986247 0.000000
0.289200 0.561750 0.194203
0.293112 0.562852 0.194968
0.316053 0.569246 0.199411
0.393877 0.590200 0.214056
0.544301 0.951582 0.000000
1.000000 0.986247 0.000000
1.000000 0.986247 0.000000
1.000000 0.986247 0.000000
0.289200 0.561750 0.194203
0.293112 0.562853 0.194968
0.316053 0.569245 0.199411
0.393877 0.590200 0.214056
0.544301 0.951581 0.000000
1.000000 0.986246 0.000000
1.000000 0.986246 0.000000
1.000000 0.986246 0.000000
0.011656 0.007037 0.005985
0.014939 0.007171 0.005416
0.038982 0.006114 0.004471
0.147303 0.002648 0.002179
0.671778 0.000000 0.000000
1.000000 0.000000 0.000000
1.000000 0.000000 0.000000
1.000000 0.000000 0.000000
0.011866 0.009289 0.005995
0.013876 0.008447 0.005034
0.037598 0.007340 0.004109
0.146703 0.004686 0.002012
0.670872 0.000000 0.000000
1.000000 0.000000 0.000000
1.000000 0.000000 0.000000
1.000000 0.000000 0.000000
0.033200 0.033209 0.021973
0.035824 0.032012 0.020589
0.035523 0.025520 0.003602
0.143211 0.020898 0.001145
0.665630 0.010595 0.000000
1.000000 0.003558 0.000000
1.000000 0.003558 0.000000
1.000000 0.003558 0.000000
0.072083 0.091518 0.047646
0.074780 0.092195 0.048169
0.080281 0.098655 0.039248
0.130017 0.105813 0.000000
0.648084 0.087112 0.000000
1.000000 0.073372 0.000000
1.000000 0.073372 0.000000
1.000000 0.073372 0.000000
0.177582 0.314420 0.119550
0.181015 0.315362 0.120220
0.201243 0.320837 0.124125
0.263812 0.345889 0.128259
0.566992 0.514192 0.000000
1.000000 0.492713 0.000000
1.000000 0.492713 0.000000
1.000000 0.492713 0.000000
0.289564 0.562109 0.196085
0.293480 0.563211 0.196851
0.316429 0.569607 0.201306
0.394273 0.590564 0.215986
0.544969 0.949124 0.000000
1.000000 0.986081 0.000000
1.000000 0.986081 0.000000
1.000000 0.986081 0.000000
0.289564 0.562109 0.196085
0.293480 0.563211 0.196851
0.316429 0.569607 0.201306
0.394273 0.590564 0.215986
0.544969 0.949124 0.000000
1.000000 0.986082 0.000000
1.000000 0.986082 0.000000
1.000000 0.986082 0.000000
0.289564 0.562110 0.196085
0.293480 0.563211 0.196851
0.316429 0.569607 0.201306
0.394273 0.590565 0.215986
0.544969 0.949123 0.000000
1.000000 0.986082 0.000000
1.000000 0.986082 0.000000
1.000000 0.986082 0.000000
0.016787 0.012601 0.027052
0.020382 0.012757 0.026188
0.044400 0.013671 0.021339
0.146432 0.002672 0.016107
0.670828 0.000000 0.007039
1.000000 0.000000 0.001400
1.000000 0.000000 0.001400
1.000000 0.000000 0.001400
0.017019 0.015202 0.027066
0.019224 0.014237 0.025601
0.042966 0.015177 0.020783
0.145833 0.004714 0.015818
0.669922 0.000000 0.006808
1.000000 0.000000 0.001253
1.000000 0.000000 0.001253
1.000000 0.000000 0.001253
0.018379 0.032512 0.027150
0.020629 0.031322 0.025683
0.034914 0.024673 0.017643
0.142607 0.020512 0.013896
0.664682 0.010309 0.005514
1.000000 0.003343 0.000497
1.000000 0.003343 0.000497
1.000000 0.003343 0.000497
0.073539 0.092796 0.055252
0.076250 0.093475 0.055796
0.092464 0.097438 0.058980
0.129548 0.105181 0.010523
0.647146 0.086616 0.001789
1.000000 0.072881 0.000000
1.000000 0.072881 0.000000
1.000000 0.072881 0.000000
0.179437 0.316203 0.129212
0.182880 0.317147 0.129897
0.203163 0.322628 0.133875
0.272972 0.340659 0.147065
0.566261 0.513402 0.000000
1.000000 0.491915 0.000000
1.000000 0.491915 0.000000
1.000000 0.491915 0.000000
0.291681 0.564193 0.207085
0.295603 0.565296 0.207862
0.318608 0.571698 0.212383
0.396573 0.592676 0.227260
0.550389 0.935758 0.008151
1.000000 0.985122 0.000000
1.000000 0.985122 0.000000
1.000000 0.985122 0.000000
0.291681 0.564193 0.207085
0.295603 0.565296 0.207862
0.318608 0.571698 0.212383
0.396573 0.592675 0.227260
0.550389 0.935758 0.008151
1.000000 0.985121 0.000000
1.000000 0.985121 0.000000
1.000000 0.985121 0.000000
0.291681 0.564193 0.207085
0.295603 0.565295 0.207862
0.318608 0.571697 0.212383
0.396573 0.592676 0.227260
0.550389 0.935757 0.008151
1.000000 0.985121 0.000000
1.000000 0.985121 0.000000
1.000000 0.985121 0.000000
0.019815 0.016007 0.104021
0.022955 0.016006 0.104017
0.043624 0.016076 0.103100
0.143075 0.020523 0.077628
0.657439 0.000000 0.079162
1.000000 0.000000 0.065196
1.000000 0.000000 0.065196
1.000000 0.000000 0.065196
0.019811 0.018747 0.104014
0.022951 0.018745 0.104012
0.043619 0.018819 0.103096
0.143559 0.023241 0.077929
0.656979 0.000000 0.078655
1.000000 0.000000 0.064775
1.000000 0.000000 0.064775
1.000000 0.000000 0.064775
0.019789 0.036643 0.103971
0.022928 0.036641 0.103970
0.043290 0.036627 0.103961
0.146310 0.040599 0.079742
0.661389 0.009325 0.074677
1.000000 0.002636 0.062350
1.000000 0.002636 0.062350
1.000000 0.002636 0.062350
0.019700 0.114672 0.103857
0.022837 0.114667 0.103854
0.043785 0.114606 0.103751
0.128407 0.102295 0.082544
0.643946 0.084849 0.066264
1.000000 0.071195 0.054342
1.000000 0.071195 0.054342
1.000000 0.071195 0.054342
0.185903 0.322393 0.164054
0.189377 0.323342 0.164784
0.209845 0.328851 0.169024
0.280213 0.346980 0.183054
0.563932 0.510667 0.044373
1.000000 0.489192 0.031550
1.000000 0.489192 0.031550
1.000000 0.489192 0.031550
0.299030 0.571423 0.246292
0.302979 0.572530 0.247105
0.326133 0.578954 0.251828
0.404544 0.599988 0.267396
0.577441 0.878015 0.111534
1.000000 0.981802 0.015303
1.000000 0.981802 0.015303
1.000000 0.981802 0.015303
0.299030 0.571423 0.246292
0.302979 0.572530 0.247105
0.326133 0.578954 0.251828
0.404544 0.599988 0.267396
0.577441 0.878015 0.111534
1.000000 0.981802 0.015303
1.000000 0.981802 0.015303
1.000000 0.981802 0.015303
0.299030 0.571423 0.246292
0.302979 0.572531 0.247105
0.326133 0.578953 0.251828
0.404544 0.599989 0.267396
0.577441 0.878015 0.111534
1.000000 0.981802 0.015303
1.000000 0.981802 0.015303
1.000000 0.981802 0.015303
0.019762 0.015958 0.481987
0.022900 0.015956 0.481983
0.043257 0.015946 0.481957
0.128142 0.015907 0.481872
0.566078 0.032710 0.349118
1.000000 0.036765 0.379295
1.000000 0.036765 0.379295
1.000000 0.036765 0.379295
0.019758 0.018695 0.481985
0.022896 0.018694 0.481981
0.043253 0.018683 0.481955
0.128132 0.018642 0.481861
0.566780 0.035777 0.349574
1.000000 0.039898 0.379903
1.000000 0.039898 0.379903
1.000000 0.039898 0.379903
0.019730 0.036587 0.481939
0.022867 0.036585 0.481934
0.043220 0.036562 0.481897
0.128100 0.036523 0.481796
0.570896 0.054900 0.352238
1.000000 0.058045 0.388677
1.000000 0.058045 0.388677
1.000000 0.058045 0.388677
0.019648 0.114587 0.481732
0.022781 0.114583 0.481724
0.043122 0.114556 0.481693
0.127983 0.114508 0.481589
0.584760 0.132466 0.361169
1.000000 0.126699 0.422661
1.000000 0.126699 0.422661
1.000000 0.126699 0.422661
0.019358 0.496820 0.481088
0.022481 0.496813 0.481079
0.042767 0.496774 0.481050
0.127537 0.496679 0.480953
0.567171 0.501661 0.445879
1.000000 0.479635 0.420672
1.000000 0.479635 0.420672
1.000000 0.479635 0.420673
0.174482 0.732857 0.433642
0.181102 0.731335 0.433383
0.216874 0.725244 0.434359
0.345042 0.702529 0.438460
0.717882 0.696224 0.481299
1.000000 0.970385 0.395423
1.000000 0.970385 0.395423
1.000000 0.970385 0.395423
0.174482 0.732857 0.433642
0.181102 0.731335 0.433383
0.216874 0.725244 0.434359
0.345042 0.702530 0.438460
0.717882 0.696224 0.481299
1.000000 0.970385 0.395423
1.000000 0.970385 0.395423
1.000000 0.970385 0.395423
0.174482 0.732857 0.433642
0.181102 0.731337 0.433383
0.216874 0.725245 0.434359
0.345042 0.702530 0.438460
0.717882 0.696224 0.481299
1.000000 0.970386 0.395423
1.000000 0.970386 0.395423
1.000000 0.970386 0.395424
0.019707 0.015915 0.932197
0.022845 0.015913 0.932186
0.043205 0.015903 0.932124
0.128070 0.015863 0.931943
0.541082 0.024098 0.807785
1.000000 0.044511 0.670277
1.000000 0.044511 0.670277
1.000000 0.044511 0.670277
0.019704 0.018650 0.932178
0.022839 0.018648 0.932168
0.043198 0.018637 0.932106
0.128064 0.018596 0.931930
0.540928 0.026828 0.810568
1.000000 0.047837 0.670818
1.000000 0.047837 0.670818
1.000000 0.047837 0.670818
0.019682 0.036527 0.932070
0.022816 0.036525 0.932059
0.043158 0.036512 0.931997
0.128027 0.036462 0.931851
0.538591 0.044250 0.828700
1.000000 0.068306 0.673955
1.000000 0.068306 0.673955
1.000000 0.068306 0.673955
0.019599 0.114501 0.931932
0.022731 0.114501 0.931924
0.043063 0.114498 0.931878
0.127887 0.114416 0.931833
0.524690 0.117108 0.897551
1.000000 0.149225 0.684731
1.000000 0.149225 0.684731
1.000000 0.149225 0.684731
0.019305 0.496707 0.931259
0.022425 0.496703 0.931248
0.042705 0.496665 0.931199
0.127457 0.496610 0.931027
0.514548 0.496256 0.930527
1.000000 0.516251 0.721076
1.000000 0.516251 0.721076
1.000000 0.516251 0.721076
0.019059 0.933535 0.930592
0.022169 0.933527 0.930584
0.042402 0.933480 0.930538
0.127064 0.933308 0.930365
0.513953 0.932771 0.929776
1.000000 0.964555 0.889001
1.000000 0.964555 0.889001
1.000000 0.964555 0.889001
0.019059 0.933535 0.930592
0.022169 0.933527 0.930584
0.042402 0.933480 0.930538
0.127064 0.933308 0.930365
0.513953 0.932771 0.929776
1.000000 0.964556 0.889001
1.000000 0.964556 0.889001
1.000000 0.964556 0.889001
0.019059 0.933535 0.930592
0.022169 0.933528 0.930584
0.042402 0.933481 0.930538
0.127064 0.933307 0.930365
0.513953 0.932771 0.929776
1.000000 0.964554 0.889001
1.000000 0.964554 0.889001
1.000000 0.964554 0.889001
0.019707 0.015915 0.932197
0.022845 0.015913 0.932186
0.043205 0.015903 0.932124
0.128070 0.015863 0.931944
0.541082 0.024098 0.807785
1.000000 0.044511 0.670277
1.000000 0.044511 0.670277
1.000000 0.044511 0.670277
0.019704 0.018650 0.932178
0.022839 0.018648 0.932168
0.043198 0.018637 0.932106
0.128064 0.018596 0.931930
0.540928 0.026828 0.810568
1.000000 0.047837 0.670818
1.000000 0.047837 0.670818
1.000000 0.047837 0.670818
0.019682 0.036527 0.932070
0.022816 0.036525 0.932060
0.043158 0.036512 0.931997
0.128027 0.036462 0.931851
0.538591 0.044250 0.828700
1.000000 0.068306 0.673955
1.000000 0.068306 0.673955
1.000000 0.068306 0.673955
0.019599 0.114501 0.931933
0.022731 0.114501 0.931924
0.043063 0.114498 0.931878
0.127887 0.114416 0.931833
0.524690 0.117108 0.897551
1.000000 0.149225 0.684731
1.000000 0.149225 0.684731
1.000000 0.149225 0.684731
0.019305 0.496707 0.931258
0.022425 0.496703 0.931248
0.042705 0.496665 0.931200
0.127457 0.496610 0.931027
0.514548 0.496256 0.930527
1.000000 0.516251 0.721076
1.000000 0.516251 0.721076
1.000000 0.516251 0.721076
0.019059 0.933535 0.930592
0.022169 0.933527 0.930584
0.042402 0.933480 0.930538
0.127064 0.933308 0.930365
0.513953 0.932771 0.929776
1.000000 0.964555 0.889002
1.000000 0.964555 0.889002
1.000000 0.964555 0.889002
0.019059 0.933535 0.930592
0.022169 0.933527 0.930584
0.042402 0.933480 0.930538
0.127064 0.933308 0.930365
0.513953 0.932771 0.929776
1.000000 0.964556 0.889002
1.000000 0.964556 0.889002
1.000000 0.964556 0.889002
0.019059 0.933535 0.930592
0.022169 0.933528 0.930584
0.042402 0.933481 0.930538
0.127064 0.933307 0.930365
0.513953 0.932771 0.929776
1.000000 0.964554 0.889002
1.000000 0.964554 0.889002
1.000000 0.964554 0.889002
0.019707 0.015915 0.932197
0.022845 0.015913 0.932186
0.043205 0.015903 0.932125
0.128070 0.015863 0.931943
0.541083 0.024098 0.807786
1.000000 0.044511 0.670278
1.000000 0.044511 0.670278
1.000000 0.044511 0.670278
0.019704 0.018650 0.932179
0.022839 0.018648 0.932168
0.043198 0.018637 0.932107
0.128064 0.018596 0.931930
0.540928 0.026828 0.810569
1.000000 0.047837 0.670818
1.000000 0.047837 0.670818
1.000000 0.047837 0.670818
0.019682 0.036527 0.932071
0.022816 0.036525 0.932058
0.043158 0.036512 0.931997
0.128027 0.036462 0.931851
0.538592 0.044250 0.828700
1.000000 0.068306 0.673954
1.000000 0.068306 0.673954
1.000000 0.068306 0.673954
0.019599 0.114501 0.931933
0.022731 0.114501 0.931925
0.043063 0.114498 0.931879
0.127887 0.114416 0.931833
0.524690 0.117108 0.897550
1.000000 0.149225 0.684732
1.000000 0.149225 0.684732
1.000000 0.149225 0.684732
0.019305 0.496707 0.931258
0.022425 0.496703 0.931248
0.042705 0.496666 0.931200
0.127457 0.496610 0.931028
0.514548 0.496256 0.930526
1.000000 0.516251 0.721077
1.000000 0.516251 0.721077
1.000000 0.516251 0.721077
0.019059 0.933535 0.930592
0.022169 0.933527 0.930584
0.042402 0.933480 0.930538
0.127064 0.933308 0.930364
0.513953 0.932771 0.929775
1.000000 0.964555 0.889002
1.000000 0.964555 0.889002
1.000000 0.964555 0.889002
0.019059 0.933535 0.930592
0.022169 0.933527 0.930584
0.042402 0.933480 0.930538
0.127064 0.933308 0.930364
0.513953 0.932771 0.929775
1.000000 0.964556 0.889002
1.000000 0.964556 0.889002
1.000000 0.964556 0.889002
0.019059 0.933535 0.930592
0.022169 0.933528 0.930584
0.042402 0.933481 0.930538
0.127064 0.933307 0.930364
0.513953 0.932771 0.929775
1.000000 0.964554 0.889002
1.000000 0.964554 0.889002
1.000000 0.964554 0.889002
