Assets/Art/Materials/LUT/Fifties.CUBE
#Created by: Adobe Photoshop Export Color Lookup Plugin
TITLE "Frame.exr"
#LUT size
LUT_3D_SIZE 32
#data domain
DOMAIN_MIN 0.0 0.0 0.0
DOMAIN_MAX 1.0 1.0 1.0
#LUT data points
0.000000 0.000000 0.000000
0.000000 0.000000 0.000000
0.000000 0.000000 0.000000
0.000224 0.000000 0.000004
0.001512 0.000000 0.000026
0.003017 0.000000 0.000052
0.004778 0.000000 0.000082
0.007066 0.000000 0.000122
0.010273 0.000000 0.000177
0.016404 0.000018 0.000253
0.042143 0.000225 0.000356
0.076458 0.000514 0.000482
0.120026 0.001268 0.000293
0.190485 0.002705 0.000038
0.308821 0.002325 0.000000
0.478675 0.000000 0.000000
0.645271 0.000000 0.000000
0.789601 0.000000 0.000000
0.873259 0.000000 0.000000
0.873259 0.000000 0.000000
0.873259 0.000000 0.000000
0.873259 0.000000 0.000000
0.873259 0.000000 0.000000
0.873259 0.000000 0.000000
0.873259 0.000000 0.000000
0.873259 0.000000 0.000000
0.873259 0.000000 0.000000
0.873259 0.000000 0.000000
0.873259 0.000000 0.000000
0.873259 0.000000 0.000000
0.873257 0.000000 0.000000
0.873260 0.000000 0.000000
0.000000 0.000000 0.000000
0.000000 0.000000 0.000000
0.000000 0.000000 0.000000
0.000224 0.000000 0.000004
0.001512 0.000000 0.000026
0.003017 0.000000 0.000052
0.004778 0.000000 0.000082
0.007066 0.000000 0.000122
0.010273 0.000000 0.000177
0.016404 0.000018 0.000253
0.042143 0.000225 0.000356
0.076458 0.000514 0.000482
0.120026 0.001268 0.000293
0.190485 0.002705 0.000038
0.308821 0.002325 0.000000
0.478675 0.000000 0.000000
0.645271 0.000000 0.000000
0.789601 0.000000 0.000000
0.873259 0.000000 0.000000
0.873259 0.000000 0.000000
0.873259 0.000000 0.000000
0.873259 0.000000 0.000000
0.873259 0.000000 0.000000
0.873259 0.000000 0.000000
0.873259 0.000000 0.000000
0.873259 0.000000 0.000000
0.873259 0.000000 0.000000
0.873259 0.000000 0.000000
0.873259 0.000000 0.000000
0.873259 0.000000 0.000000
0.873260 0.000000 0.000000
0.873260 0.000000 0.000000
0.000000 0.000000 0.000000
0.000000 0.000000 0.000000
0.000000 0.000000 0.000000
0.000224 0.000000 0.000004
0.001512 0.000000 0.000026
0.003017 0.000000 0.000052
0.004778 0.000000 0.000082
0.007066 0.000000 0.000122
0.010273 0.000000 0.000177
0.016404 0.000018 0.000253
0.042143 0.000225 0.000356
0.076458 0.000514 0.000482
0.120026 0.001268 0.000293
0.190485 0.002705 0.000038
0.308821 0.002325 0.000000
0.478675 0.000000 0.000000
0.645271 0.000000 0.000000
0.789601 0.000000 0.000000
0.873259 0.000000 0.000000
0.873259 0.000000 0.000000
0.873259 0.000000 0.000000
0.873259 0.000000 0.000000
0.873259 0.000000 0.000000
0.873259 0.000000 0.000000
0.873259 0.000000 0.000000
0.873259 0.000000 0.000000
0.873259 0.000000 0.000000
0.873259 0.000000 0.000000
0.873259 0.000000 0.000000
0.873259 0.000000 0.000000
0.873257 0.000000 0.000000
0.873260 0.000000 0.000000
0.000000 0.000224 0.000000
0.000000 0.000224 0.000000
0.000000 0.000224 0.000000
0.000224 0.000224 0.000004
0.001512 0.000224 0.000026
0.003017 0.000224 0.000052
0.004778 0.000224 0.000082
0.007066 0.000224 0.000122
0.010273 0.000224 0.000177
0.016404 0.000242 0.000253
0.042143 0.000449 0.000356
0.076470 0.000738 0.000486
0.120038 0.001492 0.000297
0.190512 0.002932 0.000038
0.308891 0.002545 0.000000
0.478760 0.000220 0.000000
0.645352 0.000220 0.000000
0.789666 0.000220 0.000000
0.873324 0.000220 0.000000
0.873324 0.000220 0.000000
0.873324 0.000220 0.000000
0.873324 0.000220 0.000000
0.873324 0.000220 0.000000
0.873324 0.000220 0.000000
0.873324 0.000220 0.000000
0.873324 0.000220 0.000000
0.873324 0.000220 0.000000
0.873323 0.000220 0.000000
0.873323 0.000220 0.000000
0.873323 0.000220 0.000000
0.873325 0.000220 0.000000
0.873325 0.000220 0.000000
0.000000 0.001512 0.000000
0.000000 0.001512 0.000000
0.000000 0.001512 0.000000
0.000224 0.001512 0.000004
0.001512 0.001512 0.000026
0.003017 0.001512 0.000052
0.004778 0.001512 0.000082
0.007066 0.001512 0.000122
0.010273 0.001512 0.000177
0.016404 0.001530 0.000253
0.042143 0.001737 0.000356
0.076477 0.002026 0.000488
0.120104 0.002780 0.000319
0.190667 0.004243 0.000038
0.309290 0.003811 0.000000
0.479249 0.001486 0.000000
0.645818 0.001486 0.000000
0.790044 0.001486 0.000000
0.873702 0.001486 0.000000
0.873702 0.001486 0.000000
0.873702 0.001486 0.000000
0.873702 0.001486 0.000000
0.873702 0.001486 0.000000
0.873702 0.001486 0.000000
0.873702 0.001486 0.000000
0.873702 0.001486 0.000000
0.873702 0.001486 0.000000
0.873701 0.001486 0.000000
0.873701 0.001486 0.000000
0.873701 0.001486 0.000000
0.873703 0.001486 0.000000
0.873703 0.001486 0.000000
0.000000 0.003017 0.000000
0.000000 0.003017 0.000000
0.000000 0.003017 0.000000
0.000224 0.003017 0.000004
0.001512 0.003017 0.000026
0.003017 0.003017 0.000052
0.004778 0.003017 0.000082
0.007066 0.003017 0.000122
0.010273 0.003017 0.000177
0.016404 0.003035 0.000253
0.042143 0.003242 0.000356
0.076477 0.003531 0.000488
0.120182 0.004285 0.000345
0.190849 0.005774 0.000038
0.309758 0.005290 0.000000
0.479815 0.002965 0.000000
0.646363 0.002965 0.000000
0.790485 0.002965 0.000000
0.874143 0.002965 0.000000
0.874143 0.002965 0.000000
0.874143 0.002965 0.000000
0.874143 0.002965 0.000000
0.874143 0.002965 0.000000
0.874143 0.002965 0.000000
0.874143 0.002965 0.000000
0.874143 0.002965 0.000000
0.874143 0.002965 0.000000
0.874144 0.002965 0.000000
0.874144 0.002965 0.000000
0.874144 0.002965 0.000000
0.874142 0.002965 0.000000
0.874142 0.002965 0.000000
0.000000 0.004778 0.000000
0.000000 0.004778 0.000000
0.000000 0.004778 0.000000
0.000224 0.004778 0.000004
0.001512 0.004778 0.000026
0.003017 0.004778 0.000052
0.004778 0.004778 0.000082
0.007066 0.004778 0.000122
0.010273 0.004778 0.000177
0.016404 0.004796 0.000253
0.042143 0.005003 0.000356
0.076477 0.005293 0.000488
0.120273 0.006047 0.000376
0.191061 0.007565 0.000038
0.310236 0.007055 0.000000
0.480453 0.004696 0.000000
0.647001 0.004696 0.000000
0.791003 0.004696 0.000000
0.874659 0.004696 0.000000
0.874659 0.004696 0.000000
0.874659 0.004696 0.000000
0.874659 0.004696 0.000000
0.874659 0.004696 0.000000
0.874659 0.004696 0.000000
0.874659 0.004696 0.000000
0.874660 0.004696 0.000000
0.874660 0.004696 0.000000
0.874659 0.004696 0.000000
0.874659 0.004696 0.000000
0.874659 0.004696 0.000000
0.874660 0.004696 0.000000
0.874660 0.004696 0.000000
0.000000 0.007066 0.000000
0.000000 0.007066 0.000000
0.000000 0.007066 0.000000
0.000224 0.007066 0.000004
0.001512 0.007066 0.000026
0.003017 0.007066 0.000052
0.004778 0.007066 0.000082
0.007066 0.007066 0.000122
0.010273 0.007066 0.000177
0.016404 0.007084 0.000253
0.042143 0.007290 0.000356
0.076477 0.007580 0.000488
0.120392 0.008334 0.000415
0.191337 0.009892 0.000038
0.310788 0.009382 0.000000
0.481281 0.006944 0.000000
0.647829 0.006944 0.000000
0.791713 0.006944 0.000000
0.875329 0.006944 0.000000
0.875329 0.006944 0.000000
0.875329 0.006944 0.000000
0.875329 0.006944 0.000000
0.875329 0.006944 0.000000
0.875329 0.006944 0.000000
0.875329 0.006944 0.000000
0.875329 0.006944 0.000000
0.875329 0.006944 0.000000
0.875330 0.006944 0.000000
0.875330 0.006944 0.000000
0.875330 0.006944 0.000000
0.875328 0.006944 0.000000
0.875328 0.006944 0.000000
0.000000 0.010273 0.000000
0.000000 0.010273 0.000000
0.000000 0.010273 0.000000
0.000224 0.010273 0.000004
0.001512 0.010273 0.000026
0.003017 0.010273 0.000052
0.004778 0.010273 0.000082
0.007066 0.010273 0.000122
0.010273 0.010273 0.000177
0.016404 0.010291 0.000253
0.042143 0.010498 0.000356
0.076477 0.010787 0.000488
0.120558 0.011541 0.000470
0.191724 0.013154 0.000038
0.311562 0.012644 0.000000
0.482442 0.010096 0.000000
0.648990 0.010096 0.000000
0.792708 0.010096 0.000000
0.876270 0.010096 0.000000
0.876270 0.010096 0.000000
0.876270 0.010096 0.000000
0.876270 0.010096 0.000000
0.876270 0.010096 0.000000
0.876269 0.010096 0.000000
0.876269 0.010096 0.000000
0.876269 0.010096 0.000000
0.876269 0.010096 0.000000
0.876270 0.010096 0.000000
0.876270 0.010096 0.000000
0.876270 0.010096 0.000000
0.876270 0.010096 0.000000
0.876270 0.010096 0.000000
0.000000 0.016413 0.000027
0.000000 0.016413 0.000027
0.000000 0.016413 0.000027
0.000220 0.016417 0.000027
0.001503 0.016422 0.000044
0.003008 0.016422 0.000070
0.004769 0.016422 0.000100
0.007057 0.016422 0.000140
0.010264 0.016422 0.000195
0.016413 0.016449 0.000280
0.042152 0.016656 0.000384
0.076570 0.016964 0.000509
0.120737 0.017726 0.000506
0.192341 0.019423 0.000084
0.313239 0.018833 0.000000
0.484751 0.016106 0.000000
0.651284 0.016106 0.000000
0.794699 0.016106 0.000000
0.878193 0.016106 0.000000
0.878193 0.016106 0.000000
0.878193 0.016106 0.000000
0.878193 0.016106 0.000000
0.878193 0.016106 0.000000
0.878193 0.016106 0.000000
0.878193 0.016106 0.000000
0.878193 0.016106 0.000000
0.878193 0.016106 0.000000
0.878193 0.016106 0.000000
0.878193 0.016106 0.000000
0.878193 0.016106 0.000000
0.878193 0.016106 0.000000
0.878193 0.016106 0.000000
0.000000 0.042255 0.000337
0.000000 0.042255 0.000337
0.000000 0.042255 0.000337
0.000220 0.042259 0.000337
0.001486 0.042281 0.000337
0.002965 0.042307 0.000337
0.004696 0.042338 0.000337
0.006953 0.042367 0.000347
0.010160 0.042367 0.000402
0.016310 0.042394 0.000487
0.042255 0.042705 0.000694
0.076674 0.043013 0.000819
0.122184 0.044085 0.000713
0.195751 0.046402 0.000187
0.320634 0.045269 0.000000
0.494830 0.041225 0.000000
0.660895 0.041225 0.000000
0.803694 0.041225 0.000000
0.887184 0.041225 0.000000
0.887184 0.041225 0.000000
0.887184 0.041225 0.000000
0.887184 0.041225 0.000000
0.887184 0.041225 0.000000
0.887184 0.041225 0.000000
0.887184 0.041225 0.000000
0.887183 0.041225 0.000000
0.887183 0.041225 0.000000
0.887184 0.041225 0.000000
0.887184 0.041225 0.000000
0.887184 0.041225 0.000000
0.887184 0.041225 0.000000
0.887184 0.041225 0.000000
0.000000 0.076644 0.000765
0.000000 0.076644 0.000765
0.000000 0.076644 0.000765
0.000220 0.076648 0.000765
0.001486 0.076670 0.000765
0.002965 0.076696 0.000765
0.004696 0.076727 0.000765
0.006944 0.076766 0.000765
0.010096 0.076821 0.000765
0.016139 0.076973 0.000776
0.042085 0.077283 0.000983
0.076876 0.077801 0.001240
0.123461 0.079121 0.001052
0.199613 0.082261 0.000357
0.328953 0.082093 0.000000
0.508217 0.074517 0.000000
0.674146 0.074517 0.000000
0.815876 0.074517 0.000000
0.899372 0.074517 0.000000
0.899372 0.074517 0.000000
0.899372 0.074517 0.000000
0.899372 0.074517 0.000000
0.899373 0.074517 0.000000
0.899373 0.074517 0.000000
0.899373 0.074517 0.000000
0.899372 0.074517 0.000000
0.899372 0.074517 0.000000
0.899372 0.074517 0.000000
0.899372 0.074517 0.000000
0.899372 0.074517 0.000000
0.899372 0.074517 0.000000
0.899372 0.074517 0.000000
0.000000 0.118515 0.001707
0.000000 0.118515 0.001707
0.000000 0.118515 0.001707
0.000220 0.118519 0.001707
0.001486 0.118541 0.001707
0.002965 0.118567 0.001707
0.004696 0.118598 0.001707
0.006944 0.118637 0.001707
0.010096 0.118692 0.001707
0.016124 0.118868 0.001716
0.041449 0.120108 0.001820
0.075745 0.121370 0.001994
0.125536 0.124952 0.001806
0.206212 0.131297 0.000357
0.341880 0.135146 0.000000
0.528691 0.117778 0.000000
0.694710 0.111297 0.000000
0.836692 0.111297 0.000000
0.920502 0.111297 0.000000
0.920502 0.111297 0.000000
0.920502 0.111297 0.000000
0.920503 0.111297 0.000000
0.920503 0.111297 0.000000
0.920503 0.111297 0.000000
0.920503 0.111297 0.000000
0.920503 0.111297 0.000000
0.920503 0.111297 0.000000
0.920502 0.111297 0.000000
0.920502 0.111297 0.000000
0.920502 0.111297 0.000000
0.920502 0.111297 0.000000
0.920502 0.111297 0.000000
0.000000 0.180887 0.002986
0.000000 0.180887 0.002986
0.000000 0.180887 0.002986
0.000220 0.180894 0.002986
0.001486 0.180939 0.002986
0.002965 0.180991 0.002986
0.004696 0.181051 0.002986
0.006944 0.181130 0.002986
0.010096 0.181241 0.002986
0.016106 0.181527 0.002995
0.041225 0.183697 0.003099
0.075011 0.186391 0.003205
0.124048 0.194122 0.002450
0.214263 0.204402 0.000300
0.360406 0.214603 0.000000
0.556950 0.209974 0.000000
0.727052 0.190600 0.000000
0.868470 0.202185 0.000000
0.952249 0.204573 0.000000
0.952249 0.204573 0.000000
0.952249 0.204573 0.000000
0.952249 0.204573 0.000000
0.952249 0.204573 0.000000
0.952249 0.204573 0.000000
0.952249 0.204573 0.000000
0.952249 0.204573 0.000000
0.952249 0.204573 0.000000
0.952250 0.204573 0.000000
0.952250 0.204573 0.000000
0.952250 0.204573 0.000000
0.952248 0.204573 0.000000
0.952248 0.204573 0.000000
0.000000 0.280286 0.002146
0.000000 0.280286 0.002146
0.000000 0.280286 0.002146
0.000220 0.280306 0.002146
0.001486 0.280417 0.002146
0.002965 0.280546 0.002146
0.004696 0.280681 0.002146
0.006944 0.280839 0.002146
0.010096 0.281060 0.002146
0.016106 0.281679 0.002146
0.041225 0.285239 0.002052
0.074517 0.289584 0.001788
0.112075 0.302911 0.000621
0.214041 0.321534 0.000038
0.386949 0.342797 0.000000
0.596829 0.353983 0.000000
0.770730 0.350105 0.000000
0.911439 0.363254 0.000000
0.990700 0.366029 0.000000
0.990700 0.366029 0.000000
0.990700 0.366029 0.000000
0.990700 0.366029 0.000000
0.990700 0.366029 0.000000
0.990700 0.366029 0.000000
0.990700 0.366029 0.000000
0.990700 0.366029 0.000000
0.990700 0.366029 0.000000
0.990700 0.366029 0.000000
0.990700 0.366029 0.000000
0.990700 0.366029 0.000000
0.990700 0.366029 0.000000
0.990700 0.366029 0.000000
0.000000 0.415350 0.000000
0.000000 0.415350 0.000000
0.000000 0.415350 0.000000
0.000220 0.415389 0.000000
0.001486 0.415611 0.000000
0.002965 0.415857 0.000000
0.004696 0.416070 0.000000
0.006944 0.416346 0.000000
0.010096 0.416733 0.000000
0.016106 0.417734 0.000000
0.041225 0.423249 0.000000
0.074517 0.430536 0.000000
0.111297 0.449144 0.000000
0.191379 0.481933 0.000000
0.407669 0.518532 0.000000
0.640151 0.546735 0.000000
0.821785 0.552457 0.000000
0.960916 0.562501 0.000000
1.000000 0.564296 0.000000
1.000000 0.564296 0.000000
1.000000 0.564296 0.000000
1.000000 0.564296 0.000000
1.000000 0.564296 0.000000
1.000000 0.564296 0.000000
1.000000 0.564296 0.000000
1.000000 0.564296 0.000000
1.000000 0.564296 0.000000
1.000000 0.564296 0.000000
1.000000 0.564296 0.000000
1.000000 0.564296 0.000000
1.000000 0.564296 0.000000
1.000000 0.564296 0.000000
0.000000 0.549130 0.000000
0.000000 0.549130 0.000000
0.000000 0.549130 0.000000
0.000220 0.549188 0.000000
0.001486 0.549521 0.000000
0.002965 0.549911 0.000000
0.004696 0.550366 0.000000
0.006944 0.550958 0.000000
0.010096 0.551787 0.000000
0.016106 0.553284 0.000000
0.041225 0.561145 0.000000
0.074517 0.571527 0.000000
0.111297 0.593400 0.000000
0.161402 0.633683 0.000000
0.415326 0.680529 0.000000
0.663221 0.721261 0.000000
0.853437 0.737089 0.000000
0.985612 0.743971 0.000000
1.000000 0.744856 0.000000
1.000000 0.744856 0.000000
1.000000 0.744856 0.000000
1.000000 0.744856 0.000000
1.000000 0.744856 0.000000
1.000000 0.744856 0.000000
1.000000 0.744856 0.000000
1.000000 0.744856 0.000000
1.000000 0.744856 0.000000
1.000000 0.744856 0.000000
1.000000 0.744856 0.000000
1.000000 0.744856 0.000000
1.000000 0.744856 0.000000
1.000000 0.744856 0.000000
0.000000 0.688494 0.000000
0.000000 0.688494 0.000000
0.000000 0.688494 0.000000
0.000220 0.688618 0.000000
0.001486 0.689328 0.000000
0.002965 0.690159 0.000000
0.004696 0.691125 0.000000
0.006944 0.692229 0.000000
0.010096 0.693777 0.000000
0.016106 0.696771 0.000000
0.041225 0.709273 0.000000
0.074517 0.725061 0.000000
0.111297 0.747241 0.000000
0.226305 0.781702 0.000000
0.441678 0.821847 0.000000
0.673186 0.860076 0.000000
0.862445 0.878464 0.000000
0.986290 0.891263 0.000000
1.000000 0.892079 0.000000
1.000000 0.892079 0.000000
1.000000 0.892079 0.000000
1.000000 0.892079 0.000000
1.000000 0.892079 0.000000
1.000000 0.892079 0.000000
1.000000 0.892079 0.000000
1.000000 0.892079 0.000000
1.000000 0.892079 0.000000
1.000000 0.892079 0.000000
1.000000 0.892079 0.000000
1.000000 0.892079 0.000000
1.000000 0.892079 0.000000
1.000000 0.892079 0.000000
0.000000 0.774365 0.000000
0.000000 0.774365 0.000000
0.000000 0.774365 0.000000
0.000220 0.774484 0.000000
0.001486 0.775173 0.000000
0.002965 0.775977 0.000000
0.004696 0.776919 0.000000
0.006944 0.778141 0.000000
0.010096 0.779855 0.000000
0.016106 0.783050 0.000000
0.041225 0.795865 0.000000
0.074517 0.812962 0.000000
0.111297 0.835035 0.000000
0.236611 0.868060 0.000000
0.447881 0.906886 0.000000
0.674655 0.943734 0.000000
0.863049 0.961953 0.000000
0.986290 0.975502 0.000000
1.000000 0.976318 0.000000
1.000000 0.976318 0.000000
1.000000 0.976318 0.000000
1.000000 0.976318 0.000000
1.000000 0.976318 0.000000
1.000000 0.976318 0.000000
1.000000 0.976318 0.000000
1.000000 0.976318 0.000000
1.000000 0.976318 0.000000
1.000000 0.976318 0.000000
1.000000 0.976318 0.000000
1.000000 0.976318 0.000000
1.000000 0.976318 0.000000
1.000000 0.976318 0.000000
0.000000 0.774365 0.000000
0.000000 0.774365 0.000000
0.000000 0.774365 0.000000
0.000220 0.774484 0.000000
0.001486 0.775173 0.000000
0.002965 0.775977 0.000000
0.004696 0.776919 0.000000
0.006944 0.778141 0.000000
0.010096 0.779855 0.000000
0.016106 0.783050 0.000000
0.041225 0.795865 0.000000
0.074517 0.812962 0.000000
0.111297 0.835035 0.000000
0.236611 0.868060 0.000000
0.447881 0.906886 0.000000
0.674655 0.943734 0.000000
0.863049 0.961953 0.000000
0.986290 0.975502 0.000000
1.000000 0.976318 0.000000
1.000000 0.976318 0.000000
1.000000 0.976318 0.000000
1.000000 0.976318 0.000000
1.000000 0.976318 0.000000
1.000000 0.976318 0.000000
1.000000 0.976318 0.000000
1.000000 0.976318 0.000000
1.000000 0.976318 0.000000
1.000000 0.976318 0.000000
1.000000 0.976318 0.000000
1.000000 0.976318 0.000000
1.000000 0.976318 0.000000
1.000000 0.976318 0.000000
0.000000 0.774365 0.000000
0.000000 0.774365 0.000000
0.000000 0.774365 0.000000
0.000220 0.774484 0.000000
0.001486 0.775173 0.000000
0.002965 0.775977 0.000000
0.004696 0.776919 0.000000
0.006944 0.778141 0.000000
0.010096 0.779855 0.000000
0.016106 0.783050 0.000000
0.041225 0.795865 0.000000
0.074517 0.812962 0.000000
0.111297 0.835035 0.000000
0.236611 0.868060 0.000000
0.447881 0.906886 0.000000
0.674655 0.943734 0.000000
0.863049 0.961953 0.000000
0.986290 0.975502 0.000000
1.000000 0.976318 0.000000
1.000000 0.976318 0.000000
1.000000 0.976318 0.000000
1.000000 0.976318 0.000000
1.000000 0.976318 0.000000
1.000000 0.976318 0.000000
1.000000 0.976318 0.000000
1.000000 0.976318 0.000000
1.000000 0.976318 0.000000
1.000000 0.976318 0.000000
1.000000 0.976318 0.000000
1.000000 0.976318 0.000000
1.000000 0.976318 0.000000
1.000000 0.976318 0.000000
0.000000 0.774365 0.000000
0.000000 0.774365 0.000000
0.000000 0.774365 0.000000
0.000220 0.774484 0.000000
0.001486 0.775173 0.000000
0.002965 0.775977 0.000000
0.004696 0.776919 0.000000
0.006944 0.778141 0.000000
0.010096 0.779855 0.000000
0.016106 0.783050 0.000000
0.041225 0.795865 0.000000
0.074517 0.812962 0.000000
0.111297 0.835035 0.000000
0.236611 0.868060 0.000000
0.447881 0.906886 0.000000
0.674655 0.943734 0.000000
0.863049 0.961953 0.000000
0.986290 0.975502 0.000000
1.000000 0.976318 0.000000
1.000000 0.976318 0.000000
1.000000 0.976318 0.000000
1.000000 0.976318 0.000000
1.000000 0.976318 0.000000
1.000000 0.976318 0.000000
1.000000 0.976318 0.000000
1.000000 0.976318 0.000000
1.000000 0.976318 0.000000
1.000000 0.976318 0.000000
1.000000 0.976318 0.000000
1.000000 0.976318 0.000000
1.000000 0.976318 0.000000
1.000000 0.976318 0.000000
0.000000 0.774365 0.000000
0.000000 0.774365 0.000000
0.000000 0.774365 0.000000
0.000220 0.774484 0.000000
0.001486 0.775173 0.000000
0.002965 0.775977 0.000000
0.004696 0.776919 0.000000
0.006944 0.778141 0.000000
0.010096 0.779855 0.000000
0.016106 0.783050 0.000000
0.041225 0.795865 0.000000
0.074517 0.812962 0.000000
0.111297 0.835035 0.000000
0.236611 0.868060 0.000000
0.447881 0.906886 0.000000
0.674655 0.943734 0.000000
0.863049 0.961953 0.000000
0.986290 0.975502 0.000000
1.000000 0.976318 0.000000
1.000000 0.976318 0.000000
1.000000 0.976318 0.000000
1.000000 0.976318 0.000000
1.000000 0.976318 0.000000
1.000000 0.976318 0.000000
1.000000 0.976318 0.000000
1.000000 0.976318 0.000000
1.000000 0.976318 0.000000
1.000000 0.976318 0.000000
1.000000 0.976318 0.000000
1.000000 0.976318 0.000000
1.000000 0.976318 0.000000
1.000000 0.976318 0.000000
0.000000 0.774365 0.000000
0.000000 0.774365 0.000000
0.000000 0.774365 0.000000
0.000220 0.774485 0.000000
0.001486 0.775173 0.000000
0.002965 0.775978 0.000000
0.004696 0.776919 0.000000
0.006944 0.778141 0.000000
0.010096 0.779856 0.000000
0.016106 0.783050 0.000000
0.041225 0.795865 0.000000
0.074517 0.812963 0.000000
0.111297 0.835035 0.000000
0.236611 0.868060 0.000000
0.447881 0.906886 0.000000
0.674655 0.943734 0.000000
0.863049 0.961953 0.000000
0.986290 0.975502 0.000000
1.000000 0.976318 0.000000
1.000000 0.976318 0.000000
1.000000 0.976318 0.000000
1.000000 0.976318 0.000000
1.000000 0.976318 0.000000
1.000000 0.976318 0.000000
1.000000 0.976318 0.000000
1.000000 0.976318 0.000000
1.000000 0.976318 0.000000
1.000000 0.976318 0.000000
1.000000 0.976318 0.000000
1.000000 0.976318 0.000000
1.000000 0.976318 0.000000
1.000000 0.976318 0.000000
0.000000 0.774365 0.000000
0.000000 0.774365 0.000000
0.000000 0.774365 0.000000
0.000220 0.774485 0.000000
0.001486 0.775173 0.000000
0.002965 0.775978 0.000000
0.004696 0.776919 0.000000
0.006944 0.778141 0.000000
0.010096 0.779856 0.000000
0.016106 0.783050 0.000000
0.041225 0.795865 0.000000
0.074517 0.812963 0.000000
0.111297 0.835035 0.000000
0.236611 0.868060 0.000000
0.447881 0.906886 0.000000
0.674655 0.943734 0.000000
0.863049 0.961953 0.000000
0.986290 0.975502 0.000000
1.000000 0.976318 0.000000
1.000000 0.976318 0.000000
1.000000 0.976318 0.000000
1.000000 0.976318 0.000000
1.000000 0.976318 0.000000
1.000000 0.976318 0.000000
1.000000 0.976318 0.000000
1.000000 0.976318 0.000000
1.000000 0.976318 0.000000
1.000000 0.976318 0.000000
1.000000 0.976318 0.000000
1.000000 0.976318 0.000000
1.000000 0.976318 0.000000
1.000000 0.976318 0.000000
0.000000 0.774364 0.000000
0.000000 0.774364 0.000000
0.000000 0.774364 0.000000
0.000220 0.774485 0.000000
0.001486 0.775173 0.000000
0.002965 0.775977 0.000000
0.004696 0.776918 0.000000
0.006944 0.778141 0.000000
0.010096 0.779856 0.000000
0.016106 0.783051 0.000000
0.041225 0.795865 0.000000
0.074517 0.812963 0.000000
0.111297 0.835035 0.000000
0.236611 0.868060 0.000000
0.447881 0.906886 0.000000
0.674655 0.943734 0.000000
0.863049 0.961953 0.000000
0.986290 0.975502 0.000000
1.000000 0.976318 0.000000
1.000000 0.976318 0.000000
1.000000 0.976318 0.000000
1.000000 0.976318 0.000000
1.000000 0.976318 0.000000
1.000000 0.976318 0.000000
1.000000 0.976318 0.000000
1.000000 0.976318 0.000000
1.000000 0.976318 0.000000
1.000000 0.976318 0.000000
1.000000 0.976318 0.000000
1.000000 0.976318 0.000000
1.000000 0.976318 0.000000
1.000000 0.976318 0.000000
0.000000 0.774364 0.000000
0.000000 0.774364 0.000000
0.000000 0.774364 0.000000
0.000220 0.774485 0.000000
0.001486 0.775173 0.000000
0.002965 0.775977 0.000000
0.004696 0.776918 0.000000
0.006944 0.778141 0.000000
0.010096 0.779856 0.000000
0.016106 0.783051 0.000000
0.041225 0.795865 0.000000
0.074517 0.812963 0.000000
0.111297 0.835035 0.000000
0.236611 0.868060 0.000000
0.447881 0.906886 0.000000
0.674654 0.943734 0.000000
0.863049 0.961953 0.000000
0.986290 0.975502 0.000000
1.000000 0.976318 0.000000
1.000000 0.976318 0.000000
1.000000 0.976318 0.000000
1.000000 0.976318 0.000000
1.000000 0.976318 0.000000
1.000000 0.976318 0.000000
1.000000 0.976318 0.000000
1.000000 0.976318 0.000000
1.000000 0.976318 0.000000
1.000000 0.976318 0.000000
1.000000 0.976318 0.000000
1.000000 0.976318 0.000000
1.000000 0.976318 0.000000
1.000000 0.976318 0.000000
0.000000 0.774364 0.000000
0.000000 0.774364 0.000000
0.000000 0.774364 0.000000
0.000220 0.774485 0.000000
0.001486 0.775173 0.000000
0.002965 0.775978 0.000000
0.004696 0.776918 0.000000
0.006944 0.778141 0.000000
0.010096 0.779856 0.000000
0.016106 0.783051 0.000000
0.041225 0.795864 0.000000
0.074517 0.812962 0.000000
0.111297 0.835035 0.000000
0.236611 0.868061 0.000000
0.447881 0.906887 0.000000
0.674655 0.943733 0.000000
0.863049 0.961952 0.000000
0.986290 0.975502 0.000000
