Assets/Art/Materials/LUT/Fifties.CUBE
#Created by: Adobe Photoshop Export Color Lookup Plugin
TITLE "Frame.exr"
#LUT size
LUT_3D_SIZE 5
#data domain
#LUT data points
DOMAIN_MIN 0.000000 0.000000 0.000000
DOMAIN_MAX 0.903226 0.903226 0.903226
0.000000 0.000000 0.000000
0.007066 0.000000 0.000122
0.308821 0.002325 0.000000
0.873259 0.000000 0.000000
0.873259 0.000000 0.000000
0.000000 0.007066 0.000000
0.007066 0.007066 0.000122
0.310788 0.009382 0.000000
0.875329 0.006944 0.000000
0.875330 0.006944 0.000000
0.000000 0.280286 0.002146
0.006944 0.280839 0.002146
0.386949 0.342797 0.000000
0.990700 0.366029 0.000000
0.990700 0.366029 0.000000
0.000000 0.774365 0.000000
0.006944 0.778141 0.000000
0.447881 0.906886 0.000000
1.000000 0.976318 0.000000
1.000000 0.976318 0.000000
0.000000 0.774364 0.000000
0.006944 0.778141 0.000000
0.447881 0.906887 0.000000
1.000000 0.976318 0.000000
1.000000 0.976318 0.000000
0.000000 0.000000 0.007066
0.007066 0.000000 0.007066
0.309552 0.002325 0.006944
0.873868 0.000000 0.006944
0.873867 0.000000 0.006944
0.000000 0.007066 0.007066
0.007066 0.007066 0.007187
0.311462 0.009382 0.006944
0.876060 0.006944 0.006944
0.876060 0.006944 0.006944
0.000000 0.280961 0.009260
0.006944 0.281579 0.009260
0.387932 0.343967 0.006944
0.991209 0.367378 0.006944
0.991209 0.367378 0.006944
0.000000 0.775583 0.006944
0.006944 0.779360 0.006944
0.447411 0.908527 0.006944
1.000000 0.977902 0.006944
1.000000 0.977902 0.006944
0.000000 0.775583 0.006944
0.006944 0.779360 0.006944
0.447411 0.908527 0.006944
1.000000 0.977901 0.006944
1.000000 0.977901 0.006944
0.000000 0.000000 0.288959
0.006944 0.000000 0.289203
0.320804 0.000000 0.310374
0.892889 0.000000 0.316611
0.892889 0.000000 0.316611
0.000000 0.006944 0.289942
0.006944 0.006944 0.290186
0.322958 0.006944 0.311545
0.895326 0.006944 0.317838
0.895327 0.006944 0.317838
0.000000 0.305463 0.345505
0.006944 0.306081 0.346001
0.387894 0.383068 0.372164
1.000000 0.412835 0.374216
1.000000 0.412835 0.374216
0.000000 0.808826 0.427019
0.006944 0.812659 0.428368
0.389766 0.960023 0.453726
1.000000 1.000000 0.449791
1.000000 1.000000 0.449791
0.000000 0.808826 0.427019
0.006944 0.812658 0.428368
0.389766 0.960024 0.453726
1.000000 1.000000 0.449791
1.000000 1.000000 0.449791
0.000000 0.000000 0.794629
0.006944 0.000000 0.795238
0.351015 0.000000 0.842244
0.943587 0.000000 0.874235
0.943588 0.000000 0.874235
0.000000 0.006944 0.796943
0.006944 0.006944 0.797553
0.354309 0.006944 0.844989
0.947120 0.006944 0.876915
0.947121 0.006944 0.876915
0.000000 0.335333 0.865506
0.006944 0.336195 0.866358
0.363423 0.431540 0.922253
1.000000 0.464505 0.950352
1.000000 0.464505 0.950352
0.000000 0.828077 0.913558
0.006944 0.831861 0.915141
0.292312 0.979739 0.964318
1.000000 1.000000 0.986084
1.000000 1.000000 0.986084
0.000000 0.828077 0.913558
0.006944 0.831861 0.915141
0.292312 0.979738 0.964318
1.000000 1.000000 0.986084
1.000000 1.000000 0.986084
0.000000 0.000000 0.794628
0.006944 0.000000 0.795238
0.351015 0.000000 0.842243
0.943587 0.000000 0.874235
0.943588 0.000000 0.874235
0.000000 0.006944 0.796944
0.006944 0.006944 0.797552
0.354309 0.006944 0.844990
0.947120 0.006944 0.876915
0.947121 0.006944 0.876915
0.000000 0.335333 0.865505
0.006944 0.336195 0.866358
0.363423 0.431540 0.922253
1.000000 0.464505 0.950352
1.000000 0.464505 0.950352
0.000000 0.828077 0.913557
0.006944 0.831861 0.915142
0.292312 0.979739 0.964317
1.000000 1.000000 0.986084
1.000000 1.000000 0.986084
0.000000 0.828077 0.913557
0.006944 0.831861 0.915142
0.292312 0.979738 0.964317
1.000000 1.000000 0.986084
1.000000 1.000000 0.986084
