Assets/Art/Materials/LUT/Fifties.CUBE
#Created by: Adobe Photoshop Export Color Lookup Plugin
TITLE "Frame.exr"
#LUT size
LUT_3D_SIZE 8
#data domain
#LUT data points
DOMAIN_MIN 0.000000 0.000000 0.000000
DOMAIN_MAX 0.903226 0.903226 0.903226
0.000000 0.000000 0.000000
0.001512 0.000000 0.000026
0.010273 0.000000 0.000177
0.120026 0.001268 0.000293
0.645271 0.000000 0.000000
0.873259 0.000000 0.000000
0.873259 0.000000 0.000000
0.873259 0.000000 0.000000
0.000000 0.001512 0.000000
0.001512 0.001512 0.000026
0.010273 0.001512 0.000177
0.120104 0.002780 0.000319
0.645818 0.001486 0.000000
0.873702 0.001486 0.000000
0.873702 0.001486 0.000000
0.873701 0.001486 0.000000
0.000000 0.010273 0.000000
0.001512 0.010273 0.000026
0.010273 0.010273 0.000177
0.120558 0.011541 0.000470
0.648990 0.010096 0.000000
0.876270 0.010096 0.000000
0.876269 0.010096 0.000000
0.876270 0.010096 0.000000
0.000000 0.118515 0.001707
0.001486 0.118541 0.001707
0.010096 0.118692 0.001707
0.125536 0.124952 0.001806
0.694710 0.111297 0.000000
0.920502 0.111297 0.000000
0.920503 0.111297 0.000000
0.920502 0.111297 0.000000
0.000000 0.549130 0.000000
0.001486 0.549521 0.000000
0.010096 0.551787 0.000000
0.111297 0.593400 0.000000
0.853437 0.737089 0.000000
1.000000 0.744856 0.000000
1.000000 0.744856 0.000000
1.000000 0.744856 0.000000
0.000000 0.774365 0.000000
0.001486 0.775173 0.000000
0.010096 0.779855 0.000000
0.111297 0.835035 0.000000
0.863049 0.961953 0.000000
1.000000 0.976318 0.000000
1.000000 0.976318 0.000000
1.000000 0.976318 0.000000
0.000000 0.774365 0.000000
0.001486 0.775173 0.000000
0.010096 0.779856 0.000000
0.111297 0.835035 0.000000
0.863049 0.961953 0.000000
1.000000 0.976318 0.000000
1.000000 0.976318 0.000000
1.000000 0.976318 0.000000
0.000000 0.774364 0.000000
0.001486 0.775173 0.000000
0.010096 0.779856 0.000000
0.111297 0.835035 0.000000
0.863049 0.961952 0.000000
1.000000 0.976318 0.000000
1.000000 0.976318 0.000000
1.000000 0.976318 0.000000
0.000000 0.000000 0.001512
0.001512 0.000000 0.001512
0.010273 0.000000 0.001663
0.120052 0.001268 0.001805
0.645427 0.000000 0.001486
0.873389 0.000000 0.001486
0.873389 0.000000 0.001486
0.873388 0.000000 0.001486
0.000000 0.001512 0.001512
0.001512 0.001512 0.001538
0.010273 0.001512 0.001689
0.120131 0.002806 0.001831
0.645975 0.001486 0.001486
0.873858 0.001486 0.001486
0.873858 0.001486 0.001486
0.873857 0.001486 0.001486
0.000000 0.010273 0.001512
0.001512 0.010273 0.001538
0.010273 0.010273 0.001689
0.120584 0.011567 0.001982
0.649147 0.010096 0.001486
0.876426 0.010096 0.001486
0.876426 0.010096 0.001486
0.876427 0.010096 0.001486
0.000000 0.118541 0.003219
0.001486 0.118567 0.003219
0.010096 0.118719 0.003219
0.125562 0.125004 0.003344
0.694919 0.111297 0.001486
0.920685 0.111297 0.001486
0.920685 0.111297 0.001486
0.920685 0.111297 0.001486
0.000000 0.549313 0.001486
0.001486 0.549678 0.001486
0.010096 0.551943 0.001486
0.111297 0.593608 0.001486
0.853646 0.737376 0.001486
1.000000 0.745247 0.001486
1.000000 0.745247 0.001486
1.000000 0.745247 0.001486
0.000000 0.774626 0.001486
0.001486 0.775434 0.001486
0.010096 0.780116 0.001486
0.111297 0.835296 0.001486
0.863154 0.962292 0.001486
1.000000 0.976657 0.001486
1.000000 0.976657 0.001486
1.000000 0.976657 0.001486
0.000000 0.774626 0.001486
0.001486 0.775434 0.001486
0.010096 0.780116 0.001486
0.111297 0.835296 0.001486
0.863154 0.962292 0.001486
1.000000 0.976657 0.001486
1.000000 0.976657 0.001486
1.000000 0.976657 0.001486
0.000000 0.774626 0.001486
0.001486 0.775434 0.001486
0.010096 0.780117 0.001486
0.111297 0.835297 0.001486
0.863154 0.962292 0.001486
1.000000 0.976656 0.001486
1.000000 0.976656 0.001486
1.000000 0.976656 0.001486
0.000000 0.000000 0.010273
0.001512 0.000000 0.010273
0.010273 0.000000 0.010273
0.120203 0.001268 0.010566
0.646334 0.000000 0.010096
0.874144 0.000000 0.010096
0.874144 0.000000 0.010096
0.874144 0.000000 0.010096
0.000000 0.001512 0.010273
0.001512 0.001512 0.010299
0.010273 0.001512 0.010299
0.120282 0.002806 0.010592
0.646881 0.001486 0.010096
0.874613 0.001486 0.010096
0.874613 0.001486 0.010096
0.874613 0.001486 0.010096
0.000000 0.010273 0.010273
0.001512 0.010273 0.010299
0.010273 0.010273 0.010450
0.120735 0.011718 0.010743
0.650053 0.010096 0.010096
0.877332 0.010096 0.010096
0.877332 0.010096 0.010096
0.877333 0.010096 0.010096
0.000000 0.118692 0.011980
0.001486 0.118719 0.011980
0.010096 0.118870 0.011980
0.125713 0.125306 0.012256
0.696127 0.111297 0.010096
0.921742 0.111297 0.010096
0.921742 0.111297 0.010096
0.921741 0.111297 0.010096
0.000000 0.550370 0.010096
0.001486 0.550735 0.010096
0.010096 0.552850 0.010096
0.111297 0.594817 0.010096
0.854854 0.739037 0.010096
1.000000 0.747513 0.010096
1.000000 0.747513 0.010096
1.000000 0.747513 0.010096
0.000000 0.776136 0.010096
0.001486 0.776944 0.010096
0.010096 0.781627 0.010096
0.111297 0.836806 0.010096
0.863758 0.964256 0.010096
1.000000 0.978621 0.010096
1.000000 0.978621 0.010096
1.000000 0.978621 0.010096
0.000000 0.776136 0.010096
0.001486 0.776944 0.010096
0.010096 0.781627 0.010096
0.111297 0.836806 0.010096
0.863758 0.964256 0.010096
1.000000 0.978621 0.010096
1.000000 0.978621 0.010096
1.000000 0.978621 0.010096
0.000000 0.776136 0.010096
0.001486 0.776943 0.010096
0.010096 0.781626 0.010096
0.111297 0.836807 0.010096
0.863758 0.964256 0.010096
1.000000 0.978621 0.010096
1.000000 0.978621 0.010096
1.000000 0.978621 0.010096
0.000000 0.000244 0.119636
0.001486 0.000244 0.119662
0.010096 0.000244 0.119813
0.121001 0.001512 0.121734
0.656593 0.000000 0.111297
0.884434 0.000000 0.111297
0.884434 0.000000 0.111297
0.884434 0.000000 0.111297
0.000000 0.001756 0.119688
0.001486 0.001756 0.119714
0.010096 0.001756 0.119866
0.121080 0.003051 0.121786
0.657166 0.001486 0.111297
0.884929 0.001486 0.111297
0.884929 0.001486 0.111297
0.884930 0.001486 0.111297
0.000000 0.010517 0.119990
0.001486 0.010517 0.120017
0.010096 0.010517 0.120168
0.121533 0.011962 0.122088
0.660490 0.010096 0.111297
0.887799 0.010096 0.111297
0.887799 0.010096 0.111297
0.887798 0.010096 0.111297
0.000000 0.120759 0.127536
0.001486 0.120811 0.127562
0.010096 0.121113 0.127713
0.124561 0.129585 0.130414
0.708670 0.111297 0.111297
0.934608 0.111297 0.111297
0.934608 0.111297 0.111297
0.934608 0.111297 0.111297
0.000000 0.564513 0.144643
0.001486 0.564904 0.144565
0.010096 0.567170 0.144112
0.111297 0.611110 0.128068
0.863786 0.760622 0.111297
1.000000 0.774049 0.111297
1.000000 0.774049 0.111297
1.000000 0.774049 0.111297
0.000000 0.791690 0.204997
0.001486 0.792498 0.205075
0.010096 0.797180 0.205529
0.111297 0.853922 0.204593
0.864176 0.990807 0.115002
1.000000 0.998772 0.115782
1.000000 0.998772 0.115782
1.000000 0.998772 0.115782
0.000000 0.791690 0.204997
0.001486 0.792498 0.205075
0.010096 0.797181 0.205529
0.111297 0.853922 0.204593
0.864176 0.990807 0.115002
1.000000 0.998772 0.115782
1.000000 0.998772 0.115782
1.000000 0.998772 0.115782
0.000000 0.791689 0.204997
0.001486 0.792498 0.205075
0.010096 0.797180 0.205529
0.111297 0.853922 0.204593
0.864176 0.990807 0.115002
1.000000 0.998772 0.115782
1.000000 0.998772 0.115782
1.000000 0.998772 0.115782
0.000000 0.000000 0.556804
0.001486 0.000000 0.556856
0.010096 0.000000 0.557158
0.111297 0.000000 0.569598
0.673255 0.000000 0.615717
0.901596 0.000000 0.622795
0.901596 0.000000 0.622795
0.901596 0.000000 0.622795
0.000000 0.001486 0.557223
0.001486 0.001486 0.557301
0.010096 0.001486 0.557603
0.111297 0.001486 0.570067
0.673959 0.001486 0.616239
0.902248 0.001486 0.623344
0.902247 0.001486 0.623344
0.902248 0.001486 0.623344
0.000000 0.010096 0.559649
0.001486 0.010096 0.559727
0.010096 0.010096 0.560180
0.111297 0.010096 0.572786
0.678037 0.010096 0.619260
0.906024 0.010096 0.626526
0.906024 0.010096 0.626526
0.906023 0.010096 0.626526
0.000000 0.111492 0.593856
0.001486 0.111492 0.593960
0.010096 0.111492 0.594565
0.111492 0.122022 0.610151
0.730168 0.111297 0.659747
0.957864 0.111492 0.668633
0.957864 0.111492 0.668633
0.957863 0.111492 0.668633
0.000000 0.604177 0.688437
0.001486 0.604568 0.688647
0.010096 0.606834 0.689865
0.111297 0.649421 0.709774
0.845475 0.822766 0.761426
1.000000 0.827741 0.762255
1.000000 0.827741 0.762255
1.000000 0.827741 0.762255
0.000000 0.823196 0.704110
0.001486 0.823978 0.704449
0.010096 0.828509 0.706413
0.111297 0.883673 0.728511
0.844010 1.000000 0.771859
1.000000 1.000000 0.772688
1.000000 1.000000 0.772688
1.000000 1.000000 0.772688
0.000000 0.823196 0.704110
0.001486 0.823978 0.704449
0.010096 0.828509 0.706413
0.111297 0.883673 0.728511
0.844010 1.000000 0.771859
1.000000 1.000000 0.772688
1.000000 1.000000 0.772688
1.000000 1.000000 0.772688
0.000000 0.823196 0.704110
0.001486 0.823978 0.704449
0.010096 0.828510 0.706413
0.111297 0.883673 0.728511
0.844010 1.000000 0.771859
1.000000 1.000000 0.772688
1.000000 1.000000 0.772688
1.000000 1.000000 0.772688
0.000000 0.000000 0.794629
0.001486 0.000000 0.794759
0.010096 0.000000 0.795514
0.111297 0.000000 0.811461
0.714720 0.000000 0.864911
0.943587 0.000000 0.874235
0.943587 0.000000 0.874235
0.943588 0.000000 0.874235
0.000000 0.001486 0.795124
0.001486 0.001486 0.795254
0.010096 0.001486 0.796010
0.111636 0.001486 0.812008
0.715450 0.001486 0.865485
0.944343 0.001486 0.874809
0.944344 0.001486 0.874809
0.944344 0.001486 0.874809
0.000000 0.010096 0.797994
0.001486 0.010096 0.798124
0.010096 0.010096 0.798880
0.113600 0.010096 0.815180
0.719679 0.010096 0.868808
0.948724 0.010096 0.878132
0.948724 0.010096 0.878132
0.948725 0.010096 0.878132
0.000000 0.145680 0.828060
0.001486 0.145810 0.828216
0.010096 0.146565 0.829122
0.111297 0.167302 0.847295
0.761493 0.180284 0.903820
0.988018 0.205808 0.912025
0.988019 0.205808 0.912025
0.988018 0.205808 0.912025
0.000000 0.607153 0.901840
0.001486 0.607622 0.902101
0.010096 0.610341 0.903611
0.111297 0.654497 0.924486
0.841477 0.824325 0.981792
1.000000 0.829153 0.982864
1.000000 0.829153 0.982864
1.000000 0.829153 0.982864
0.000000 0.828077 0.913558
0.001486 0.828886 0.913897
0.010096 0.833578 0.915860
0.111297 0.887043 0.937521
0.839523 1.000000 0.984865
1.000000 1.000000 0.986084
1.000000 1.000000 0.986084
1.000000 1.000000 0.986084
0.000000 0.828076 0.913558
0.001486 0.828887 0.913897
0.010096 0.833578 0.915860
0.111297 0.887043 0.937521
0.839523 1.000000 0.984865
1.000000 1.000000 0.986084
1.000000 1.000000 0.986084
1.000000 1.000000 0.986084
0.000000 0.828077 0.913558
0.001486 0.828886 0.913897
0.010096 0.833578 0.915860
0.111297 0.887043 0.937521
0.839523 1.000000 0.984865
1.000000 1.000000 0.986084
1.000000 1.000000 0.986084
1.000000 1.000000 0.986084
0.000000 0.000000 0.794629
0.001486 0.000000 0.794759
0.010096 0.000000 0.795515
0.111297 0.000000 0.811461
0.714720 0.000000 0.864912
0.943587 0.000000 0.874235
0.943587 0.000000 0.874235
0.943588 0.000000 0.874235
0.000000 0.001486 0.795124
0.001486 0.001486 0.795255
0.010096 0.001486 0.796010
0.111636 0.001486 0.812008
0.715450 0.001486 0.865485
0.944343 0.001486 0.874809
0.944344 0.001486 0.874809
0.944344 0.001486 0.874809
0.000000 0.010096 0.797994
0.001486 0.010096 0.798124
0.010096 0.010096 0.798880
0.113600 0.010096 0.815180
0.719679 0.010096 0.868808
0.948724 0.010096 0.878132
0.948724 0.010096 0.878132
0.948725 0.010096 0.878132
0.000000 0.145680 0.828060
0.001486 0.145810 0.828216
0.010096 0.146565 0.829123
0.111297 0.167302 0.847295
0.761493 0.180284 0.903820
0.988018 0.205808 0.912025
0.988019 0.205808 0.912025
0.988018 0.205808 0.912025
0.000000 0.607153 0.901840
0.001486 0.607622 0.902101
0.010096 0.610341 0.903611
0.111297 0.654497 0.924486
0.841477 0.824325 0.981792
1.000000 0.829153 0.982863
1.000000 0.829153 0.982863
1.000000 0.829153 0.982863
0.000000 0.828077 0.913558
0.001486 0.828886 0.913897
0.010096 0.833578 0.915860
0.111297 0.887043 0.937521
0.839523 1.000000 0.984865
1.000000 1.000000 0.986084
1.000000 1.000000 0.986084
1.000000 1.000000 0.986084
0.000000 0.828076 0.913558
0.001486 0.828887 0.913897
0.010096 0.833578 0.915860
0.111297 0.887043 0.937521
0.839523 1.000000 0.984865
1.000000 1.000000 0.986084
1.000000 1.000000 0.986084
1.000000 1.000000 0.986084
0.000000 0.828077 0.913558
0.001486 0.828886 0.913897
0.010096 0.833578 0.915860
0.111297 0.887043 0.937521
0.839523 1.000000 0.984865
1.000000 1.000000 0.986084
1.000000 1.000000 0.986084
1.000000 1.000000 0.986084
0.000000 0.000000 0.794628
0.001486 0.000000 0.794760
0.010096 0.000000 0.795515
0.111297 0.000000 0.811460
0.714720 0.000000 0.864912
0.943587 0.000000 0.874235
0.943587 0.000000 0.874235
0.943588 0.000000 0.874235
0.000000 0.001486 0.795124
0.001486 0.001486 0.795254
0.010096 0.001486 0.796009
0.111636 0.001486 0.812008
0.715450 0.001486 0.865484
0.944343 0.001486 0.874809
0.944344 0.001486 0.874809
0.944344 0.001486 0.874809
0.000000 0.010096 0.797995
0.001486 0.010096 0.798124
0.010096 0.010096 0.798880
0.113600 0.010096 0.815180
0.719679 0.010096 0.868809
0.948724 0.010096 0.878132
0.948724 0.010096 0.878132
0.948725 0.010096 0.878132
0.000000 0.145680 0.828060
0.001486 0.145810 0.828217
0.010096 0.146565 0.829123
0.111297 0.167302 0.847294
0.761494 0.180284 0.903820
0.988018 0.205808 0.912025
0.988019 0.205808 0.912025
0.988018 0.205808 0.912025
0.000000 0.607153 0.901840
0.001486 0.607622 0.902102
0.010096 0.610341 0.903610
0.111297 0.654497 0.924486
0.841477 0.824325 0.981792
1.000000 0.829153 0.982864
1.000000 0.829153 0.982864
1.000000 0.829153 0.982864
0.000000 0.828077 0.913557
0.001486 0.828886 0.913897
0.010096 0.833578 0.915859
0.111297 0.887043 0.937521
0.839523 1.000000 0.984865
1.000000 1.000000 0.986084
1.000000 1.000000 0.986084
1.000000 1.000000 0.986084
0.000000 0.828076 0.913557
0.001486 0.828887 0.913897
0.010096 0.833578 0.915859
0.111297 0.887043 0.937521
0.839523 1.000000 0.984865
1.000000 1.000000 0.986084
1.000000 1.000000 0.986084
1.000000 1.000000 0.986084
0.000000 0.828077 0.913557
0.001486 0.828886 0.913897
0.010096 0.833578 0.915859
0.111297 0.887043 0.937521
0.839523 1.000000 0.984865
1.000000 1.000000 0.986084
1.000000 1.000000 0.986084
1.000000 1.000000 0.986084
