Assets/Art/Materials/LUT/Herderite.CUBE
#Created by: Adobe Photoshop Export Color Lookup Plugin
TITLE "Frame.exr"
#LUT size
LUT_3D_SIZE 5
#data domain
#LUT data points
DOMAIN_MIN 0.000000 0.000000 0.000000
DOMAIN_MAX 0.903226 0.903226 0.903226
0.000000 0.000000 0.000000
0.008245 0.000563 0.000563
0.311643 0.038728 0.039806
0.924071 0.115877 0.166690
0.924070 0.115877 0.166690
0.001293 0.006724 0.001065
0.006298 0.006967 0.001232
0.310706 0.038592 0.039061
0.924071 0.115862 0.166111
0.924070 0.115862 0.166111
0.095852 0.255206 0.079125
0.095822 0.255138 0.079103
0.271163 0.285142 0.091255
0.933170 0.283812 0.139215
0.933170 0.283812 0.139215
0.316258 0.826688 0.261021
0.316258 0.826688 0.261021
0.316258 0.826688 0.261021
0.955505 0.949645 0.314427
0.955505 0.949645 0.314427
0.316258 0.826689 0.261021
0.316258 0.826689 0.261021
0.316258 0.826689 0.261021
0.955505 0.949646 0.314427
0.955505 0.949646 0.314427
0.000517 0.000000 0.004990
0.007545 0.000882 0.005978
0.311492 0.038736 0.045442
0.924132 0.115938 0.171679
0.924131 0.115938 0.171679
0.000958 0.005507 0.005218
0.005750 0.005720 0.005613
0.310556 0.038608 0.044705
0.924132 0.115938 0.171147
0.924131 0.115938 0.171147
0.095619 0.254647 0.078929
0.095588 0.254571 0.078906
0.270793 0.284515 0.091044
0.933154 0.283037 0.145508
0.933153 0.283037 0.145508
0.316258 0.826688 0.261021
0.316258 0.826688 0.261021
0.316258 0.826688 0.261021
0.955505 0.949645 0.314427
0.955505 0.949645 0.314427
0.316258 0.826689 0.261021
0.316258 0.826689 0.261021
0.316258 0.826689 0.261021
0.955505 0.949646 0.314427
0.955505 0.949646 0.314427
0.039893 0.000000 0.168916
0.039901 0.000000 0.168931
0.279240 0.069242 0.243036
0.914753 0.132512 0.360243
0.914753 0.132512 0.360243
0.039840 0.000000 0.168712
0.039840 0.000000 0.168735
0.278371 0.069000 0.242598
0.914806 0.132437 0.359972
0.914806 0.132437 0.359972
0.073980 0.229739 0.218109
0.073958 0.229656 0.218102
0.257445 0.255891 0.246896
0.932506 0.235470 0.346137
0.932507 0.235470 0.346137
0.316258 0.826688 0.261021
0.316258 0.826688 0.261021
0.316258 0.826688 0.261021
0.955505 0.949645 0.314427
0.955505 0.949645 0.314427
0.316258 0.826689 0.261021
0.316258 0.826689 0.261021
0.316258 0.826689 0.261021
0.955505 0.949646 0.314427
0.955505 0.949646 0.314427
0.146090 0.000000 0.592065
0.146090 0.000000 0.592065
0.187047 0.015941 0.591593
0.860441 0.218143 0.826230
0.860441 0.218143 0.826230
0.146090 0.000000 0.592065
0.146090 0.000000 0.592065
0.186159 0.015477 0.591601
0.860441 0.218143 0.826230
0.860441 0.218143 0.826230
0.146090 0.000000 0.592065
0.146090 0.000000 0.592065
0.146090 0.000000 0.592065
0.860441 0.218143 0.826230
0.860441 0.218143 0.826230
0.287572 0.857191 0.825956
0.287572 0.857191 0.825956
0.287572 0.857191 0.826071
0.985656 0.979492 0.943816
0.985657 0.979492 0.943816
0.287572 0.857191 0.825956
0.287572 0.857191 0.825956
0.287572 0.857191 0.826071
0.985656 0.979492 0.943816
0.985657 0.979492 0.943816
0.146090 0.000000 0.592066
0.146090 0.000000 0.592066
0.187047 0.015941 0.591593
0.860441 0.218143 0.826231
0.860441 0.218143 0.826231
0.146090 0.000000 0.592066
0.146090 0.000000 0.592066
0.186159 0.015477 0.591600
0.860441 0.218143 0.826231
0.860441 0.218143 0.826231
0.146090 0.000000 0.592066
0.146090 0.000000 0.592066
0.146090 0.000000 0.592066
0.860441 0.218143 0.826231
0.860441 0.218143 0.826231
0.287572 0.857191 0.825956
0.287572 0.857191 0.825956
0.287572 0.857191 0.826071
0.985656 0.979492 0.943817
0.985657 0.979492 0.943817
0.287572 0.857191 0.825956
0.287572 0.857191 0.825956
0.287572 0.857191 0.826071
0.985656 0.979492 0.943817
0.985657 0.979492 0.943817
