Assets/Art/Materials/LUT/Herderite.CUBE
#Created by: Adobe Photoshop Export Color Lookup Plugin
TITLE "Frame.exr"
#LUT size
LUT_3D_SIZE 8
#data domain
#LUT data points
DOMAIN_MIN 0.000000 0.000000 0.000000
DOMAIN_MAX 0.903226 0.903226 0.903226
0.000000 0.000000 0.000000
0.001764 0.000120 0.000120
0.012557 0.000866 0.000887
0.073389 0.006809 0.006934
0.890679 0.112247 0.141377
0.924071 0.115877 0.166690
0.924071 0.115877 0.166690
0.924070 0.115877 0.166690
0.000277 0.001439 0.000228
0.001348 0.001491 0.000264
0.012046 0.002191 0.000988
0.072973 0.007844 0.006800
0.890656 0.112244 0.141237
0.924071 0.115874 0.166566
0.924071 0.115874 0.166566
0.924070 0.115874 0.166566
0.001962 0.010133 0.001624
0.002584 0.010146 0.001640
0.009479 0.010487 0.001860
0.070400 0.015179 0.006362
0.890498 0.112225 0.140359
0.924064 0.115862 0.165822
0.924064 0.115862 0.165822
0.924065 0.115862 0.165822
0.015636 0.059174 0.012925
0.015626 0.059141 0.012919
0.015556 0.058927 0.012855
0.058280 0.063006 0.014757
0.889642 0.112098 0.135386
0.924007 0.115807 0.161702
0.924007 0.115807 0.161702
0.924007 0.115807 0.161702
0.296175 0.762105 0.244466
0.296175 0.762102 0.244466
0.296175 0.762089 0.244466
0.296145 0.762019 0.244451
0.847285 0.867578 0.289949
0.943546 0.878185 0.303216
0.943545 0.878185 0.303216
0.943546 0.878185 0.303216
0.316258 0.826688 0.261021
0.316258 0.826688 0.261021
0.316258 0.826688 0.261021
0.316258 0.826688 0.261021
0.805783 0.935035 0.300637
0.955505 0.949645 0.314427
0.955505 0.949645 0.314427
0.955505 0.949645 0.314427
0.316258 0.826688 0.261021
0.316258 0.826688 0.261021
0.316258 0.826688 0.261021
0.316258 0.826688 0.261021
0.805783 0.935035 0.300637
0.955505 0.949645 0.314427
0.955505 0.949645 0.314427
0.955505 0.949645 0.314427
0.316258 0.826689 0.261021
0.316258 0.826689 0.261021
0.316258 0.826689 0.261021
0.316258 0.826689 0.261021
0.805783 0.935036 0.300637
0.955505 0.949646 0.314427
0.955505 0.949646 0.314427
0.955505 0.949646 0.314427
0.000111 0.000000 0.001068
0.001615 0.000189 0.001279
0.012398 0.000935 0.002065
0.073305 0.006806 0.008135
0.890686 0.112257 0.142562
0.924084 0.115890 0.167757
0.924084 0.115890 0.167757
0.924084 0.115890 0.167757
0.000205 0.001178 0.001117
0.001231 0.001224 0.001201
0.011952 0.001921 0.001948
0.072875 0.007554 0.007972
0.890660 0.112253 0.142435
0.924084 0.115890 0.167643
0.924084 0.115890 0.167643
0.924084 0.115890 0.167643
0.001884 0.009859 0.002376
0.002451 0.009869 0.002425
0.009355 0.010216 0.002671
0.070299 0.014886 0.007388
0.890504 0.112234 0.141573
0.924077 0.115875 0.166906
0.924078 0.115875 0.166906
0.924078 0.115875 0.166906
0.015554 0.058933 0.012857
0.015541 0.058900 0.012851
0.015472 0.058686 0.012787
0.058130 0.062749 0.014718
0.889649 0.112111 0.136714
0.924024 0.115823 0.162847
0.924024 0.115823 0.162847
0.924023 0.115823 0.162847
0.296172 0.762089 0.244463
0.296172 0.762089 0.244463
0.296169 0.762076 0.244463
0.296142 0.762003 0.244445
0.847278 0.867562 0.289945
0.943542 0.878169 0.303212
0.943542 0.878169 0.303212
0.943542 0.878169 0.303212
0.316258 0.826688 0.261021
0.316258 0.826688 0.261021
0.316258 0.826688 0.261021
0.316258 0.826688 0.261021
0.805777 0.935035 0.300637
0.955505 0.949645 0.314427
0.955505 0.949645 0.314427
0.955505 0.949645 0.314427
0.316258 0.826688 0.261021
0.316258 0.826688 0.261021
0.316258 0.826688 0.261021
0.316258 0.826688 0.261021
0.805777 0.935035 0.300637
0.955505 0.949645 0.314427
0.955505 0.949645 0.314427
0.955505 0.949645 0.314427
0.316258 0.826689 0.261021
0.316258 0.826689 0.261021
0.316258 0.826689 0.261021
0.316258 0.826689 0.261021
0.805777 0.935036 0.300637
0.955505 0.949646 0.314427
0.955505 0.949646 0.314427
0.955505 0.949646 0.314427
0.000779 0.000000 0.007508
0.002143 0.000195 0.007727
0.011457 0.001345 0.009049
0.072775 0.006787 0.015383
0.890730 0.112327 0.149950
0.924166 0.115972 0.174116
0.924167 0.115972 0.174116
0.924166 0.115972 0.174116
0.000838 0.000863 0.007512
0.001776 0.000912 0.007603
0.010995 0.002035 0.008919
0.072329 0.007220 0.015211
0.890704 0.112324 0.149813
0.924166 0.115969 0.173995
0.924167 0.115969 0.173995
0.924166 0.115969 0.173995
0.001435 0.008281 0.007847
0.001903 0.008284 0.007889
0.008649 0.008611 0.008443
0.069684 0.013135 0.014276
0.890540 0.112298 0.148979
0.924160 0.115965 0.173273
0.924160 0.115965 0.173273
0.924160 0.115965 0.173273
0.014630 0.057476 0.014804
0.014617 0.057443 0.014801
0.014541 0.057242 0.014793
0.057302 0.061219 0.017584
0.889686 0.112173 0.144497
0.924112 0.115911 0.169526
0.924112 0.115911 0.169526
0.924112 0.115911 0.169526
0.296140 0.761994 0.244444
0.296140 0.761991 0.244441
0.296140 0.761981 0.244438
0.296116 0.761909 0.244420
0.847227 0.867461 0.289913
0.943523 0.878074 0.303193
0.943523 0.878074 0.303193
0.943523 0.878074 0.303193
0.316258 0.826688 0.261021
0.316258 0.826688 0.261021
0.316258 0.826688 0.261021
0.316258 0.826688 0.261021
0.805739 0.935035 0.300624
0.955505 0.949645 0.314427
0.955505 0.949645 0.314427
0.955505 0.949645 0.314427
0.316258 0.826688 0.261021
0.316258 0.826688 0.261021
0.316258 0.826688 0.261021
0.316258 0.826688 0.261021
0.805739 0.935035 0.300624
0.955505 0.949645 0.314427
0.955505 0.949645 0.314427
0.955505 0.949645 0.314427
0.316258 0.826689 0.261021
0.316258 0.826689 0.261021
0.316258 0.826689 0.261021
0.316258 0.826689 0.261021
0.805739 0.935036 0.300624
0.955505 0.949646 0.314427
0.955505 0.949646 0.314427
0.955505 0.949646 0.314427
0.006172 0.000000 0.042252
0.006904 0.000192 0.042252
0.013758 0.002012 0.042246
0.066356 0.011146 0.055015
0.890958 0.112706 0.185573
0.924567 0.116364 0.206837
0.924567 0.116364 0.206837
0.924568 0.116364 0.206837
0.006149 0.000000 0.042155
0.006449 0.000078 0.042161
0.013315 0.001899 0.042151
0.065920 0.011055 0.054820
0.890932 0.112703 0.185466
0.924567 0.116364 0.206736
0.924567 0.116364 0.206736
0.924566 0.116364 0.206736
0.006037 0.000542 0.041824
0.006037 0.000513 0.041817
0.010658 0.001664 0.041697
0.063237 0.010539 0.053629
0.890775 0.112678 0.184785
0.924554 0.116351 0.206130
0.924554 0.116351 0.206130
0.924555 0.116351 0.206130
0.011121 0.049900 0.047270
0.011108 0.049864 0.047273
0.011046 0.049650 0.047285
0.053172 0.052950 0.051626
0.889913 0.112550 0.181121
0.924512 0.116309 0.202780
0.924512 0.116309 0.202780
0.924513 0.116309 0.202780
0.295974 0.761473 0.244311
0.295974 0.761470 0.244307
0.295974 0.761451 0.244296
0.295943 0.761388 0.244280
0.846912 0.866886 0.289771
0.943436 0.877554 0.303106
0.943436 0.877554 0.303106
0.943436 0.877554 0.303106
0.316258 0.826688 0.261021
0.316258 0.826688 0.261021
0.316258 0.826688 0.261021
0.316258 0.826688 0.261021
0.805490 0.935004 0.300606
0.955505 0.949645 0.314427
0.955505 0.949645 0.314427
0.955505 0.949645 0.314427
0.316258 0.826688 0.261021
0.316258 0.826688 0.261021
0.316258 0.826688 0.261021
0.316258 0.826688 0.261021
0.805490 0.935004 0.300606
0.955505 0.949645 0.314427
0.955505 0.949645 0.314427
0.955505 0.949645 0.314427
0.316258 0.826689 0.261021
0.316258 0.826689 0.261021
0.316258 0.826689 0.261021
0.316258 0.826689 0.261021
0.805490 0.935005 0.300606
0.955505 0.949646 0.314427
0.955505 0.949646 0.314427
0.955505 0.949646 0.314427
0.131869 0.000000 0.517285
0.131869 0.000000 0.517285
0.131869 0.000000 0.517292
0.131875 0.000000 0.517310
0.813746 0.207547 0.740445
0.858266 0.215999 0.749620
0.858266 0.215999 0.749620
0.858267 0.215999 0.749620
0.131869 0.000000 0.517279
0.131869 0.000000 0.517279
0.131869 0.000000 0.517286
0.131875 0.000000 0.517303
0.813723 0.207543 0.740436
0.858266 0.215996 0.749613
0.858266 0.215996 0.749613
0.858267 0.215996 0.749613
0.131862 0.000000 0.517235
0.131862 0.000000 0.517235
0.131862 0.000000 0.517241
0.131869 0.000000 0.517265
0.813578 0.207511 0.740366
0.858266 0.215990 0.749576
0.858266 0.215990 0.749576
0.858267 0.215990 0.749576
0.131814 0.000000 0.517014
0.131814 0.000000 0.517014
0.131814 0.000000 0.517020
0.131823 0.000000 0.517044
0.812779 0.207360 0.739987
0.858258 0.215990 0.749339
0.858257 0.215990 0.749339
0.858257 0.215990 0.749339
0.254166 0.739089 0.705975
0.254166 0.739086 0.705975
0.254166 0.739074 0.705975
0.254135 0.738988 0.705984
0.844255 0.838857 0.807564
0.977725 0.847469 0.822344
0.977725 0.847469 0.822344
0.977726 0.847469 0.822344
0.280972 0.850683 0.716709
0.280972 0.850683 0.716709
0.280972 0.850683 0.716716
0.280972 0.850683 0.716740
0.814686 0.949889 0.808366
0.981337 0.975234 0.831818
0.981338 0.975234 0.831818
0.981337 0.975234 0.831818
0.280972 0.850683 0.716709
0.280972 0.850683 0.716709
0.280972 0.850683 0.716716
0.280972 0.850683 0.716740
0.814686 0.949889 0.808366
0.981337 0.975234 0.831818
0.981338 0.975234 0.831818
0.981337 0.975234 0.831818
0.280972 0.850683 0.716709
0.280972 0.850683 0.716709
0.280972 0.850683 0.716716
0.280972 0.850683 0.716740
0.814686 0.949888 0.808366
0.981337 0.975233 0.831818
0.981338 0.975233 0.831818
0.981337 0.975233 0.831818
0.146090 0.000000 0.592065
0.146090 0.000000 0.592065
0.146090 0.000000 0.592065
0.146090 0.000000 0.592065
0.813093 0.214804 0.823056
0.860441 0.218143 0.826230
0.860441 0.218143 0.826230
0.860441 0.218143 0.826230
0.146090 0.000000 0.592065
0.146090 0.000000 0.592065
0.146090 0.000000 0.592065
0.146090 0.000000 0.592065
0.813074 0.214804 0.823052
0.860441 0.218143 0.826230
0.860441 0.218143 0.826230
0.860441 0.218143 0.826230
0.146090 0.000000 0.592065
0.146090 0.000000 0.592065
0.146090 0.000000 0.592065
0.146090 0.000000 0.592065
0.812941 0.214791 0.823047
0.860441 0.218143 0.826230
0.860441 0.218143 0.826230
0.860441 0.218143 0.826230
0.146090 0.000000 0.592065
0.146090 0.000000 0.592065
0.146090 0.000000 0.592065
0.146090 0.000000 0.592065
0.812223 0.214743 0.822992
0.860441 0.218143 0.826230
0.860441 0.218143 0.826230
0.860441 0.218143 0.826230
0.248632 0.703327 0.791371
0.248632 0.703324 0.791367
0.248619 0.703305 0.791355
0.248595 0.703204 0.791325
0.844914 0.801518 0.883270
0.963189 0.818944 0.922715
0.963189 0.818944 0.922715
0.963190 0.818944 0.922715
0.287572 0.857191 0.825956
0.287572 0.857191 0.825956
0.287572 0.857191 0.825956
0.287572 0.857191 0.825971
0.797940 0.950948 0.915950
0.985656 0.979492 0.943816
0.985657 0.979492 0.943816
0.985657 0.979492 0.943816
0.287572 0.857191 0.825956
0.287572 0.857191 0.825956
0.287572 0.857191 0.825956
0.287572 0.857191 0.825971
0.797940 0.950948 0.915950
0.985656 0.979492 0.943816
0.985657 0.979492 0.943816
0.985657 0.979492 0.943816
0.287572 0.857191 0.825956
0.287572 0.857191 0.825956
0.287572 0.857191 0.825956
0.287572 0.857191 0.825971
0.797940 0.950947 0.915950
0.985656 0.979492 0.943816
0.985657 0.979492 0.943816
0.985657 0.979492 0.943816
0.146090 0.000000 0.592065
0.146090 0.000000 0.592065
0.146090 0.000000 0.592065
0.146090 0.000000 0.592065
0.813093 0.214804 0.823056
0.860441 0.218143 0.826230
0.860441 0.218143 0.826230
0.860441 0.218143 0.826230
0.146090 0.000000 0.592065
0.146090 0.000000 0.592065
0.146090 0.000000 0.592065
0.146090 0.000000 0.592065
0.813074 0.214804 0.823052
0.860441 0.218143 0.826230
0.860441 0.218143 0.826230
0.860441 0.218143 0.826230
0.146090 0.000000 0.592065
0.146090 0.000000 0.592065
0.146090 0.000000 0.592065
0.146090 0.000000 0.592065
0.812941 0.214791 0.823047
0.860441 0.218143 0.826230
0.860441 0.218143 0.826230
0.860441 0.218143 0.826230
0.146090 0.000000 0.592065
0.146090 0.000000 0.592065
0.146090 0.000000 0.592065
0.146090 0.000000 0.592065
0.812223 0.214743 0.822992
0.860441 0.218143 0.826230
0.860441 0.218143 0.826230
0.860441 0.218143 0.826230
0.248632 0.703327 0.791370
0.248632 0.703324 0.791368
0.248619 0.703305 0.791355
0.248595 0.703204 0.791325
0.844914 0.801518 0.883270
0.963189 0.818944 0.922715
0.963189 0.818944 0.922715
0.963190 0.818944 0.922715
0.287572 0.857191 0.825955
0.287572 0.857191 0.825955
0.287572 0.857191 0.825955
0.287572 0.857191 0.825971
0.797940 0.950948 0.915950
0.985656 0.979492 0.943816
0.985657 0.979492 0.943816
0.985657 0.979492 0.943816
0.287572 0.857191 0.825955
0.287572 0.857191 0.825955
0.287572 0.857191 0.825955
0.287572 0.857191 0.825971
0.797940 0.950948 0.915950
0.985656 0.979492 0.943816
0.985657 0.979492 0.943816
0.985657 0.979492 0.943816
0.287572 0.857191 0.825955
0.287572 0.857191 0.825955
0.287572 0.857191 0.825955
0.287572 0.857191 0.825971
0.797940 0.950947 0.915950
0.985656 0.979492 0.943816
0.985657 0.979492 0.943816
0.985657 0.979492 0.943816
0.146090 0.000000 0.592066
0.146090 0.000000 0.592066
0.146090 0.000000 0.592066
0.146090 0.000000 0.592066
0.813093 0.214804 0.823055
0.860441 0.218143 0.826231
0.860441 0.218143 0.826231
0.860441 0.218143 0.826231
0.146090 0.000000 0.592066
0.146090 0.000000 0.592066
0.146090 0.000000 0.592066
0.146090 0.000000 0.592066
0.813074 0.214804 0.823051
0.860441 0.218143 0.826231
0.860441 0.218143 0.826231
0.860441 0.218143 0.826231
0.146090 0.000000 0.592066
0.146090 0.000000 0.592066
0.146090 0.000000 0.592066
0.146090 0.000000 0.592066
0.812941 0.214791 0.823048
0.860441 0.218143 0.826231
0.860441 0.218143 0.826231
0.860441 0.218143 0.826231
0.146090 0.000000 0.592066
0.146090 0.000000 0.592066
0.146090 0.000000 0.592066
0.146090 0.000000 0.592066
0.812223 0.214743 0.822992
0.860441 0.218143 0.826231
0.860441 0.218143 0.826231
0.860441 0.218143 0.826231
0.248632 0.703327 0.791370
0.248632 0.703324 0.791367
0.248619 0.703305 0.791355
0.248596 0.703205 0.791325
0.844915 0.801518 0.883270
0.963189 0.818944 0.922716
0.963189 0.818944 0.922716
0.963190 0.818944 0.922716
0.287572 0.857191 0.825956
0.287572 0.857191 0.825956
0.287572 0.857191 0.825956
0.287572 0.857191 0.825972
0.797940 0.950948 0.915951
0.985656 0.979492 0.943817
0.985657 0.979492 0.943817
0.985657 0.979492 0.943817
0.287572 0.857191 0.825956
0.287572 0.857191 0.825956
0.287572 0.857191 0.825956
0.287572 0.857191 0.825972
0.797940 0.950948 0.915951
0.985656 0.979492 0.943817
0.985657 0.979492 0.943817
0.985657 0.979492 0.943817
0.287572 0.857191 0.825956
0.287572 0.857191 0.825956
0.287572 0.857191 0.825956
0.287572 0.857191 0.825972
0.797941 0.950947 0.915951
0.985656 0.979492 0.943817
0.985657 0.979492 0.943817
0.985657 0.979492 0.943817
