Assets/Art/Materials/LUT/Herderite.CUBE
#Created by: Adobe Photoshop Export Color Lookup Plugin
TITLE "Frame.exr"
#LUT size
LUT_3D_SIZE 32
#data domain
DOMAIN_MIN 0.0 0.0 0.0
DOMAIN_MAX 1.0 1.0 1.0
#LUT data points
0.000000 0.000000 0.000000
0.000000 0.000000 0.000000
0.000000 0.000000 0.000000
0.000261 0.000018 0.000018
0.001764 0.000120 0.000120
0.003521 0.000240 0.000240
0.005576 0.000381 0.000381
0.008245 0.000563 0.000563
0.012557 0.000866 0.000887
0.018650 0.001304 0.001351
0.028587 0.002104 0.002164
0.044288 0.003581 0.003673
0.073389 0.006809 0.006934
0.139463 0.015175 0.015380
0.311643 0.038728 0.039806
0.610252 0.079268 0.086271
0.890679 0.112247 0.141377
0.924050 0.115846 0.164677
0.924071 0.115877 0.166690
0.924071 0.115877 0.166690
0.924071 0.115877 0.166690
0.924071 0.115877 0.166690
0.924071 0.115877 0.166690
0.924071 0.115877 0.166690
0.924071 0.115877 0.166690
0.924071 0.115877 0.166690
0.924071 0.115877 0.166690
0.924070 0.115877 0.166690
0.924070 0.115877 0.166690
0.924070 0.115877 0.166690
0.924072 0.115877 0.166690
0.924072 0.115877 0.166690
0.000000 0.000000 0.000000
0.000000 0.000000 0.000000
0.000000 0.000000 0.000000
0.000261 0.000018 0.000018
0.001764 0.000120 0.000120
0.003521 0.000240 0.000240
0.005576 0.000381 0.000381
0.008245 0.000563 0.000563
0.012557 0.000866 0.000887
0.018650 0.001304 0.001351
0.028587 0.002104 0.002164
0.044288 0.003581 0.003673
0.073389 0.006809 0.006934
0.139463 0.015175 0.015380
0.311643 0.038728 0.039806
0.610251 0.079268 0.086271
0.890679 0.112247 0.141377
0.924050 0.115846 0.164677
0.924071 0.115877 0.166690
0.924071 0.115877 0.166690
0.924071 0.115877 0.166690
0.924071 0.115877 0.166690
0.924071 0.115877 0.166690
0.924071 0.115877 0.166690
0.924071 0.115877 0.166690
0.924071 0.115877 0.166690
0.924071 0.115877 0.166690
0.924070 0.115877 0.166690
0.924070 0.115877 0.166690
0.924070 0.115877 0.166690
0.924072 0.115877 0.166690
0.924072 0.115877 0.166690
0.000000 0.000000 0.000000
0.000000 0.000000 0.000000
0.000000 0.000000 0.000000
0.000261 0.000018 0.000018
0.001764 0.000120 0.000120
0.003521 0.000240 0.000240
0.005576 0.000381 0.000381
0.008245 0.000563 0.000563
0.012557 0.000866 0.000887
0.018650 0.001304 0.001351
0.028587 0.002104 0.002164
0.044288 0.003581 0.003673
0.073389 0.006809 0.006934
0.139463 0.015175 0.015380
0.311643 0.038728 0.039806
0.610251 0.079268 0.086271
0.890679 0.112247 0.141377
0.924050 0.115846 0.164677
0.924071 0.115877 0.166690
0.924071 0.115877 0.166690
0.924071 0.115877 0.166690
0.924071 0.115877 0.166690
0.924071 0.115877 0.166690
0.924071 0.115877 0.166690
0.924071 0.115877 0.166690
0.924071 0.115877 0.166690
0.924071 0.115877 0.166690
0.924070 0.115877 0.166690
0.924070 0.115877 0.166690
0.924070 0.115877 0.166690
0.924072 0.115877 0.166690
0.924072 0.115877 0.166690
0.000041 0.000213 0.000034
0.000041 0.000213 0.000034
0.000041 0.000213 0.000034
0.000200 0.000221 0.000039
0.001703 0.000323 0.000142
0.003459 0.000443 0.000262
0.005514 0.000584 0.000402
0.008183 0.000766 0.000584
0.012481 0.001063 0.000902
0.018571 0.001497 0.001355
0.028508 0.002297 0.002168
0.044222 0.003750 0.003659
0.073328 0.006962 0.006914
0.139414 0.015271 0.015356
0.311617 0.038725 0.039783
0.610242 0.079267 0.086249
0.890676 0.112246 0.141356
0.924050 0.115846 0.164659
0.924071 0.115877 0.166671
0.924071 0.115877 0.166671
0.924071 0.115877 0.166671
0.924071 0.115877 0.166671
0.924071 0.115877 0.166671
0.924071 0.115877 0.166671
0.924071 0.115877 0.166671
0.924071 0.115877 0.166671
0.924071 0.115877 0.166671
0.924070 0.115877 0.166671
0.924070 0.115877 0.166671
0.924070 0.115877 0.166671
0.924072 0.115877 0.166671
0.924072 0.115877 0.166671
0.000277 0.001439 0.000228
0.000277 0.001439 0.000228
0.000277 0.001439 0.000228
0.000435 0.001447 0.000233
0.001348 0.001491 0.000264
0.003104 0.001611 0.000384
0.005159 0.001751 0.000524
0.007828 0.001933 0.000706
0.012046 0.002191 0.000988
0.018130 0.002622 0.001428
0.028050 0.003409 0.002193
0.043826 0.004789 0.003601
0.072973 0.007844 0.006800
0.139131 0.015823 0.015221
0.311467 0.038702 0.039649
0.610186 0.079259 0.086127
0.890656 0.112244 0.141237
0.924047 0.115846 0.164554
0.924071 0.115874 0.166566
0.924071 0.115874 0.166566
0.924071 0.115874 0.166566
0.924071 0.115874 0.166566
0.924071 0.115874 0.166566
0.924071 0.115874 0.166566
0.924071 0.115874 0.166566
0.924071 0.115874 0.166566
0.924071 0.115874 0.166566
0.924070 0.115874 0.166566
0.924070 0.115874 0.166566
0.924070 0.115874 0.166566
0.924072 0.115874 0.166566
0.924072 0.115874 0.166566
0.000552 0.002871 0.000455
0.000552 0.002871 0.000455
0.000552 0.002871 0.000455
0.000711 0.002879 0.000460
0.001623 0.002923 0.000491
0.002689 0.002975 0.000526
0.004745 0.003115 0.000666
0.007414 0.003298 0.000849
0.011537 0.003510 0.001088
0.017622 0.003941 0.001528
0.027515 0.004709 0.002222
0.043363 0.006011 0.003536
0.072558 0.008875 0.006667
0.138800 0.016468 0.015062
0.311292 0.038676 0.039494
0.610117 0.079248 0.085985
0.890634 0.112240 0.141097
0.924044 0.115846 0.164430
0.924071 0.115871 0.166443
0.924071 0.115871 0.166443
0.924071 0.115871 0.166443
0.924071 0.115871 0.166443
0.924071 0.115871 0.166443
0.924071 0.115871 0.166443
0.924071 0.115871 0.166443
0.924071 0.115871 0.166443
0.924071 0.115871 0.166443
0.924070 0.115871 0.166443
0.924070 0.115871 0.166443
0.924070 0.115871 0.166443
0.924072 0.115871 0.166443
0.924072 0.115871 0.166443
0.000874 0.004547 0.000720
0.000874 0.004547 0.000720
0.000874 0.004547 0.000720
0.001033 0.004555 0.000725
0.001946 0.004599 0.000756
0.003012 0.004651 0.000792
0.004259 0.004712 0.000833
0.006928 0.004894 0.001016
0.011041 0.005102 0.001250
0.017026 0.005485 0.001646
0.026890 0.006230 0.002256
0.042821 0.007441 0.003461
0.072060 0.010123 0.006527
0.138413 0.017223 0.014876
0.311051 0.038642 0.039307
0.610019 0.079233 0.085818
0.890604 0.112237 0.140929
0.924040 0.115846 0.164286
0.924071 0.115867 0.166299
0.924071 0.115867 0.166299
0.924071 0.115867 0.166299
0.924071 0.115867 0.166299
0.924071 0.115867 0.166299
0.924071 0.115867 0.166299
0.924071 0.115867 0.166299
0.924071 0.115867 0.166299
0.924071 0.115867 0.166299
0.924070 0.115867 0.166299
0.924070 0.115867 0.166299
0.924070 0.115867 0.166299
0.924072 0.115867 0.166299
0.924072 0.115867 0.166299
0.001293 0.006724 0.001065
0.001293 0.006724 0.001065
0.001293 0.006724 0.001065
0.001452 0.006732 0.001070
0.002364 0.006776 0.001101
0.003430 0.006828 0.001136
0.004678 0.006889 0.001178
0.006298 0.006967 0.001232
0.010411 0.007175 0.001467
0.016253 0.007489 0.001798
0.026087 0.008211 0.002327
0.042116 0.009297 0.003362
0.071380 0.011857 0.006384
0.137844 0.018536 0.014639
0.310706 0.038592 0.039061
0.609890 0.079213 0.085601
0.890560 0.112232 0.140697
0.924035 0.115841 0.164094
0.924071 0.115862 0.166111
0.924071 0.115862 0.166111
0.924071 0.115862 0.166111
0.924071 0.115862 0.166111
0.924071 0.115862 0.166111
0.924071 0.115862 0.166111
0.924071 0.115862 0.166111
0.924071 0.115862 0.166111
0.924071 0.115862 0.166111
0.924070 0.115862 0.166111
0.924070 0.115862 0.166111
0.924070 0.115862 0.166111
0.924072 0.115862 0.166111
0.924072 0.115862 0.166111
0.001962 0.010133 0.001624
0.001962 0.010133 0.001624
0.001962 0.010133 0.001624
0.002054 0.010135 0.001626
0.002584 0.010146 0.001640
0.003203 0.010159 0.001656
0.004401 0.010215 0.001696
0.006021 0.010294 0.001750
0.009479 0.010487 0.001860
0.015274 0.010803 0.002174
0.024865 0.011543 0.002617
0.040850 0.012668 0.003517
0.070400 0.015179 0.006362
0.137119 0.021861 0.014418
0.310326 0.039600 0.038723
0.609725 0.079191 0.085268
0.890498 0.112225 0.140359
0.924035 0.115834 0.163797
0.924064 0.115862 0.165822
0.924064 0.115862 0.165822
0.924064 0.115862 0.165822
0.924064 0.115862 0.165822
0.924064 0.115862 0.165822
0.924064 0.115862 0.165822
0.924064 0.115862 0.165822
0.924065 0.115862 0.165822
0.924065 0.115862 0.165822
0.924065 0.115862 0.165822
0.924065 0.115862 0.165822
0.924065 0.115862 0.165822
0.924065 0.115862 0.165822
0.924065 0.115862 0.165822
0.002938 0.014965 0.002435
0.002938 0.014965 0.002435
0.002938 0.014965 0.002435
0.002955 0.014961 0.002435
0.003389 0.014964 0.002446
0.004008 0.014977 0.002462
0.004732 0.014992 0.002481
0.005673 0.015012 0.002506
0.009119 0.015209 0.002624
0.013992 0.015487 0.002777
0.023284 0.016248 0.003112
0.039031 0.017460 0.003837
0.068910 0.019890 0.006366
0.136020 0.026563 0.014254
0.309742 0.043364 0.038305
0.609453 0.079153 0.084788
0.890405 0.112209 0.139854
0.924034 0.115831 0.163382
0.924055 0.115861 0.165416
0.924055 0.115861 0.165416
0.924055 0.115861 0.165416
0.924055 0.115861 0.165416
0.924055 0.115861 0.165416
0.924055 0.115861 0.165416
0.924055 0.115861 0.165416
0.924055 0.115861 0.165416
0.924055 0.115861 0.165416
0.924055 0.115861 0.165416
0.924055 0.115861 0.165416
0.924055 0.115861 0.165416
0.924053 0.115861 0.165416
0.924053 0.115861 0.165416
0.004835 0.023018 0.003984
0.004835 0.023018 0.003984
0.004835 0.023018 0.003984
0.004852 0.023014 0.003984
0.004949 0.022989 0.003984
0.005062 0.022960 0.003984
0.005195 0.022926 0.003984
0.005557 0.022897 0.003990
0.008974 0.023117 0.004148
0.013811 0.023423 0.004351
0.021541 0.023927 0.004571
0.036257 0.025267 0.005192
0.066233 0.027874 0.007052
0.134443 0.034240 0.014295
0.308962 0.050632 0.037719
0.609068 0.079093 0.084070
0.890271 0.112196 0.139096
0.924021 0.115827 0.162745
0.924042 0.115848 0.164797
0.924042 0.115848 0.164797
0.924042 0.115848 0.164797
0.924042 0.115848 0.164797
0.924042 0.115848 0.164797
0.924042 0.115848 0.164797
0.924042 0.115848 0.164797
0.924042 0.115848 0.164797
0.924042 0.115848 0.164797
0.924042 0.115848 0.164797
0.924042 0.115848 0.164797
0.924042 0.115848 0.164797
0.924042 0.115848 0.164797
0.924042 0.115848 0.164797
0.008188 0.035700 0.006767
0.008188 0.035700 0.006767
0.008188 0.035700 0.006767
0.008186 0.035694 0.006765
0.008177 0.035658 0.006756
0.008168 0.035616 0.006746
0.008156 0.035567 0.006735
0.008142 0.035503 0.006720
0.010439 0.035591 0.006846
0.014102 0.035753 0.007050
0.021471 0.036333 0.007347
0.033691 0.037326 0.007662
0.062447 0.040486 0.009184
0.131790 0.046755 0.014573
0.307843 0.062997 0.037207
0.608471 0.079408 0.082965
0.890065 0.112163 0.137892
0.924004 0.115810 0.161739
0.924040 0.115830 0.163825
0.924040 0.115830 0.163825
0.924040 0.115830 0.163825
0.924040 0.115830 0.163825
0.924040 0.115830 0.163825
0.924040 0.115830 0.163825
0.924040 0.115830 0.163825
0.924040 0.115830 0.163825
0.924040 0.115830 0.163825
0.924040 0.115830 0.163825
0.924040 0.115830 0.163825
0.924040 0.115830 0.163825
0.924042 0.115830 0.163825
0.924042 0.115830 0.163825
0.015636 0.059174 0.012925
0.015636 0.059174 0.012925
0.015636 0.059174 0.012925
0.015634 0.059169 0.012924
0.015626 0.059141 0.012919
0.015616 0.059109 0.012912
0.015604 0.059067 0.012902
0.015584 0.059003 0.012883
0.015556 0.058927 0.012855
0.016684 0.058894 0.012902
0.022339 0.059148 0.013260
0.034211 0.060170 0.013834
0.058280 0.063006 0.014757
0.124059 0.071723 0.018670
0.305825 0.088624 0.037620
0.607990 0.101372 0.081318
0.889642 0.112098 0.135386
0.923980 0.115777 0.159554
0.924007 0.115807 0.161702
0.924007 0.115807 0.161702
0.924007 0.115807 0.161702
0.924007 0.115807 0.161702
0.924007 0.115807 0.161702
0.924007 0.115807 0.161702
0.924007 0.115807 0.161702
0.924007 0.115807 0.161702
0.924007 0.115807 0.161702
0.924007 0.115807 0.161702
0.924007 0.115807 0.161702
0.924007 0.115807 0.161702
0.924007 0.115807 0.161702
0.924007 0.115807 0.161702
0.035793 0.112549 0.029547
0.035793 0.112549 0.029547
0.035793 0.112549 0.029547
0.035791 0.112545 0.029546
0.035780 0.112520 0.029538
0.035767 0.112491 0.029528
0.035752 0.112457 0.029516
0.035737 0.112412 0.029502
0.035709 0.112343 0.029481
0.035670 0.112247 0.029451
0.035606 0.112102 0.029400
0.038494 0.112112 0.029544
0.061974 0.113897 0.031387
0.114489 0.122493 0.033663
0.295457 0.146060 0.044780
0.607857 0.164466 0.078783
0.889070 0.129321 0.129220
0.923907 0.115713 0.153666
0.923933 0.115739 0.155770
0.923933 0.115739 0.155770
0.923933 0.115739 0.155770
0.923933 0.115739 0.155770
0.923933 0.115739 0.155770
0.923933 0.115739 0.155770
0.923933 0.115739 0.155770
0.923933 0.115739 0.155770
0.923933 0.115739 0.155770
0.923933 0.115739 0.155770
0.923933 0.115739 0.155770
0.923933 0.115739 0.155770
0.923931 0.115739 0.155770
0.923931 0.115739 0.155770
0.095852 0.255206 0.079125
0.095852 0.255206 0.079125
0.095852 0.255206 0.079125
0.095851 0.255204 0.079125
0.095846 0.255193 0.079122
0.095839 0.255180 0.079119
0.095832 0.255163 0.079113
0.095822 0.255138 0.079103
0.095808 0.255104 0.079089
0.095782 0.255041 0.079070
0.095750 0.254957 0.079038
0.095698 0.254836 0.079002
0.095585 0.254577 0.078905
0.114663 0.255615 0.080312
0.271163 0.285142 0.091255
0.586110 0.329851 0.110815
0.892311 0.324823 0.122090
0.933449 0.288356 0.137183
0.933170 0.283812 0.139215
0.933170 0.283812 0.139215
0.933170 0.283812 0.139215
0.933170 0.283812 0.139215
0.933170 0.283812 0.139215
0.933169 0.283812 0.139215
0.933169 0.283812 0.139215
0.933169 0.283812 0.139215
0.933169 0.283812 0.139215
0.933170 0.283812 0.139215
0.933170 0.283812 0.139215
0.933170 0.283812 0.139215
0.933170 0.283812 0.139215
0.933170 0.283812 0.139215
0.203234 0.509673 0.167755
0.203234 0.509673 0.167755
0.203234 0.509673 0.167755
0.203233 0.509672 0.167755
0.203230 0.509670 0.167752
0.203227 0.509666 0.167749
0.203223 0.509658 0.167745
0.203218 0.509648 0.167740
0.203212 0.509633 0.167739
0.203202 0.509606 0.167729
0.203189 0.509580 0.167716
0.203172 0.509530 0.167699
0.203127 0.509419 0.167666
0.203011 0.509131 0.167567
0.225828 0.510796 0.169825
0.558321 0.578156 0.196340
0.853924 0.622931 0.227458
0.911048 0.618791 0.222169
0.911021 0.617450 0.221587
0.911021 0.617450 0.221587
0.911021 0.617450 0.221587
0.911021 0.617450 0.221587
0.911021 0.617450 0.221587
0.911021 0.617450 0.221587
0.911021 0.617450 0.221587
0.911021 0.617450 0.221587
0.911021 0.617450 0.221587
0.911020 0.617450 0.221587
0.911020 0.617450 0.221587
0.911020 0.617450 0.221587
0.911022 0.617450 0.221587
0.911022 0.617450 0.221587
0.296175 0.762105 0.244466
0.296175 0.762105 0.244466
0.296175 0.762105 0.244466
0.296175 0.762104 0.244466
0.296175 0.762102 0.244466
0.296175 0.762098 0.244466
0.296175 0.762096 0.244466
0.296175 0.762096 0.244466
0.296175 0.762089 0.244466
0.296169 0.762081 0.244466
0.296169 0.762076 0.244466
0.296160 0.762058 0.244451
0.296145 0.762019 0.244451
0.296118 0.761919 0.244424
0.295994 0.761532 0.244321
0.468554 0.792474 0.266319
0.847285 0.867578 0.289949
0.943618 0.878592 0.303279
0.943546 0.878185 0.303216
0.943546 0.878185 0.303216
0.943546 0.878185 0.303216
0.943546 0.878185 0.303216
0.943546 0.878185 0.303216
0.943545 0.878185 0.303216
0.943545 0.878185 0.303216
0.943545 0.878185 0.303216
0.943545 0.878185 0.303216
0.943546 0.878185 0.303216
0.943546 0.878185 0.303216
0.943546 0.878185 0.303216
0.943546 0.878185 0.303216
0.943546 0.878185 0.303216
0.316258 0.826688 0.261021
0.316258 0.826688 0.261021
0.316258 0.826688 0.261021
0.316258 0.826688 0.261021
0.316258 0.826688 0.261021
0.316258 0.826688 0.261021
0.316258 0.826688 0.261021
0.316258 0.826688 0.261021
0.316258 0.826688 0.261021
0.316258 0.826688 0.261021
0.316258 0.826688 0.261021
0.316258 0.826688 0.261021
0.316258 0.826688 0.261021
0.316258 0.826688 0.261021
0.316258 0.826688 0.261021
0.316258 0.826688 0.261021
0.812438 0.935771 0.301316
0.955505 0.949645 0.314427
0.955505 0.949645 0.314427
0.955505 0.949645 0.314427
0.955505 0.949645 0.314427
0.955505 0.949645 0.314427
0.955505 0.949645 0.314427
0.955505 0.949645 0.314427
0.955505 0.949645 0.314427
0.955504 0.949645 0.314427
0.955504 0.949645 0.314427
0.955505 0.949645 0.314427
0.955505 0.949645 0.314427
0.955505 0.949645 0.314427
0.955505 0.949645 0.314427
0.955505 0.949645 0.314427
0.316258 0.826688 0.261021
0.316258 0.826688 0.261021
0.316258 0.826688 0.261021
0.316258 0.826688 0.261021
0.316258 0.826688 0.261021
0.316258 0.826688 0.261021
0.316258 0.826688 0.261021
0.316258 0.826688 0.261021
0.316258 0.826688 0.261021
0.316258 0.826688 0.261021
0.316258 0.826688 0.261021
0.316258 0.826688 0.261021
0.316258 0.826688 0.261021
0.316258 0.826688 0.261021
0.316258 0.826688 0.261021
0.316258 0.826688 0.261021
0.805783 0.935035 0.300637
0.955505 0.949645 0.314427
0.955505 0.949645 0.314427
0.955505 0.949645 0.314427
0.955505 0.949645 0.314427
0.955505 0.949645 0.314427
0.955505 0.949645 0.314427
0.955505 0.949645 0.314427
0.955505 0.949645 0.314427
0.955504 0.949645 0.314427
0.955504 0.949645 0.314427
0.955505 0.949645 0.314427
0.955505 0.949645 0.314427
0.955505 0.949645 0.314427
0.955505 0.949645 0.314427
0.955505 0.949645 0.314427
0.316258 0.826688 0.261021
0.316258 0.826688 0.261021
0.316258 0.826688 0.261021
0.316258 0.826688 0.261021
0.316258 0.826688 0.261021
0.316258 0.826688 0.261021
0.316258 0.826688 0.261021
0.316258 0.826688 0.261021
0.316258 0.826688 0.261021
0.316258 0.826688 0.261021
0.316258 0.826688 0.261021
0.316258 0.826688 0.261021
0.316258 0.826688 0.261021
0.316258 0.826688 0.261021
0.316258 0.826688 0.261021
0.316258 0.826688 0.261021
0.805783 0.935035 0.300637
0.955505 0.949645 0.314427
0.955505 0.949645 0.314427
0.955505 0.949645 0.314427
0.955505 0.949645 0.314427
0.955505 0.949645 0.314427
0.955505 0.949645 0.314427
0.955505 0.949645 0.314427
0.955505 0.949645 0.314427
0.955504 0.949645 0.314427
0.955504 0.949645 0.314427
0.955505 0.949645 0.314427
0.955505 0.949645 0.314427
0.955505 0.949645 0.314427
0.955505 0.949645 0.314427
0.955505 0.949645 0.314427
0.316258 0.826688 0.261021
0.316258 0.826688 0.261021
0.316258 0.826688 0.261021
0.316258 0.826688 0.261021
0.316258 0.826688 0.261021
0.316258 0.826688 0.261021
0.316258 0.826688 0.261021
0.316258 0.826688 0.261021
0.316258 0.826688 0.261021
0.316258 0.826688 0.261021
0.316258 0.826688 0.261021
0.316258 0.826688 0.261021
0.316258 0.826688 0.261021
0.316258 0.826688 0.261021
0.316258 0.826688 0.261021
0.316258 0.826688 0.261021
0.805783 0.935035 0.300637
0.955505 0.949645 0.314427
0.955505 0.949645 0.314427
0.955505 0.949645 0.314427
0.955505 0.949645 0.314427
0.955505 0.949645 0.314427
0.955505 0.949645 0.314427
0.955505 0.949645 0.314427
0.955505 0.949645 0.314427
0.955504 0.949645 0.314427
0.955504 0.949645 0.314427
0.955505 0.949645 0.314427
0.955505 0.949645 0.314427
0.955505 0.949645 0.314427
0.955505 0.949645 0.314427
0.955505 0.949645 0.314427
0.316258 0.826688 0.261021
0.316258 0.826688 0.261021
0.316258 0.826688 0.261021
0.316258 0.826688 0.261021
0.316258 0.826688 0.261021
0.316258 0.826688 0.261021
0.316258 0.826688 0.261021
0.316258 0.826688 0.261021
0.316258 0.826688 0.261021
0.316258 0.826688 0.261021
0.316258 0.826688 0.261021
0.316258 0.826688 0.261021
0.316258 0.826688 0.261021
0.316258 0.826688 0.261021
0.316258 0.826688 0.261021
0.316258 0.826688 0.261021
0.805783 0.935035 0.300637
0.955505 0.949645 0.314427
0.955505 0.949645 0.314427
0.955505 0.949645 0.314427
0.955505 0.949645 0.314427
0.955505 0.949645 0.314427
0.955505 0.949645 0.314427
0.955505 0.949645 0.314427
0.955505 0.949645 0.314427
0.955504 0.949645 0.314427
0.955504 0.949645 0.314427
0.955505 0.949645 0.314427
0.955505 0.949645 0.314427
0.955505 0.949645 0.314427
0.955505 0.949645 0.314427
0.955505 0.949645 0.314427
0.316258 0.826688 0.261021
0.316258 0.826688 0.261021
0.316258 0.826688 0.261021
0.316258 0.826688 0.261021
0.316258 0.826688 0.261021
0.316258 0.826688 0.261021
0.316258 0.826688 0.261021
0.316258 0.826688 0.261021
0.316258 0.826688 0.261021
0.316258 0.826688 0.261021
0.316258 0.826688 0.261021
0.316258 0.826688 0.261021
0.316258 0.826688 0.261021
0.316258 0.826688 0.261021
0.316258 0.826688 0.261021
0.316258 0.826688 0.261021
0.805783 0.935035 0.300637
0.955505 0.949645 0.314427
0.955505 0.949645 0.314427
0.955505 0.949645 0.314427
0.955505 0.949645 0.314427
0.955505 0.949645 0.314427
0.955505 0.949645 0.314427
0.955505 0.949645 0.314427
0.955505 0.949645 0.314427
0.955504 0.949645 0.314427
0.955504 0.949645 0.314427
0.955505 0.949645 0.314427
0.955505 0.949645 0.314427
0.955505 0.949645 0.314427
0.955505 0.949645 0.314427
0.955505 0.949645 0.314427
0.316258 0.826688 0.261021
0.316258 0.826688 0.261021
0.316258 0.826688 0.261021
0.316258 0.826688 0.261021
0.316258 0.826688 0.261021
0.316258 0.826688 0.261021
0.316258 0.826688 0.261021
0.316258 0.826688 0.261021
0.316258 0.826688 0.261021
0.316258 0.826688 0.261021
0.316258 0.826688 0.261021
0.316258 0.826688 0.261021
0.316258 0.826688 0.261021
0.316258 0.826688 0.261021
0.316258 0.826688 0.261021
0.316258 0.826688 0.261021
0.805783 0.935035 0.300637
0.955505 0.949645 0.314427
0.955505 0.949645 0.314427
0.955505 0.949645 0.314427
0.955505 0.949645 0.314427
0.955505 0.949645 0.314427
0.955505 0.949645 0.314427
0.955505 0.949645 0.314427
0.955505 0.949645 0.314427
0.955504 0.949645 0.314427
0.955504 0.949645 0.314427
0.955505 0.949645 0.314427
0.955505 0.949645 0.314427
0.955505 0.949645 0.314427
0.955505 0.949645 0.314427
0.955505 0.949645 0.314427
0.316258 0.826688 0.261021
0.316258 0.826688 0.261021
0.316258 0.826688 0.261021
0.316258 0.826688 0.261021
0.316258 0.826688 0.261021
0.316258 0.826688 0.261021
0.316258 0.826688 0.261021
0.316258 0.826688 0.261021
0.316258 0.826688 0.261021
0.316258 0.826688 0.261021
0.316258 0.826688 0.261021
0.316258 0.826688 0.261021
0.316258 0.826688 0.261021
0.316258 0.826688 0.261021
0.316258 0.826688 0.261021
0.316258 0.826688 0.261021
0.805783 0.935035 0.300637
0.955505 0.949645 0.314427
0.955505 0.949645 0.314427
0.955505 0.949645 0.314427
0.955505 0.949645 0.314427
0.955505 0.949645 0.314427
0.955505 0.949645 0.314427
0.955505 0.949645 0.314427
0.955505 0.949645 0.314427
0.955504 0.949645 0.314427
0.955504 0.949645 0.314427
0.955505 0.949645 0.314427
0.955505 0.949645 0.314427
0.955505 0.949645 0.314427
0.955505 0.949645 0.314427
0.955505 0.949645 0.314427
0.316258 0.826688 0.261021
0.316258 0.826688 0.261021
0.316258 0.826688 0.261021
0.316258 0.826688 0.261021
0.316258 0.826688 0.261021
0.316258 0.826688 0.261021
0.316258 0.826688 0.261021
0.316258 0.826688 0.261021
0.316258 0.826688 0.261021
0.316258 0.826688 0.261021
0.316258 0.826688 0.261021
0.316258 0.826688 0.261021
0.316258 0.826688 0.261021
0.316258 0.826688 0.261021
0.316258 0.826688 0.261021
0.316258 0.826688 0.261021
0.805783 0.935035 0.300637
0.955505 0.949645 0.314427
0.955505 0.949645 0.314427
0.955505 0.949645 0.314427
0.955505 0.949645 0.314427
0.955505 0.949645 0.314427
0.955505 0.949645 0.314427
0.955505 0.949645 0.314427
0.955505 0.949645 0.314427
0.955504 0.949645 0.314427
0.955504 0.949645 0.314427
0.955505 0.949645 0.314427
0.955505 0.949645 0.314427
0.955505 0.949645 0.314427
0.955505 0.949645 0.314427
0.955505 0.949645 0.314427
0.316258 0.826688 0.261021
0.316258 0.826688 0.261021
0.316258 0.826688 0.261021
0.316258 0.826688 0.261021
0.316258 0.826688 0.261021
0.316258 0.826688 0.261021
0.316258 0.826688 0.261021
0.316258 0.826688 0.261021
0.316258 0.826688 0.261021
0.316258 0.826688 0.261021
0.316258 0.826688 0.261021
0.316258 0.826688 0.261021
0.316258 0.826688 0.261021
0.316258 0.826688 0.261021
0.316258 0.826688 0.261021
0.316258 0.826688 0.261021
0.805783 0.935035 0.300637
0.955505 0.949645 0.314427
0.955505 0.949645 0.314427
0.955505 0.949645 0.314427
0.955505 0.949645 0.314427
0.955505 0.949645 0.314427
0.955505 0.949645 0.314427
0.955505 0.949645 0.314427
0.955505 0.949645 0.314427
0.955504 0.949645 0.314427
0.955504 0.949645 0.314427
0.955505 0.949645 0.314427
0.955505 0.949645 0.314427
0.955505 0.949645 0.314427
0.955505 0.949645 0.314427
0.955505 0.949645 0.314427
0.316258 0.826689 0.261021
0.316258 0.826689 0.261021
0.316258 0.826689 0.261021
0.316258 0.826689 0.261021
0.316258 0.826689 0.261021
0.316258 0.826689 0.261021
0.316258 0.826689 0.261021
0.316258 0.826689 0.261021
0.316258 0.826689 0.261021
0.316258 0.826689 0.261021
0.316258 0.826689 0.261021
0.316258 0.826689 0.261021
0.316258 0.826689 0.261021
0.316258 0.826689 0.261021
0.316258 0.826689 0.261021
0.316258 0.826689 0.261021
0.805783 0.935036 0.300637
0.955505 0.949646 0.314427
