Assets/Art/Materials/LUT/Hiddenite.CUBE
#Created by: Adobe Photoshop Export Color Lookup Plugin
TITLE "Frame.exr"
#LUT size
LUT_3D_SIZE 32
#data domain
DOMAIN_MIN 0.0 0.0 0.0
DOMAIN_MAX 1.0 1.0 1.0
#LUT data points
0.000000 0.000000 0.000000
0.000000 0.000000 0.000000
0.000000 0.000000 0.000000
0.000070 0.000070 0.000104
0.000472 0.000472 0.000703
0.000942 0.000942 0.001403
0.001492 0.001492 0.002222
0.002206 0.002206 0.003286
0.003324 0.003324 0.004956
0.004889 0.004889 0.007293
0.007302 0.007302 0.010881
0.013759 0.009272 0.014222
0.027996 0.010797 0.018107
0.058561 0.012787 0.024585
0.145355 0.017557 0.042205
0.353165 0.032709 0.076560
0.663813 0.056166 0.132427
0.710987 0.060415 0.149897
0.711116 0.060502 0.151003
0.711116 0.060502 0.151003
0.711116 0.060502 0.151003
0.711116 0.060502 0.151003
0.711116 0.060502 0.151003
0.711116 0.060502 0.151003
0.711116 0.060502 0.151003
0.711116 0.060502 0.151003
0.711116 0.060502 0.151003
0.711117 0.060502 0.151003
0.711117 0.060502 0.151003
0.711117 0.060502 0.151003
0.711117 0.060502 0.151003
0.711117 0.060502 0.151003
0.000000 0.000000 0.000000
0.000000 0.000000 0.000000
0.000000 0.000000 0.000000
0.000070 0.000070 0.000104
0.000472 0.000472 0.000703
0.000942 0.000942 0.001403
0.001492 0.001492 0.002222
0.002206 0.002206 0.003286
0.003324 0.003324 0.004956
0.004889 0.004889 0.007293
0.007302 0.007302 0.010881
0.013759 0.009272 0.014222
0.027996 0.010797 0.018107
0.058561 0.012787 0.024585
0.145355 0.017557 0.042205
0.353164 0.032709 0.076560
0.663813 0.056166 0.132427
0.710987 0.060415 0.149897
0.711116 0.060502 0.151003
0.711116 0.060502 0.151003
0.711116 0.060502 0.151003
0.711116 0.060502 0.151003
0.711116 0.060502 0.151003
0.711116 0.060502 0.151003
0.711116 0.060502 0.151003
0.711116 0.060502 0.151003
0.711116 0.060502 0.151003
0.711117 0.060502 0.151003
0.711117 0.060502 0.151003
0.711117 0.060502 0.151003
0.711117 0.060502 0.151003
0.711117 0.060502 0.151003
0.000000 0.000000 0.000000
0.000000 0.000000 0.000000
0.000000 0.000000 0.000000
0.000070 0.000070 0.000104
0.000472 0.000472 0.000703
0.000942 0.000942 0.001403
0.001492 0.001492 0.002222
0.002206 0.002206 0.003286
0.003324 0.003324 0.004956
0.004889 0.004889 0.007293
0.007302 0.007302 0.010881
0.013759 0.009272 0.014222
0.027996 0.010797 0.018107
0.058561 0.012787 0.024585
0.145355 0.017557 0.042205
0.353164 0.032709 0.076560
0.663813 0.056166 0.132427
0.710987 0.060415 0.149897
0.711116 0.060502 0.151003
0.711116 0.060502 0.151003
0.711116 0.060502 0.151003
0.711116 0.060502 0.151003
0.711116 0.060502 0.151003
0.711116 0.060502 0.151003
0.711116 0.060502 0.151003
0.711116 0.060502 0.151003
0.711116 0.060502 0.151003
0.711117 0.060502 0.151003
0.711117 0.060502 0.151003
0.711117 0.060502 0.151003
0.711117 0.060502 0.151003
0.711117 0.060502 0.151003
0.000119 0.000119 0.000180
0.000119 0.000119 0.000180
0.000119 0.000119 0.000180
0.000166 0.000166 0.000252
0.000568 0.000568 0.000851
0.001038 0.001038 0.001551
0.001588 0.001588 0.002370
0.002302 0.002302 0.003434
0.003417 0.003417 0.005097
0.004978 0.004978 0.007426
0.007391 0.007391 0.011014
0.013854 0.009352 0.014337
0.028084 0.010870 0.018209
0.058618 0.012833 0.024644
0.145339 0.017556 0.042185
0.353155 0.032708 0.076542
0.663806 0.056165 0.132415
0.710986 0.060414 0.149886
0.711115 0.060501 0.150993
0.711115 0.060501 0.150993
0.711115 0.060501 0.150993
0.711115 0.060501 0.150993
0.711115 0.060501 0.150993
0.711115 0.060501 0.150993
0.711115 0.060501 0.150993
0.711115 0.060501 0.150993
0.711115 0.060501 0.150993
0.711115 0.060501 0.150993
0.711115 0.060501 0.150993
0.711115 0.060501 0.150993
0.711113 0.060501 0.150993
0.711113 0.060501 0.150993
0.000801 0.000801 0.001214
0.000801 0.000801 0.001214
0.000801 0.000801 0.001214
0.000849 0.000849 0.001287
0.001123 0.001123 0.001703
0.001593 0.001593 0.002403
0.002143 0.002143 0.003222
0.002857 0.002857 0.004285
0.003952 0.003952 0.005906
0.005508 0.005508 0.008227
0.007901 0.007901 0.011782
0.014448 0.009814 0.015040
0.028595 0.011292 0.018791
0.058945 0.013100 0.024982
0.145247 0.017550 0.042071
0.353099 0.032699 0.076439
0.663767 0.056156 0.132346
0.710977 0.060411 0.149828
0.711106 0.060496 0.150935
0.711106 0.060496 0.150935
0.711106 0.060496 0.150935
0.711107 0.060496 0.150935
0.711106 0.060496 0.150935
0.711106 0.060496 0.150935
0.711106 0.060496 0.150935
0.711106 0.060496 0.150935
0.711106 0.060496 0.150935
0.711107 0.060496 0.150935
0.711107 0.060496 0.150935
0.711107 0.060496 0.150935
0.711105 0.060496 0.150935
0.711105 0.060496 0.150935
0.001598 0.001598 0.002423
0.001598 0.001598 0.002423
0.001598 0.001598 0.002423
0.001646 0.001646 0.002495
0.001920 0.001920 0.002911
0.002241 0.002241 0.003397
0.002791 0.002791 0.004216
0.003505 0.003505 0.005280
0.004577 0.004577 0.006853
0.006133 0.006133 0.009173
0.008498 0.008498 0.012680
0.015148 0.010356 0.015866
0.029191 0.011785 0.019472
0.059327 0.013411 0.025377
0.145140 0.017544 0.041938
0.353033 0.032690 0.076318
0.663722 0.056147 0.132265
0.710968 0.060408 0.149760
0.711097 0.060489 0.150867
0.711097 0.060489 0.150867
0.711097 0.060489 0.150867
0.711097 0.060489 0.150867
0.711097 0.060489 0.150867
0.711097 0.060489 0.150867
0.711097 0.060489 0.150867
0.711097 0.060489 0.150867
0.711097 0.060489 0.150867
0.711096 0.060489 0.150867
0.711096 0.060489 0.150867
0.711096 0.060489 0.150867
0.711098 0.060489 0.150867
0.711098 0.060489 0.150867
0.002531 0.002531 0.003837
0.002531 0.002531 0.003837
0.002531 0.002531 0.003837
0.002579 0.002579 0.003910
0.002853 0.002853 0.004326
0.003174 0.003174 0.004812
0.003549 0.003549 0.005381
0.004263 0.004263 0.006444
0.005333 0.005333 0.008011
0.006865 0.006865 0.010281
0.009195 0.009195 0.013730
0.015967 0.010989 0.016833
0.029905 0.012379 0.020303
0.059775 0.013775 0.025840
0.145004 0.017536 0.041781
0.352950 0.032678 0.076174
0.663668 0.056135 0.132165
0.710957 0.060404 0.149681
0.711085 0.060481 0.150787
0.711085 0.060481 0.150787
0.711085 0.060481 0.150787
0.711085 0.060481 0.150787
0.711085 0.060481 0.150787
0.711085 0.060481 0.150787
0.711085 0.060481 0.150787
0.711085 0.060481 0.150787
0.711085 0.060481 0.150787
0.711084 0.060481 0.150787
0.711084 0.060481 0.150787
0.711086 0.060481 0.150787
0.711086 0.060481 0.150787
0.711086 0.060481 0.150787
0.003742 0.003742 0.005674
0.003742 0.003742 0.005674
0.003742 0.003742 0.005674
0.003790 0.003790 0.005747
0.004065 0.004065 0.006163
0.004385 0.004385 0.006649
0.004761 0.004761 0.007217
0.005248 0.005248 0.007956
0.006318 0.006318 0.009523
0.007815 0.007815 0.011719
0.010112 0.010112 0.015113
0.017031 0.011811 0.018089
0.030875 0.013196 0.021475
0.060565 0.014400 0.026684
0.144816 0.017526 0.041574
0.352841 0.032664 0.075987
0.663594 0.056121 0.132022
0.710947 0.060399 0.149577
0.711071 0.060472 0.150684
0.711071 0.060472 0.150684
0.711071 0.060472 0.150684
0.711071 0.060472 0.150684
0.711071 0.060472 0.150684
0.711071 0.060472 0.150684
0.711071 0.060472 0.150684
0.711070 0.060472 0.150684
0.711070 0.060472 0.150684
0.711071 0.060472 0.150684
0.711071 0.060472 0.150684
0.711071 0.060472 0.150684
0.711071 0.060472 0.150684
0.711071 0.060472 0.150684
0.005626 0.005626 0.008545
0.005626 0.005626 0.008545
0.005626 0.005626 0.008545
0.005653 0.005654 0.008585
0.005805 0.005812 0.008815
0.005983 0.005996 0.009084
0.006343 0.006357 0.009629
0.006830 0.006844 0.010367
0.007898 0.007898 0.011965
0.009395 0.009395 0.014163
0.011692 0.011692 0.017575
0.018367 0.013574 0.020781
0.032956 0.014754 0.023935
0.062857 0.015970 0.029072
0.145123 0.018274 0.041709
0.352693 0.032643 0.075696
0.663483 0.056100 0.131835
0.710933 0.060386 0.149412
0.711057 0.060465 0.150525
0.711057 0.060465 0.150525
0.711057 0.060465 0.150525
0.711057 0.060465 0.150525
0.711057 0.060465 0.150525
0.711057 0.060465 0.150525
0.711057 0.060465 0.150525
0.711057 0.060465 0.150525
0.711057 0.060465 0.150525
0.711058 0.060465 0.150525
0.711056 0.060465 0.150525
0.711056 0.060465 0.150525
0.711056 0.060465 0.150525
0.711056 0.060465 0.150525
0.008266 0.008266 0.012570
0.008266 0.008266 0.012570
0.008266 0.008266 0.012570
0.008268 0.008270 0.012574
0.008390 0.008397 0.012758
0.008568 0.008582 0.013027
0.008776 0.008798 0.013342
0.009047 0.009079 0.013751
0.010090 0.010147 0.015323
0.011607 0.011630 0.017502
0.013904 0.013927 0.020934
0.020141 0.016118 0.024443
0.035539 0.017067 0.027305
0.065767 0.018323 0.032337
0.147150 0.020674 0.043363
0.352464 0.032614 0.075282
0.663329 0.056064 0.131542
0.710907 0.060367 0.149180
0.711037 0.060454 0.150303
0.711037 0.060454 0.150303
0.711037 0.060454 0.150303
0.711037 0.060454 0.150303
0.711037 0.060454 0.150303
0.711037 0.060454 0.150303
0.711037 0.060454 0.150303
0.711037 0.060454 0.150303
0.711037 0.060454 0.150303
0.711037 0.060454 0.150303
0.711037 0.060454 0.150303
0.711037 0.060454 0.150303
0.711037 0.060454 0.150303
0.711037 0.060454 0.150303
0.012357 0.012357 0.018829
0.012357 0.012357 0.018829
0.012357 0.012357 0.018829
0.012359 0.012361 0.018833
0.012370 0.012380 0.018855
0.012383 0.012403 0.018881
0.012398 0.012429 0.018912
0.012480 0.012524 0.019042
0.013402 0.013679 0.020493
0.014768 0.015269 0.022522
0.017298 0.017592 0.025232
0.022696 0.020351 0.028818
0.038336 0.021587 0.031194
0.068516 0.023260 0.035663
0.150793 0.025549 0.046283
0.352117 0.032576 0.074663
0.663092 0.056012 0.131109
0.710859 0.060341 0.148832
0.710998 0.060428 0.149968
0.710998 0.060428 0.149968
0.710998 0.060428 0.149968
0.710998 0.060428 0.149968
0.710998 0.060428 0.149968
0.710998 0.060428 0.149968
0.710998 0.060428 0.149968
0.710998 0.060428 0.149968
0.710998 0.060428 0.149968
0.710999 0.060428 0.149968
0.710999 0.060428 0.149968
0.710999 0.060428 0.149968
0.710999 0.060428 0.149968
0.710999 0.060428 0.149968
0.015914 0.020057 0.025351
0.015914 0.020057 0.025351
0.015914 0.020057 0.025351
0.015914 0.020053 0.025350
0.015912 0.020029 0.025342
0.015908 0.019999 0.025332
0.015905 0.019965 0.025321
0.015900 0.019921 0.025306
0.016458 0.020727 0.026194
0.017366 0.022016 0.027606
0.019959 0.024275 0.030458
0.024846 0.027589 0.033785
0.041024 0.029270 0.035748
0.071354 0.031622 0.039626
0.154682 0.034596 0.049258
0.351919 0.032780 0.073917
0.662720 0.055926 0.130407
0.710800 0.060290 0.148287
0.710929 0.060378 0.149431
0.710929 0.060378 0.149431
0.710929 0.060378 0.149431
0.710929 0.060378 0.149431
0.710929 0.060378 0.149431
0.710929 0.060378 0.149431
0.710929 0.060378 0.149431
0.710929 0.060378 0.149431
0.710929 0.060378 0.149431
0.710930 0.060378 0.149431
0.710930 0.060378 0.149431
0.710930 0.060378 0.149431
0.710930 0.060378 0.149431
0.710930 0.060378 0.149431
0.017119 0.035782 0.030891
0.017119 0.035782 0.030891
0.017119 0.035782 0.030891
0.017119 0.035779 0.030890
0.017119 0.035762 0.030885
0.017119 0.035743 0.030878
0.017119 0.035718 0.030871
0.017119 0.035678 0.030861
0.017112 0.035630 0.030847
0.017361 0.036009 0.031250
0.018620 0.038143 0.033316
0.023921 0.041431 0.036590
0.041014 0.044046 0.039608
0.072804 0.047235 0.043570
0.158727 0.052379 0.053642
0.365170 0.048527 0.081090
0.661924 0.055743 0.128944
0.710656 0.060202 0.147080
0.710794 0.060298 0.148261
0.710794 0.060298 0.148261
0.710793 0.060298 0.148261
0.710794 0.060298 0.148261
0.710793 0.060298 0.148261
0.710793 0.060298 0.148261
0.710793 0.060298 0.148261
0.710793 0.060298 0.148261
0.710793 0.060298 0.148261
0.710794 0.060298 0.148261
0.710794 0.060298 0.148261
0.710794 0.060298 0.148261
0.710793 0.060298 0.148261
0.710793 0.060298 0.148261
0.018704 0.067594 0.041470
0.018704 0.067594 0.041470
0.018704 0.067594 0.041470
0.018704 0.067591 0.041469
0.018704 0.067577 0.041463
0.018704 0.067561 0.041457
0.018704 0.067542 0.041449
0.018704 0.067518 0.041439
0.018697 0.067476 0.041426
0.018689 0.067414 0.041407
0.018689 0.067337 0.041381
0.019846 0.068167 0.042301
0.035127 0.072629 0.046530
0.072560 0.077385 0.051475
0.163377 0.085307 0.062064
0.376341 0.091864 0.087063
0.677101 0.066353 0.136936
0.710243 0.059938 0.143844
0.710404 0.060041 0.145003
0.710404 0.060041 0.145003
0.710404 0.060041 0.145003
0.710404 0.060041 0.145003
0.710404 0.060041 0.145003
0.710404 0.060041 0.145003
0.710404 0.060041 0.145003
0.710404 0.060041 0.145003
0.710404 0.060041 0.145003
0.710405 0.060041 0.145003
0.710405 0.060041 0.145003
0.710405 0.060041 0.145003
0.710403 0.060041 0.145003
0.710403 0.060041 0.145003
0.030312 0.154695 0.069058
0.030312 0.154695 0.069058
0.030312 0.154695 0.069058
0.030312 0.154693 0.069057
0.030312 0.154685 0.069054
0.030312 0.154675 0.069051
0.030312 0.154662 0.069047
0.030312 0.154642 0.069042
0.030306 0.154614 0.069029
0.030296 0.154576 0.069011
0.030283 0.154519 0.068998
0.030274 0.154432 0.068973
0.030241 0.154254 0.068908
0.043781 0.158172 0.072068
0.163598 0.174717 0.086874
0.392882 0.193443 0.114135
0.710285 0.200670 0.157441
0.761623 0.179984 0.171609
0.761168 0.177045 0.172409
0.761168 0.177045 0.172409
0.761168 0.177045 0.172409
0.761168 0.177045 0.172409
0.761168 0.177045 0.172409
0.761168 0.177045 0.172409
0.761168 0.177045 0.172409
0.761168 0.177045 0.172409
0.761168 0.177045 0.172409
0.761168 0.177045 0.172409
0.761168 0.177045 0.172409
0.761168 0.177045 0.172409
0.761169 0.177045 0.172409
0.761169 0.177045 0.172409
0.060998 0.371451 0.139277
0.060998 0.371451 0.139277
0.060998 0.371451 0.139277
0.060998 0.371450 0.139276
0.060998 0.371445 0.139274
0.060998 0.371438 0.139270
0.060998 0.371430 0.139266
0.060998 0.371421 0.139262
0.060998 0.371407 0.139260
0.060998 0.371388 0.139251
0.060990 0.371354 0.139238
0.060983 0.371301 0.139221
0.060968 0.371195 0.139188
0.060927 0.370901 0.139088
0.076466 0.376448 0.143708
0.396625 0.420997 0.184099
0.746885 0.452190 0.230541
0.824615 0.449109 0.239180
0.824293 0.447706 0.238719
0.824293 0.447706 0.238719
0.824293 0.447706 0.238719
0.824293 0.447706 0.238719
0.824293 0.447706 0.238719
0.824293 0.447706 0.238719
0.824293 0.447706 0.238719
0.824293 0.447706 0.238719
0.824293 0.447706 0.238719
0.824293 0.447706 0.238719
0.824293 0.447706 0.238719
0.824293 0.447706 0.238719
0.824291 0.447706 0.238719
0.824291 0.447706 0.238719
0.107103 0.698964 0.256533
0.107103 0.698964 0.256533
0.107103 0.698964 0.256533
0.107103 0.698963 0.256532
0.107103 0.698960 0.256529
0.107103 0.698957 0.256526
0.107103 0.698953 0.256522
0.107103 0.698949 0.256517
0.107103 0.698942 0.256517
0.107103 0.698931 0.256516
0.107098 0.698905 0.256509
0.107088 0.698886 0.256493
0.107079 0.698823 0.256469
0.107062 0.698673 0.256410
0.106947 0.698055 0.256154
0.256685 0.730284 0.284232
0.750229 0.788556 0.347113
0.904197 0.802369 0.368185
0.904046 0.801674 0.367911
0.904046 0.801674 0.367911
0.904047 0.801674 0.367911
0.904047 0.801674 0.367911
0.904047 0.801674 0.367911
0.904047 0.801674 0.367911
0.904047 0.801674 0.367911
0.904046 0.801674 0.367911
0.904046 0.801674 0.367911
0.904047 0.801674 0.367911
0.904047 0.801674 0.367911
0.904047 0.801674 0.367911
0.904045 0.801674 0.367911
0.904045 0.801674 0.367911
0.124178 0.806088 0.299596
0.124178 0.806088 0.299596
0.124178 0.806088 0.299596
0.124178 0.806088 0.299596
0.124178 0.806088 0.299596
0.124178 0.806088 0.299596
0.124178 0.806088 0.299596
0.124178 0.806088 0.299596
0.124178 0.806088 0.299596
0.124178 0.806088 0.299596
0.124178 0.806088 0.299596
0.124178 0.806088 0.299596
0.124178 0.806088 0.299596
0.124178 0.806088 0.299596
0.124178 0.806088 0.299596
0.124178 0.806088 0.299596
0.695043 0.897398 0.382960
0.931731 0.928588 0.417914
0.931731 0.928588 0.417914
0.931731 0.928588 0.417914
0.931731 0.928588 0.417914
0.931731 0.928588 0.417914
0.931731 0.928588 0.417914
0.931731 0.928588 0.417914
0.931731 0.928588 0.417914
0.931731 0.928588 0.417914
0.931731 0.928588 0.417914
0.931730 0.928588 0.417914
0.931730 0.928588 0.417914
0.931730 0.928588 0.417914
0.931732 0.928588 0.417914
0.931732 0.928588 0.417914
0.124178 0.806088 0.299596
0.124178 0.806088 0.299596
0.124178 0.806088 0.299596
0.124178 0.806088 0.299596
0.124178 0.806088 0.299596
0.124178 0.806088 0.299596
0.124178 0.806088 0.299596
0.124178 0.806088 0.299596
0.124178 0.806088 0.299596
0.124178 0.806088 0.299596
0.124178 0.806088 0.299596
0.124178 0.806088 0.299596
0.124178 0.806088 0.299596
0.124178 0.806088 0.299596
0.124178 0.806088 0.299596
0.124178 0.806088 0.299596
0.685419 0.896118 0.381583
0.931731 0.928588 0.417914
0.931731 0.928588 0.417914
0.931731 0.928588 0.417914
0.931731 0.928588 0.417914
0.931731 0.928588 0.417914
0.931731 0.928588 0.417914
0.931731 0.928588 0.417914
0.931731 0.928588 0.417914
0.931731 0.928588 0.417914
0.931731 0.928588 0.417914
0.931730 0.928588 0.417914
0.931730 0.928588 0.417914
0.931730 0.928588 0.417914
0.931732 0.928588 0.417914
0.931732 0.928588 0.417914
0.124178 0.806088 0.299596
0.124178 0.806088 0.299596
0.124178 0.806088 0.299596
0.124178 0.806088 0.299596
0.124178 0.806088 0.299596
0.124178 0.806088 0.299596
0.124178 0.806088 0.299596
0.124178 0.806088 0.299596
0.124178 0.806088 0.299596
0.124178 0.806088 0.299596
0.124178 0.806088 0.299596
0.124178 0.806088 0.299596
0.124178 0.806088 0.299596
0.124178 0.806088 0.299596
0.124178 0.806088 0.299596
0.124178 0.806088 0.299596
0.685419 0.896118 0.381583
0.931731 0.928588 0.417914
0.931731 0.928588 0.417914
0.931731 0.928588 0.417914
0.931731 0.928588 0.417914
0.931731 0.928588 0.417914
0.931731 0.928588 0.417914
0.931731 0.928588 0.417914
0.931731 0.928588 0.417914
0.931731 0.928588 0.417914
0.931731 0.928588 0.417914
0.931730 0.928588 0.417914
0.931730 0.928588 0.417914
0.931730 0.928588 0.417914
0.931732 0.928588 0.417914
0.931732 0.928588 0.417914
0.124178 0.806088 0.299596
0.124178 0.806088 0.299596
0.124178 0.806088 0.299596
0.124178 0.806088 0.299596
0.124178 0.806088 0.299596
0.124178 0.806088 0.299596
0.124178 0.806088 0.299596
0.124178 0.806088 0.299596
0.124178 0.806088 0.299596
0.124178 0.806088 0.299596
0.124178 0.806088 0.299596
0.124178 0.806088 0.299596
0.124178 0.806088 0.299596
0.124178 0.806088 0.299596
0.124178 0.806088 0.299596
0.124178 0.806088 0.299596
0.685419 0.896118 0.381583
0.931731 0.928588 0.417914
0.931731 0.928588 0.417914
0.931731 0.928588 0.417914
0.931731 0.928588 0.417914
0.931731 0.928588 0.417914
0.931731 0.928588 0.417914
0.931731 0.928588 0.417914
0.931731 0.928588 0.417914
0.931731 0.928588 0.417914
0.931731 0.928588 0.417914
0.931730 0.928588 0.417914
0.931730 0.928588 0.417914
0.931730 0.928588 0.417914
0.931732 0.928588 0.417914
0.931732 0.928588 0.417914
0.124178 0.806088 0.299596
0.124178 0.806088 0.299596
0.124178 0.806088 0.299596
0.124178 0.806088 0.299596
0.124178 0.806088 0.299596
0.124178 0.806088 0.299596
0.124178 0.806088 0.299596
0.124178 0.806088 0.299596
0.124178 0.806088 0.299596
0.124178 0.806088 0.299596
0.124178 0.806088 0.299596
0.124178 0.806088 0.299596
0.124178 0.806088 0.299596
0.124178 0.806088 0.299596
0.124178 0.806088 0.299596
0.124178 0.806088 0.299596
0.685419 0.896118 0.381583
0.931731 0.928588 0.417914
0.931731 0.928588 0.417914
0.931731 0.928588 0.417914
0.931731 0.928588 0.417914
0.931731 0.928588 0.417914
0.931731 0.928588 0.417914
0.931731 0.928588 0.417914
0.931731 0.928588 0.417914
0.931731 0.928588 0.417914
0.931731 0.928588 0.417914
0.931730 0.928588 0.417914
0.931730 0.928588 0.417914
0.931730 0.928588 0.417914
0.931732 0.928588 0.417914
0.931732 0.928588 0.417914
0.124178 0.806088 0.299596
0.124178 0.806088 0.299596
0.124178 0.806088 0.299596
0.124178 0.806088 0.299596
0.124178 0.806088 0.299596
0.124178 0.806088 0.299596
0.124178 0.806088 0.299596
0.124178 0.806088 0.299596
0.124178 0.806088 0.299596
0.124178 0.806088 0.299596
0.124178 0.806088 0.299596
0.124178 0.806088 0.299596
0.124178 0.806088 0.299596
0.124178 0.806088 0.299596
0.124178 0.806088 0.299596
0.124178 0.806088 0.299596
0.685419 0.896118 0.381583
0.931731 0.928588 0.417914
0.931731 0.928588 0.417914
0.931731 0.928588 0.417914
0.931731 0.928588 0.417914
0.931731 0.928588 0.417914
0.931731 0.928588 0.417914
0.931731 0.928588 0.417914
0.931731 0.928588 0.417914
0.931731 0.928588 0.417914
0.931731 0.928588 0.417914
0.931730 0.928588 0.417914
0.931730 0.928588 0.417914
0.931730 0.928588 0.417914
0.931732 0.928588 0.417914
0.931732 0.928588 0.417914
0.124178 0.806088 0.299596
0.124178 0.806088 0.299596
0.124178 0.806088 0.299596
0.124178 0.806088 0.299596
0.124178 0.806088 0.299596
0.124178 0.806088 0.299596
0.124178 0.806088 0.299596
0.124178 0.806088 0.299596
0.124178 0.806088 0.299596
0.124178 0.806088 0.299596
0.124178 0.806088 0.299596
0.124178 0.806088 0.299596
0.124178 0.806088 0.299596
0.124178 0.806088 0.299596
0.124178 0.806088 0.299596
0.124178 0.806088 0.299596
0.685419 0.896118 0.381583
0.931731 0.928588 0.417914
0.931731 0.928588 0.417914
0.931731 0.928588 0.417914
0.931731 0.928588 0.417914
0.931731 0.928588 0.417914
0.931731 0.928588 0.417914
0.931731 0.928588 0.417914
0.931731 0.928588 0.417914
0.931731 0.928588 0.417914
0.931731 0.928588 0.417914
0.931730 0.928588 0.417914
0.931730 0.928588 0.417914
0.931730 0.928588 0.417914
0.931732 0.928588 0.417914
0.931732 0.928588 0.417914
0.124178 0.806088 0.299596
0.124178 0.806088 0.299596
0.124178 0.806088 0.299596
0.124178 0.806088 0.299596
0.124178 0.806088 0.299596
0.124178 0.806088 0.299596
0.124178 0.806088 0.299596
0.124178 0.806088 0.299596
0.124178 0.806088 0.299596
0.124178 0.806088 0.299596
0.124178 0.806088 0.299596
0.124178 0.806088 0.299596
0.124178 0.806088 0.299596
0.124178 0.806088 0.299596
0.124178 0.806088 0.299596
0.124178 0.806088 0.299596
0.685419 0.896118 0.381583
0.931731 0.928588 0.417914
0.931731 0.928588 0.417914
0.931731 0.928588 0.417914
0.931731 0.928588 0.417914
0.931731 0.928588 0.417914
0.931731 0.928588 0.417914
0.931731 0.928588 0.417914
0.931731 0.928588 0.417914
0.931731 0.928588 0.417914
0.931731 0.928588 0.417914
0.931730 0.928588 0.417914
0.931730 0.928588 0.417914
0.931730 0.928588 0.417914
0.931732 0.928588 0.417914
0.931732 0.928588 0.417914
0.124178 0.806088 0.299596
0.124178 0.806088 0.299596
0.124178 0.806088 0.299596
0.124178 0.806088 0.299596
0.124178 0.806088 0.299596
0.124178 0.806088 0.299596
0.124178 0.806088 0.299596
0.124178 0.806088 0.299596
0.124178 0.806088 0.299596
0.124178 0.806088 0.299596
0.124178 0.806088 0.299596
0.124178 0.806088 0.299596
0.124178 0.806088 0.299596
0.124178 0.806088 0.299596
0.124178 0.806088 0.299596
0.124178 0.806088 0.299596
0.685419 0.896118 0.381583
0.931731 0.928588 0.417914
0.931731 0.928588 0.417914
0.931731 0.928588 0.417914
0.931731 0.928588 0.417914
0.931731 0.928588 0.417914
0.931731 0.928588 0.417914
0.931731 0.928588 0.417914
0.931731 0.928588 0.417914
0.931731 0.928588 0.417914
0.931731 0.928588 0.417914
0.931730 0.928588 0.417914
0.931730 0.928588 0.417914
0.931730 0.928588 0.417914
0.931732 0.928588 0.417914
0.931732 0.928588 0.417914
0.124178 0.806088 0.299596
0.124178 0.806088 0.299596
0.124178 0.806088 0.299596
0.124178 0.806088 0.299596
0.124178 0.806088 0.299596
0.124178 0.806088 0.299596
0.124178 0.806088 0.299596
0.124178 0.806088 0.299596
0.124178 0.806088 0.299596
0.124178 0.806088 0.299596
0.124178 0.806088 0.299596
0.124178 0.806088 0.299596
0.124178 0.806088 0.299596
0.124178 0.806088 0.299596
0.124178 0.806088 0.299596
0.124178 0.806088 0.299596
0.685419 0.896118 0.381583
0.931731 0.928588 0.417914
0.931731 0.928588 0.417914
0.931731 0.928588 0.417914
0.931731 0.928588 0.417914
0.931731 0.928588 0.417914
0.931731 0.928588 0.417914
0.931731 0.928588 0.417914
0.931731 0.928588 0.417914
0.931731 0.928588 0.417914
0.931731 0.928588 0.417914
0.931730 0.928588 0.417914
0.931730 0.928588 0.417914
0.931730 0.928588 0.417914
0.931732 0.928588 0.417914
0.931732 0.928588 0.417914
0.124178 0.806087 0.299596
0.124178 0.806087 0.299596
0.124178 0.806087 0.299596
0.124178 0.806087 0.299596
0.124178 0.806087 0.299596
0.124178 0.806087 0.299596
0.124178 0.806087 0.299596
0.124178 0.806087 0.299596
0.124178 0.806087 0.299596
0.124178 0.806087 0.299596
0.124178 0.806087 0.299596
0.124178 0.806087 0.299596
0.124178 0.806087 0.299596
0.124178 0.806087 0.299596
0.124178 0.806087 0.299596
0.124178 0.806087 0.299596
0.685419 0.896118 0.381583
0.931731 0.928587 0.417914
