Assets/Art/Materials/LUT/Hiddenite.CUBE
#Created by: Adobe Photoshop Export Color Lookup Plugin
TITLE "Frame.exr"
#LUT size
LUT_3D_SIZE 8
#data domain
#LUT data points
DOMAIN_MIN 0.000000 0.000000 0.000000
DOMAIN_MAX 0.903226 0.903226 0.903226
0.000000 0.000000 0.000000
0.000472 0.000472 0.000703
0.003324 0.003324 0.004956
0.027996 0.010797 0.018107
0.663813 0.056166 0.132427
0.711116 0.060502 0.151003
0.711116 0.060502 0.151003
0.711117 0.060502 0.151003
0.000801 0.000801 0.001214
0.001123 0.001123 0.001703
0.003952 0.003952 0.005906
0.028595 0.011292 0.018791
0.663767 0.056156 0.132346
0.711106 0.060496 0.150935
0.711106 0.060496 0.150935
0.711107 0.060496 0.150935
0.005626 0.005626 0.008545
0.005805 0.005812 0.008815
0.007898 0.007898 0.011965
0.032956 0.014754 0.023935
0.663483 0.056100 0.131835
0.711057 0.060465 0.150525
0.711057 0.060465 0.150525
0.711056 0.060465 0.150525
0.017119 0.035782 0.030891
0.017119 0.035762 0.030885
0.017112 0.035630 0.030847
0.041014 0.044046 0.039608
0.661924 0.055743 0.128944
0.710793 0.060298 0.148261
0.710793 0.060298 0.148261
0.710794 0.060298 0.148261
0.107103 0.698964 0.256533
0.107103 0.698960 0.256529
0.107103 0.698942 0.256517
0.107079 0.698823 0.256469
0.750229 0.788556 0.347113
0.904047 0.801674 0.367911
0.904047 0.801674 0.367911
0.904047 0.801674 0.367911
0.124178 0.806088 0.299596
0.124178 0.806088 0.299596
0.124178 0.806088 0.299596
0.124178 0.806088 0.299596
0.685419 0.896118 0.381583
0.931731 0.928588 0.417914
0.931731 0.928588 0.417914
0.931730 0.928588 0.417914
0.124178 0.806088 0.299596
0.124178 0.806088 0.299596
0.124178 0.806088 0.299596
0.124178 0.806088 0.299596
0.685419 0.896118 0.381583
0.931731 0.928588 0.417914
0.931731 0.928588 0.417914
0.931730 0.928588 0.417914
0.124178 0.806087 0.299596
0.124178 0.806087 0.299596
0.124178 0.806087 0.299596
0.124178 0.806087 0.299596
0.685419 0.896118 0.381583
0.931731 0.928587 0.417914
0.931731 0.928587 0.417914
0.931730 0.928587 0.417914
0.000098 0.000098 0.000501
0.000472 0.000472 0.001712
0.003324 0.003324 0.005962
0.027966 0.010820 0.019152
0.663914 0.056235 0.133078
0.711185 0.060548 0.151589
0.711185 0.060548 0.151589
0.711185 0.060548 0.151589
0.000677 0.000677 0.001830
0.000973 0.000973 0.002292
0.003799 0.003799 0.006512
0.028354 0.011181 0.019605
0.663868 0.056225 0.133007
0.711178 0.060541 0.151527
0.711178 0.060541 0.151527
0.711178 0.060541 0.151527
0.005499 0.005499 0.009043
0.005655 0.005655 0.009287
0.007745 0.007745 0.012450
0.032718 0.014640 0.024631
0.663587 0.056168 0.132500
0.711125 0.060507 0.151121
0.711125 0.060507 0.151121
0.711124 0.060507 0.151121
0.017113 0.035629 0.030846
0.017113 0.035606 0.030839
0.017106 0.035474 0.030798
0.040933 0.043893 0.039595
0.662038 0.055817 0.129673
0.710868 0.060344 0.148890
0.710868 0.060344 0.148890
0.710869 0.060344 0.148890
0.107100 0.698938 0.256520
0.107100 0.698934 0.256520
0.107100 0.698916 0.256504
0.107075 0.698801 0.256459
0.750213 0.788530 0.347104
0.904040 0.801648 0.367901
0.904040 0.801648 0.367901
0.904039 0.801648 0.367901
0.124178 0.806088 0.299596
0.124178 0.806088 0.299596
0.124178 0.806088 0.299596
0.124178 0.806088 0.299596
0.685409 0.896114 0.381580
0.931731 0.928588 0.417914
0.931731 0.928588 0.417914
0.931730 0.928588 0.417914
0.124178 0.806088 0.299596
0.124178 0.806088 0.299596
0.124178 0.806088 0.299596
0.124178 0.806088 0.299596
0.685409 0.896114 0.381580
0.931731 0.928588 0.417914
0.931731 0.928588 0.417914
0.931730 0.928588 0.417914
0.124178 0.806087 0.299596
0.124178 0.806087 0.299596
0.124178 0.806087 0.299596
0.124178 0.806087 0.299596
0.685409 0.896114 0.381580
0.931731 0.928587 0.417914
0.931731 0.928587 0.417914
0.931730 0.928587 0.417914
0.000684 0.000684 0.003530
0.001016 0.001016 0.004786
0.003317 0.003317 0.012039
0.027752 0.010972 0.025440
0.664472 0.056611 0.137167
0.711581 0.060812 0.155081
0.711581 0.060812 0.155081
0.711580 0.060812 0.155081
0.001104 0.001104 0.004500
0.001361 0.001361 0.004985
0.003620 0.003620 0.012341
0.027902 0.011187 0.025655
0.664429 0.056601 0.137089
0.711574 0.060805 0.155012
0.711574 0.060805 0.155012
0.711575 0.060805 0.155012
0.004758 0.004758 0.012869
0.004885 0.004885 0.013071
0.006846 0.006846 0.016120
0.031265 0.013954 0.029466
0.664169 0.056551 0.136613
0.711536 0.060774 0.154626
0.711536 0.060774 0.154626
0.711536 0.060774 0.154626
0.017203 0.034559 0.033851
0.017203 0.034536 0.033854
0.017197 0.034397 0.033873
0.040344 0.043069 0.042414
0.662686 0.056238 0.134018
0.711296 0.060615 0.152560
0.711296 0.060615 0.152560
0.711296 0.060615 0.152560
0.107074 0.698787 0.256457
0.107074 0.698784 0.256454
0.107074 0.698758 0.256444
0.107056 0.698649 0.256403
0.750118 0.788366 0.347034
0.904002 0.801484 0.367844
0.904002 0.801484 0.367844
0.904003 0.801484 0.367844
0.124178 0.806088 0.299596
0.124178 0.806088 0.299596
0.124178 0.806088 0.299596
0.124178 0.806088 0.299596
0.685353 0.896102 0.381568
0.931731 0.928588 0.417914
0.931731 0.928588 0.417914
0.931730 0.928588 0.417914
0.124178 0.806088 0.299596
0.124178 0.806088 0.299596
0.124178 0.806088 0.299596
0.124178 0.806088 0.299596
0.685353 0.896102 0.381568
0.931731 0.928588 0.417914
0.931731 0.928588 0.417914
0.931730 0.928588 0.417914
0.124178 0.806087 0.299596
0.124178 0.806087 0.299596
0.124178 0.806087 0.299596
0.124178 0.806087 0.299596
0.685353 0.896103 0.381568
0.931731 0.928587 0.417914
0.931731 0.928587 0.417914
0.931730 0.928587 0.417914
0.003313 0.003313 0.018096
0.003444 0.003444 0.019122
0.004650 0.004650 0.029026
0.026124 0.012007 0.055542
0.666343 0.057979 0.156938
0.713279 0.061949 0.173077
0.713279 0.061949 0.173077
0.713278 0.061949 0.173077
0.003307 0.003307 0.018064
0.003359 0.003359 0.018480
0.004569 0.004569 0.028372
0.025890 0.011994 0.055431
0.666304 0.057973 0.156876
0.713275 0.061945 0.173021
0.713275 0.061945 0.173021
0.713276 0.061945 0.173021
0.003612 0.003612 0.018865
0.003596 0.003596 0.018813
0.004369 0.004369 0.024969
0.024390 0.011925 0.054725
0.666064 0.057935 0.156485
0.713243 0.061926 0.172680
0.713243 0.061926 0.172680
0.713243 0.061926 0.172680
0.019300 0.029201 0.061308
0.019300 0.029179 0.061301
0.019281 0.029047 0.061251
0.035274 0.040412 0.068614
0.664767 0.057739 0.154351
0.713087 0.061817 0.170801
0.713087 0.061817 0.170801
0.713087 0.061817 0.170801
0.106936 0.697951 0.256116
0.106933 0.697948 0.256112
0.106927 0.697922 0.256107
0.106912 0.697811 0.256052
0.749644 0.787447 0.346638
0.903805 0.800604 0.367496
0.903806 0.800604 0.367496
0.903805 0.800604 0.367496
0.124178 0.806088 0.299596
0.124178 0.806088 0.299596
0.124178 0.806088 0.299596
0.124178 0.806088 0.299596
0.685001 0.896057 0.381522
0.931731 0.928588 0.417914
0.931731 0.928588 0.417914
0.931730 0.928588 0.417914
0.124178 0.806088 0.299596
0.124178 0.806088 0.299596
0.124178 0.806088 0.299596
0.124178 0.806088 0.299596
0.685001 0.896057 0.381522
0.931731 0.928588 0.417914
0.931731 0.928588 0.417914
0.931730 0.928588 0.417914
0.124178 0.806087 0.299596
0.124178 0.806087 0.299596
0.124178 0.806087 0.299596
0.124178 0.806087 0.299596
0.685001 0.896057 0.381522
0.931731 0.928587 0.417914
0.931731 0.928587 0.417914
0.931730 0.928587 0.417914
0.018227 0.054734 0.192098
0.018227 0.054734 0.192098
0.018227 0.054734 0.192098
0.018227 0.054734 0.192113
0.636218 0.083802 0.719805
0.708461 0.087333 0.733497
0.708461 0.087333 0.733497
0.708462 0.087333 0.733497
0.018227 0.054731 0.192095
0.018227 0.054731 0.192095
0.018227 0.054731 0.192095
0.018227 0.054731 0.192110
0.636183 0.083799 0.719788
0.708464 0.087329 0.733484
0.708465 0.087329 0.733484
0.708464 0.087329 0.733484
0.018227 0.054719 0.192076
0.018227 0.054719 0.192076
0.018227 0.054719 0.192076
0.018227 0.054725 0.192091
0.635962 0.083780 0.719681
0.708476 0.087317 0.733409
0.708477 0.087317 0.733409
0.708477 0.087317 0.733409
0.018218 0.054679 0.191958
0.018218 0.054679 0.191958
0.018218 0.054679 0.191958
0.018218 0.054679 0.191973
0.634755 0.083678 0.719100
0.708522 0.087287 0.733019
0.708522 0.087287 0.733019
0.708523 0.087287 0.733019
0.262403 0.580431 0.738236
0.262400 0.580428 0.738236
0.262394 0.580409 0.738236
0.262349 0.580291 0.738221
0.707892 0.772197 0.843073
0.906998 0.772178 0.901195
0.906998 0.772178 0.901195
0.906998 0.772178 0.901195
0.298886 0.760723 0.809463
0.298886 0.760723 0.809463
0.298886 0.760723 0.809470
0.298917 0.760714 0.809488
0.720909 0.919801 0.914008
0.957665 0.983210 0.932406
0.957664 0.983210 0.932406
0.957664 0.983210 0.932406
0.298886 0.760723 0.809463
0.298886 0.760723 0.809463
0.298886 0.760723 0.809470
0.298917 0.760714 0.809488
0.720909 0.919801 0.914008
0.957665 0.983210 0.932406
0.957664 0.983210 0.932406
0.957664 0.983210 0.932406
0.298886 0.760723 0.809464
0.298886 0.760723 0.809464
0.298886 0.760723 0.809470
0.298917 0.760714 0.809488
0.720909 0.919802 0.914008
0.957665 0.983210 0.932406
0.957664 0.983210 0.932406
0.957664 0.983210 0.932406
0.019013 0.069520 0.231601
0.019013 0.069520 0.231601
0.019013 0.069520 0.231601
0.019013 0.069520 0.231601
0.586169 0.107438 0.801343
0.681300 0.109834 0.811154
0.681300 0.109834 0.811154
0.681299 0.109834 0.811154
0.019013 0.069520 0.231601
0.019013 0.069520 0.231601
0.019013 0.069520 0.231601
0.019013 0.069520 0.231601
0.586133 0.107435 0.801340
0.681300 0.109834 0.811154
0.681300 0.109834 0.811154
0.681299 0.109834 0.811154
0.019013 0.069520 0.231601
0.019013 0.069520 0.231601
0.019013 0.069520 0.231601
0.019013 0.069520 0.231601
0.585874 0.107429 0.801321
0.681300 0.109834 0.811154
0.681300 0.109834 0.811154
0.681299 0.109834 0.811154
0.019013 0.069520 0.231601
0.019013 0.069520 0.231601
0.019013 0.069520 0.231601
0.019013 0.069520 0.231601
0.584421 0.107412 0.801156
0.681300 0.109834 0.811154
0.681300 0.109834 0.811154
0.681299 0.109834 0.811154
0.259363 0.545657 0.787844
0.259359 0.545653 0.787841
0.259340 0.545635 0.787822
0.259231 0.545532 0.787758
0.669461 0.743391 0.870471
0.844391 0.762923 0.944091
0.844391 0.762923 0.944091
0.844391 0.762923 0.944091
0.395407 0.745129 0.878569
0.395407 0.745129 0.878569
0.395407 0.745129 0.878569
0.395407 0.745129 0.878569
0.807130 0.902991 0.956308
1.000000 1.000000 1.000000
1.000000 1.000000 1.000000
1.000000 1.000000 1.000000
0.395407 0.745129 0.878569
0.395407 0.745129 0.878569
0.395407 0.745129 0.878569
0.395407 0.745129 0.878569
0.807130 0.902991 0.956308
1.000000 1.000000 1.000000
1.000000 1.000000 1.000000
1.000000 1.000000 1.000000
0.395407 0.745129 0.878569
0.395407 0.745129 0.878569
0.395407 0.745129 0.878569
0.395407 0.745129 0.878569
0.807130 0.902990 0.956308
1.000000 1.000000 1.000000
1.000000 1.000000 1.000000
1.000000 1.000000 1.000000
0.019013 0.069520 0.231601
0.019013 0.069520 0.231601
0.019013 0.069520 0.231601
0.019013 0.069520 0.231601
0.586169 0.107438 0.801343
0.681300 0.109834 0.811154
0.681300 0.109834 0.811154
0.681299 0.109834 0.811154
0.019013 0.069520 0.231601
0.019013 0.069520 0.231601
0.019013 0.069520 0.231601
0.019013 0.069520 0.231601
0.586133 0.107435 0.801340
0.681300 0.109834 0.811154
0.681300 0.109834 0.811154
0.681299 0.109834 0.811154
0.019013 0.069520 0.231601
0.019013 0.069520 0.231601
0.019013 0.069520 0.231601
0.019013 0.069520 0.231601
0.585874 0.107429 0.801321
0.681300 0.109834 0.811154
0.681300 0.109834 0.811154
0.681299 0.109834 0.811154
0.019013 0.069520 0.231601
0.019013 0.069520 0.231601
0.019013 0.069520 0.231601
0.019013 0.069520 0.231601
0.584421 0.107412 0.801156
0.681300 0.109834 0.811154
0.681300 0.109834 0.811154
0.681299 0.109834 0.811154
0.259363 0.545657 0.787844
0.259359 0.545653 0.787841
0.259340 0.545635 0.787822
0.259231 0.545532 0.787758
0.669461 0.743391 0.870471
0.844391 0.762923 0.944091
0.844391 0.762923 0.944091
0.844391 0.762923 0.944091
0.395407 0.745129 0.878569
0.395407 0.745129 0.878569
0.395407 0.745129 0.878569
0.395407 0.745129 0.878569
0.807130 0.902991 0.956308
1.000000 1.000000 1.000000
1.000000 1.000000 1.000000
1.000000 1.000000 1.000000
0.395407 0.745129 0.878569
0.395407 0.745129 0.878569
0.395407 0.745129 0.878569
0.395407 0.745129 0.878569
0.807130 0.902991 0.956308
1.000000 1.000000 1.000000
1.000000 1.000000 1.000000
1.000000 1.000000 1.000000
0.395407 0.745129 0.878569
0.395407 0.745129 0.878569
0.395407 0.745129 0.878569
0.395407 0.745129 0.878569
0.807130 0.902990 0.956308
1.000000 1.000000 1.000000
1.000000 1.000000 1.000000
1.000000 1.000000 1.000000
0.019013 0.069520 0.231602
0.019013 0.069520 0.231602
0.019013 0.069520 0.231602
0.019013 0.069520 0.231602
0.586169 0.107438 0.801344
0.681300 0.109834 0.811153
0.681300 0.109834 0.811153
0.681299 0.109834 0.811153
0.019013 0.069520 0.231602
0.019013 0.069520 0.231602
0.019013 0.069520 0.231602
0.019013 0.069520 0.231602
0.586133 0.107435 0.801340
0.681300 0.109834 0.811155
0.681300 0.109834 0.811153
0.681299 0.109834 0.811153
0.019013 0.069520 0.231602
0.019013 0.069520 0.231602
0.019013 0.069520 0.231602
0.019013 0.069520 0.231602
0.585874 0.107429 0.801321
0.681300 0.109834 0.811153
0.681300 0.109834 0.811153
0.681299 0.109834 0.811153
0.019013 0.069520 0.231602
0.019013 0.069520 0.231602
0.019013 0.069520 0.231602
0.019013 0.069520 0.231602
0.584422 0.107412 0.801155
0.681300 0.109834 0.811153
0.681300 0.109834 0.811153
0.681299 0.109834 0.811153
0.259363 0.545657 0.787844
0.259359 0.545653 0.787840
0.259341 0.545635 0.787823
0.259231 0.545532 0.787758
0.669461 0.743391 0.870472
0.844391 0.762923 0.944090
0.844391 0.762923 0.944090
0.844391 0.762923 0.944092
0.395407 0.745129 0.878569
0.395407 0.745129 0.878569
0.395407 0.745129 0.878569
0.395407 0.745129 0.878569
0.807130 0.902991 0.956308
1.000000 1.000000 1.000000
1.000000 1.000000 1.000000
1.000000 1.000000 1.000000
0.395407 0.745129 0.878569
0.395407 0.745129 0.878569
0.395407 0.745129 0.878569
0.395407 0.745129 0.878569
0.807130 0.902991 0.956308
1.000000 1.000000 1.000000
1.000000 1.000000 1.000000
1.000000 1.000000 1.000000
0.395407 0.745129 0.878569
0.395407 0.745129 0.878569
0.395407 0.745129 0.878569
0.395407 0.745129 0.878569
0.807130 0.902990 0.956308
1.000000 1.000000 1.000000
1.000000 1.000000 1.000000
1.000000 1.000000 1.000000
