Assets/Art/Materials/LUT/Hiddenite.CUBE
#Created by: Adobe Photoshop Export Color Lookup Plugin
TITLE "Frame.exr"
#LUT size
LUT_3D_SIZE 5
#data domain
#LUT data points
DOMAIN_MIN 0.000000 0.000000 0.000000
DOMAIN_MAX 0.903226 0.903226 0.903226
0.000000 0.000000 0.000000
0.002206 0.002206 0.003286
0.145355 0.017557 0.042205
0.711116 0.060502 0.151003
0.711117 0.060502 0.151003
0.003742 0.003742 0.005674
0.005248 0.005248 0.007956
0.144816 0.017526 0.041574
0.711071 0.060472 0.150684
0.711071 0.060472 0.150684
0.030312 0.154695 0.069058
0.030312 0.154642 0.069042
0.163598 0.174717 0.086874
0.761168 0.177045 0.172409
0.761168 0.177045 0.172409
0.124178 0.806088 0.299596
0.124178 0.806088 0.299596
0.124178 0.806088 0.299596
0.931731 0.928588 0.417914
0.931730 0.928588 0.417914
0.124178 0.806087 0.299596
0.124178 0.806087 0.299596
0.124178 0.806087 0.299596
0.931731 0.928587 0.417914
0.931730 0.928587 0.417914
0.000456 0.000456 0.002343
0.002206 0.002206 0.008002
0.145471 0.017655 0.047090
0.711436 0.060715 0.153742
0.711435 0.060715 0.153742
0.003164 0.003164 0.008549
0.004549 0.004549 0.010710
0.144932 0.017617 0.046459
0.711405 0.060685 0.153452
0.711405 0.060685 0.153452
0.030260 0.154301 0.068929
0.030244 0.154255 0.068913
0.163386 0.174301 0.086730
0.761643 0.177064 0.175933
0.761642 0.177064 0.175933
0.124178 0.806088 0.299596
0.124178 0.806088 0.299596
0.124178 0.806088 0.299596
0.931731 0.928588 0.417914
0.931730 0.928588 0.417914
0.124178 0.806087 0.299596
0.124178 0.806087 0.299596
0.124178 0.806087 0.299596
0.931731 0.928587 0.417914
0.931730 0.928587 0.417914
0.011088 0.011088 0.059755
0.011088 0.011088 0.059763
0.140924 0.022212 0.178213
0.717946 0.065953 0.267061
0.717945 0.065953 0.267061
0.011080 0.011080 0.059679
0.011080 0.011080 0.059687
0.140387 0.022173 0.177941
0.717946 0.065945 0.266872
0.717945 0.065945 0.266872
0.060412 0.122684 0.177449
0.060396 0.122632 0.177442
0.148192 0.164500 0.201460
0.762678 0.150772 0.295400
0.762678 0.150772 0.295400
0.124178 0.806088 0.299596
0.124178 0.806088 0.299596
0.124178 0.806088 0.299596
0.931731 0.928588 0.417914
0.931730 0.928588 0.417914
0.124178 0.806087 0.299596
0.124178 0.806087 0.299596
0.124178 0.806087 0.299596
0.931731 0.928587 0.417914
0.931730 0.928587 0.417914
0.019013 0.069520 0.231601
0.019013 0.069520 0.231601
0.020453 0.082644 0.274583
0.681300 0.109834 0.811154
0.681299 0.109834 0.811154
0.019013 0.069520 0.231601
0.019013 0.069520 0.231601
0.020405 0.082412 0.273815
0.681300 0.109834 0.811154
0.681299 0.109834 0.811154
0.019013 0.069520 0.231601
0.019013 0.069520 0.231601
0.019013 0.069520 0.231601
0.681300 0.109834 0.811154
0.681299 0.109834 0.811154
0.395407 0.745129 0.878569
0.395407 0.745129 0.878569
0.395454 0.745152 0.878584
1.000000 1.000000 1.000000
1.000000 1.000000 1.000000
0.395407 0.745129 0.878569
0.395407 0.745129 0.878569
0.395454 0.745152 0.878584
1.000000 1.000000 1.000000
1.000000 1.000000 1.000000
0.019013 0.069520 0.231602
0.019013 0.069520 0.231602
0.020453 0.082644 0.274584
0.681300 0.109834 0.811153
0.681299 0.109834 0.811153
0.019013 0.069520 0.231602
0.019013 0.069520 0.231602
0.020405 0.082412 0.273815
0.681300 0.109834 0.811153
0.681299 0.109834 0.811155
0.019013 0.069520 0.231602
0.019013 0.069520 0.231602
0.019013 0.069520 0.231602
0.681300 0.109834 0.811153
0.681299 0.109834 0.811153
0.395407 0.745129 0.878569
0.395407 0.745129 0.878569
0.395454 0.745152 0.878584
1.000000 1.000000 1.000000
1.000000 1.000000 1.000000
0.395407 0.745129 0.878569
0.395407 0.745129 0.878569
0.395454 0.745152 0.878584
1.000000 1.000000 1.000000
1.000000 1.000000 1.000000
