Assets/Art/Materials/LUT/Howlite.CUBE
#Created by: Adobe Photoshop Export Color Lookup Plugin
TITLE "Frame.exr"
#LUT size
LUT_3D_SIZE 8
#data domain
#LUT data points
DOMAIN_MIN 0.000000 0.000000 0.000000
DOMAIN_MAX 0.903226 0.903226 0.903226
0.000000 0.000000 0.000000
0.003636 0.000075 0.000107
0.025481 0.000529 0.000764
0.107722 0.002282 0.003716
0.912867 0.019828 0.119483
0.954635 0.021042 0.166201
0.954635 0.021042 0.166201
0.954636 0.021042 0.166201
0.000000 0.002289 0.000000
0.002780 0.002227 0.000016
0.024673 0.002606 0.000637
0.107452 0.003926 0.003420
0.912834 0.019825 0.119164
0.954635 0.021039 0.165977
0.954635 0.021039 0.165977
0.954636 0.021039 0.165977
0.000000 0.016091 0.000000
0.001637 0.016032 0.000010
0.019554 0.015664 0.000111
0.105596 0.015512 0.002738
0.912632 0.019806 0.117143
0.954628 0.021027 0.164620
0.954628 0.021027 0.164620
0.954628 0.021027 0.164620
0.000000 0.079123 0.000000
0.000000 0.079087 0.000000
0.000000 0.078860 0.000000
0.093805 0.077632 0.000108
0.911516 0.019688 0.105466
0.954565 0.020972 0.156998
0.954565 0.020972 0.156998
0.954565 0.020972 0.156998
0.000000 0.906027 0.000000
0.000000 0.906027 0.000000
0.000000 0.906014 0.000000
0.000000 0.905917 0.000000
0.854653 0.897280 0.000024
0.999964 0.891146 0.000166
0.999964 0.891146 0.000166
0.999964 0.891146 0.000166
0.000000 1.000000 0.000000
0.000000 1.000000 0.000000
0.000000 1.000000 0.000000
0.000000 1.000000 0.000000
0.766788 0.999987 0.000013
1.000000 1.000000 0.000000
1.000000 1.000000 0.000000
1.000000 1.000000 0.000000
0.000000 1.000000 0.000000
0.000000 1.000000 0.000000
0.000000 1.000000 0.000000
0.000000 1.000000 0.000000
0.766788 0.999987 0.000013
1.000000 1.000000 0.000000
1.000000 1.000000 0.000000
1.000000 1.000000 0.000000
0.000000 1.000000 0.000000
0.000000 1.000000 0.000000
0.000000 1.000000 0.000000
0.000000 1.000000 0.000000
0.766788 0.999987 0.000013
1.000000 1.000000 0.000000
1.000000 1.000000 0.000000
1.000000 1.000000 0.000000
0.000000 0.000000 0.004063
0.003353 0.000192 0.003734
0.025136 0.000682 0.004400
0.107523 0.002393 0.007534
0.912883 0.019851 0.122260
0.954651 0.021058 0.168174
0.954651 0.021058 0.168174
0.954651 0.021058 0.168174
0.000000 0.001843 0.003617
0.002556 0.001807 0.003584
0.024426 0.002199 0.004228
0.107321 0.003558 0.007157
0.912850 0.019848 0.121967
0.954648 0.021055 0.167966
0.954648 0.021055 0.167966
0.954647 0.021055 0.167966
0.000000 0.015648 0.003122
0.001413 0.015599 0.003122
0.019329 0.015240 0.003239
0.105514 0.015111 0.006016
0.912649 0.019829 0.119982
0.954644 0.021043 0.166622
0.954644 0.021043 0.166622
0.954645 0.021043 0.166622
0.000000 0.078865 0.000000
0.000000 0.078830 0.000000
0.000000 0.078603 0.000000
0.093700 0.077371 0.000245
0.911536 0.019714 0.108565
0.954581 0.020988 0.159111
0.954581 0.020988 0.159111
0.954580 0.020988 0.159111
0.000000 0.906007 0.000000
0.000000 0.906004 0.000000
0.000000 0.905991 0.000000
0.000000 0.905894 0.000000
0.854643 0.897258 0.000024
0.999964 0.891124 0.000166
0.999964 0.891124 0.000166
0.999964 0.891124 0.000166
0.000000 1.000000 0.000000
0.000000 1.000000 0.000000
0.000000 1.000000 0.000000
0.000000 1.000000 0.000000
0.766778 0.999987 0.000013
1.000000 1.000000 0.000000
1.000000 1.000000 0.000000
1.000000 1.000000 0.000000
0.000000 1.000000 0.000000
0.000000 1.000000 0.000000
0.000000 1.000000 0.000000
0.000000 1.000000 0.000000
0.766778 0.999988 0.000013
1.000000 1.000000 0.000000
1.000000 1.000000 0.000000
1.000000 1.000000 0.000000
0.000000 1.000000 0.000000
0.000000 1.000000 0.000000
0.000000 1.000000 0.000000
0.000000 1.000000 0.000000
0.766779 0.999987 0.000013
1.000000 1.000000 0.000000
1.000000 1.000000 0.000000
1.000000 1.000000 0.000000
0.000000 0.000000 0.028570
0.003112 0.000208 0.028166
0.023405 0.001415 0.026281
0.106119 0.003147 0.030507
0.912984 0.019989 0.138752
0.954746 0.021153 0.179728
0.954745 0.021153 0.179728
0.954746 0.021153 0.179728
0.000000 0.001351 0.028124
0.002285 0.001335 0.028049
0.022634 0.002479 0.026037
0.105855 0.003853 0.030110
0.912951 0.019986 0.138501
0.954746 0.021150 0.179546
0.954745 0.021150 0.179546
0.954746 0.021150 0.179546
0.000000 0.012964 0.025437
0.001175 0.012912 0.025444
0.017959 0.012701 0.025202
0.104706 0.012861 0.027987
0.912749 0.019967 0.136827
0.954730 0.021138 0.178374
0.954730 0.021138 0.178374
0.954731 0.021138 0.178374
0.000000 0.077188 0.010954
0.000000 0.077156 0.010993
0.000000 0.076926 0.011200
0.092889 0.075694 0.012668
0.911655 0.019871 0.127009
0.954675 0.021083 0.171450
0.954675 0.021083 0.171450
0.954676 0.021083 0.171450
0.000000 0.905874 0.000000
0.000000 0.905871 0.000000
0.000000 0.905852 0.000000
0.000000 0.905756 0.000000
0.854587 0.897119 0.000024
0.999964 0.890978 0.000166
0.999964 0.890978 0.000166
0.999964 0.890978 0.000166
0.000000 1.000000 0.000000
0.000000 1.000000 0.000000
0.000000 1.000000 0.000000
0.000000 1.000000 0.000000
0.766715 0.999987 0.000013
1.000000 1.000000 0.000000
1.000000 1.000000 0.000000
1.000000 1.000000 0.000000
0.000000 1.000000 0.000000
0.000000 1.000000 0.000000
0.000000 1.000000 0.000000
0.000000 1.000000 0.000000
0.766715 0.999987 0.000013
1.000000 1.000000 0.000000
1.000000 1.000000 0.000000
1.000000 1.000000 0.000000
0.000000 1.000000 0.000000
0.000000 1.000000 0.000000
0.000000 1.000000 0.000000
0.000000 1.000000 0.000000
0.766715 0.999987 0.000013
1.000000 1.000000 0.000000
1.000000 1.000000 0.000000
1.000000 1.000000 0.000000
0.000000 0.000000 0.140939
0.001732 0.000000 0.140958
0.018252 0.000000 0.141104
0.100751 0.006970 0.128643
0.913245 0.020465 0.201347
0.954409 0.021900 0.227023
0.954409 0.021900 0.227023
0.954409 0.021900 0.227023
0.000000 0.000000 0.140698
0.000703 0.000000 0.140721
0.017220 0.000000 0.140863
0.100429 0.006931 0.128454
0.913216 0.020462 0.201194
0.954419 0.021894 0.226896
0.954419 0.021894 0.226896
0.954418 0.021894 0.226896
0.000000 0.001132 0.139092
0.000000 0.001070 0.139111
0.011002 0.000864 0.139252
0.098149 0.006685 0.127149
0.913026 0.020449 0.200217
0.954450 0.021862 0.226102
0.954451 0.021862 0.226102
0.954451 0.021862 0.226102
0.000000 0.067518 0.129961
0.000000 0.067479 0.129984
0.000000 0.067221 0.130135
0.088778 0.066239 0.129465
0.911964 0.020386 0.194697
0.954643 0.021728 0.221675
0.954643 0.021728 0.221675
0.954643 0.021728 0.221675
0.000000 0.905121 0.000000
0.000000 0.905118 0.000000
0.000000 0.905099 0.000000
0.000000 0.905005 0.000000
0.854318 0.896351 0.000024
0.999964 0.890201 0.000166
0.999964 0.890201 0.000166
0.999964 0.890201 0.000166
0.000000 1.000000 0.000000
0.000000 1.000000 0.000000
0.000000 1.000000 0.000000
0.000000 1.000000 0.000000
0.766370 0.999987 0.000013
1.000000 1.000000 0.000000
1.000000 1.000000 0.000000
1.000000 1.000000 0.000000
0.000000 1.000000 0.000000
0.000000 1.000000 0.000000
0.000000 1.000000 0.000000
0.000000 1.000000 0.000000
0.766370 0.999987 0.000013
1.000000 1.000000 0.000000
1.000000 1.000000 0.000000
1.000000 1.000000 0.000000
0.000000 1.000000 0.000000
0.000000 1.000000 0.000000
0.000000 1.000000 0.000000
0.000000 1.000000 0.000000
0.766370 0.999987 0.000013
1.000000 1.000000 0.000000
1.000000 1.000000 0.000000
1.000000 1.000000 0.000000
0.000000 0.000000 0.870722
0.000000 0.000000 0.870722
0.000000 0.000000 0.870722
0.000000 0.000000 0.870753
0.849545 0.058945 0.795937
0.905657 0.061909 0.800622
0.905657 0.061909 0.800622
0.905657 0.061909 0.800622
0.000000 0.000000 0.870709
0.000000 0.000000 0.870709
0.000000 0.000000 0.870712
0.000000 0.000000 0.870743
0.849516 0.058941 0.795927
0.905657 0.061909 0.800612
0.905657 0.061909 0.800612
0.905657 0.061909 0.800612
0.000000 0.000000 0.870634
0.000000 0.000000 0.870637
0.000000 0.000000 0.870641
0.000000 0.000000 0.870673
0.849333 0.058922 0.795864
0.905657 0.061909 0.800555
0.905657 0.061909 0.800555
0.905657 0.061909 0.800555
0.000000 0.000000 0.870262
0.000000 0.000000 0.870265
0.000000 0.000000 0.870277
0.000000 0.000000 0.870301
0.848335 0.058865 0.795501
0.905657 0.061900 0.800247
0.905657 0.061900 0.800247
0.905657 0.061900 0.800247
0.000015 0.836839 0.837608
0.000015 0.836835 0.837608
0.000015 0.836816 0.837608
0.000015 0.836698 0.837648
0.830100 0.826580 0.840668
0.991773 0.823151 0.844941
0.991773 0.823151 0.844941
0.991774 0.823151 0.844941
0.000000 1.000000 0.813231
0.000000 1.000000 0.813231
0.000000 1.000000 0.813238
0.000000 1.000000 0.813277
0.735304 1.000000 0.816457
1.000000 1.000000 0.818658
1.000000 1.000000 0.818658
1.000000 1.000000 0.818658
0.000000 1.000000 0.813231
0.000000 1.000000 0.813231
0.000000 1.000000 0.813238
0.000000 1.000000 0.813277
0.735304 1.000000 0.816457
1.000000 1.000000 0.818658
1.000000 1.000000 0.818658
1.000000 1.000000 0.818658
0.000000 1.000000 0.813231
0.000000 1.000000 0.813231
0.000000 1.000000 0.813238
0.000000 1.000000 0.813277
0.735304 1.000000 0.816457
1.000000 1.000000 0.818658
1.000000 1.000000 0.818658
1.000000 1.000000 0.818658
0.000000 0.000000 1.000000
0.000000 0.000000 1.000000
0.000000 0.000000 1.000000
0.000000 0.000000 1.000000
0.839335 0.060463 0.904211
0.907805 0.064057 0.907805
0.907805 0.064057 0.907805
0.907804 0.064057 0.907805
0.000000 0.000000 1.000000
0.000000 0.000000 1.000000
0.000000 0.000000 1.000000
0.000000 0.000000 1.000000
0.839305 0.060460 0.904211
0.907805 0.064057 0.907805
0.907805 0.064057 0.907805
0.907804 0.064057 0.907805
0.000000 0.000000 1.000000
0.000000 0.000000 1.000000
0.000000 0.000000 1.000000
0.000000 0.000000 1.000000
0.839109 0.060448 0.904204
0.907805 0.064057 0.907805
0.907805 0.064057 0.907805
0.907804 0.064057 0.907805
0.000000 0.000000 1.000000
0.000000 0.000000 1.000000
0.000000 0.000000 1.000000
0.000000 0.000000 1.000000
0.838096 0.060393 0.904147
0.907805 0.064057 0.907805
0.907805 0.064057 0.907805
0.907804 0.064057 0.907805
0.000018 0.781791 0.999955
0.000018 0.781784 0.999955
0.000018 0.781753 0.999955
0.000018 0.781620 0.999955
0.812285 0.769953 0.999920
0.978038 0.776822 0.978038
0.978038 0.776822 0.978038
0.978039 0.776822 0.978038
0.000000 1.000000 0.996384
0.000000 1.000000 0.996387
0.000000 1.000000 0.996399
0.000000 1.000000 0.996423
0.711329 1.000000 0.998539
1.000000 1.000000 1.000000
1.000000 1.000000 1.000000
1.000000 1.000000 1.000000
0.000000 1.000000 0.996384
0.000000 1.000000 0.996387
0.000000 1.000000 0.996399
0.000000 1.000000 0.996423
0.711329 1.000000 0.998539
1.000000 1.000000 1.000000
1.000000 1.000000 1.000000
1.000000 1.000000 1.000000
0.000000 1.000000 0.996384
0.000000 1.000000 0.996387
0.000000 1.000000 0.996399
0.000000 1.000000 0.996423
0.711329 1.000000 0.998539
1.000000 1.000000 1.000000
1.000000 1.000000 1.000000
1.000000 1.000000 1.000000
0.000000 0.000000 1.000000
0.000000 0.000000 1.000000
0.000000 0.000000 1.000000
0.000000 0.000000 1.000000
0.839335 0.060463 0.904211
0.907805 0.064057 0.907805
0.907805 0.064057 0.907805
0.907804 0.064057 0.907805
0.000000 0.000000 1.000000
0.000000 0.000000 1.000000
0.000000 0.000000 1.000000
0.000000 0.000000 1.000000
0.839305 0.060460 0.904211
0.907805 0.064057 0.907805
0.907805 0.064057 0.907805
0.907804 0.064057 0.907805
0.000000 0.000000 1.000000
0.000000 0.000000 1.000000
0.000000 0.000000 1.000000
0.000000 0.000000 1.000000
0.839109 0.060448 0.904204
0.907805 0.064057 0.907805
0.907805 0.064057 0.907805
0.907804 0.064057 0.907805
0.000000 0.000000 1.000000
0.000000 0.000000 1.000000
0.000000 0.000000 1.000000
0.000000 0.000000 1.000000
0.838096 0.060393 0.904147
0.907805 0.064057 0.907805
0.907805 0.064057 0.907805
0.907804 0.064057 0.907805
0.000018 0.781791 0.999955
0.000018 0.781784 0.999955
0.000018 0.781753 0.999955
0.000018 0.781620 0.999955
0.812285 0.769953 0.999920
0.978038 0.776822 0.978038
0.978038 0.776822 0.978038
0.978039 0.776822 0.978038
0.000000 1.000000 0.996384
0.000000 1.000000 0.996387
0.000000 1.000000 0.996399
0.000000 1.000000 0.996423
0.711329 1.000000 0.998539
1.000000 1.000000 1.000000
1.000000 1.000000 1.000000
1.000000 1.000000 1.000000
0.000000 1.000000 0.996384
0.000000 1.000000 0.996387
0.000000 1.000000 0.996399
0.000000 1.000000 0.996423
0.711329 1.000000 0.998539
1.000000 1.000000 1.000000
1.000000 1.000000 1.000000
1.000000 1.000000 1.000000
0.000000 1.000000 0.996384
0.000000 1.000000 0.996387
0.000000 1.000000 0.996399
0.000000 1.000000 0.996423
0.711329 1.000000 0.998539
1.000000 1.000000 1.000000
1.000000 1.000000 1.000000
1.000000 1.000000 1.000000
0.000000 0.000000 1.000000
0.000000 0.000000 1.000000
0.000000 0.000000 1.000000
0.000000 0.000000 1.000000
0.839335 0.060463 0.904211
0.907805 0.064057 0.907804
0.907805 0.064057 0.907804
0.907804 0.064057 0.907804
0.000000 0.000000 1.000000
0.000000 0.000000 1.000000
0.000000 0.000000 1.000000
0.000000 0.000000 1.000000
0.839305 0.060460 0.904211
0.907805 0.064057 0.907804
0.907805 0.064057 0.907804
0.907804 0.064057 0.907804
0.000000 0.000000 1.000000
0.000000 0.000000 1.000000
0.000000 0.000000 1.000000
0.000000 0.000000 1.000000
0.839109 0.060448 0.904203
0.907805 0.064057 0.907804
0.907805 0.064057 0.907804
0.907804 0.064057 0.907804
0.000000 0.000000 1.000000
0.000000 0.000000 1.000000
0.000000 0.000000 1.000000
0.000000 0.000000 1.000000
0.838096 0.060393 0.904148
0.907805 0.064057 0.907804
0.907805 0.064057 0.907804
0.907804 0.064057 0.907804
0.000018 0.781791 0.999956
0.000018 0.781784 0.999956
0.000018 0.781753 0.999956
0.000018 0.781620 0.999956
0.812285 0.769953 0.999920
0.978038 0.776822 0.978039
0.978038 0.776822 0.978039
0.978039 0.776822 0.978039
0.000000 1.000000 0.996384
0.000000 1.000000 0.996387
0.000000 1.000000 0.996399
0.000000 1.000000 0.996424
0.711329 1.000000 0.998539
1.000000 1.000000 1.000000
1.000000 1.000000 1.000000
1.000000 1.000000 1.000000
0.000000 1.000000 0.996384
0.000000 1.000000 0.996387
0.000000 1.000000 0.996399
0.000000 1.000000 0.996424
0.711329 1.000000 0.998539
1.000000 1.000000 1.000000
1.000000 1.000000 1.000000
1.000000 1.000000 1.000000
0.000000 1.000000 0.996384
0.000000 1.000000 0.996387
0.000000 1.000000 0.996399
0.000000 1.000000 0.996424
0.711329 1.000000 0.998539
1.000000 1.000000 1.000000
1.000000 1.000000 1.000000
1.000000 1.000000 1.000000
