Assets/Art/Materials/LUT/Howlite.CUBE
#Created by: Adobe Photoshop Export Color Lookup Plugin
TITLE "Frame.exr"
#LUT size
LUT_3D_SIZE 5
#data domain
#LUT data points
DOMAIN_MIN 0.000000 0.000000 0.000000
DOMAIN_MAX 0.903226 0.903226 0.903226
0.000000 0.000000 0.000000
0.016992 0.000350 0.000502
0.294573 0.006225 0.015956
0.954635 0.021042 0.166201
0.954636 0.021042 0.166201
0.000000 0.010694 0.000000
0.012991 0.010405 0.000076
0.293701 0.006195 0.013979
0.954635 0.021027 0.165152
0.954636 0.021027 0.165152
0.000000 0.274650 0.000000
0.000000 0.274567 0.000000
0.255371 0.269739 0.000008
0.961022 0.194496 0.090432
0.961021 0.194496 0.090432
0.000000 1.000000 0.000000
0.000000 1.000000 0.000000
0.000000 1.000000 0.000000
1.000000 1.000000 0.000000
1.000000 1.000000 0.000000
0.000000 1.000000 0.000000
0.000000 1.000000 0.000000
0.000000 1.000000 0.000000
1.000000 1.000000 0.000000
1.000000 1.000000 0.000000
0.000000 0.000000 0.018985
0.015669 0.000898 0.017449
0.294535 0.006362 0.033824
0.954711 0.021118 0.175420
0.954710 0.021118 0.175420
0.000000 0.008610 0.016901
0.011942 0.008443 0.016749
0.293663 0.006332 0.031846
0.954696 0.021103 0.174446
0.954697 0.021103 0.174446
0.000000 0.274006 0.000000
0.000000 0.273923 0.000000
0.255166 0.269096 0.000008
0.961129 0.193862 0.106822
0.961128 0.193862 0.106822
0.000000 1.000000 0.000000
0.000000 1.000000 0.000000
0.000000 1.000000 0.000000
1.000000 1.000000 0.000000
1.000000 1.000000 0.000000
0.000000 1.000000 0.000000
0.000000 1.000000 0.000000
0.000000 1.000000 0.000000
1.000000 1.000000 0.000000
1.000000 1.000000 0.000000
0.000000 0.000000 0.359150
0.000000 0.000000 0.359172
0.271776 0.020169 0.324446
0.938696 0.031928 0.380416
0.938696 0.031928 0.380416
0.000000 0.000000 0.358847
0.000000 0.000000 0.358878
0.270963 0.020102 0.324187
0.938726 0.031904 0.380167
0.938726 0.031904 0.380167
0.000000 0.237900 0.342000
0.000000 0.237809 0.342030
0.243379 0.232651 0.343562
0.957849 0.151917 0.372546
0.957850 0.151917 0.372546
0.000000 1.000000 0.000000
0.000000 1.000000 0.000000
0.000000 1.000000 0.000000
1.000000 1.000000 0.000000
1.000000 1.000000 0.000000
0.000000 1.000000 0.000000
0.000000 1.000000 0.000000
0.000000 1.000000 0.000000
1.000000 1.000000 0.000000
1.000000 1.000000 0.000000
0.000000 0.000000 1.000000
0.000000 0.000000 1.000000
0.066069 0.000024 0.999936
0.907805 0.064057 0.907805
0.907804 0.064057 0.907805
0.000000 0.000000 1.000000
0.000000 0.000000 1.000000
0.065213 0.000024 0.999928
0.907805 0.064057 0.907805
0.907804 0.064057 0.907805
0.000000 0.000000 1.000000
0.000000 0.000000 1.000000
0.000000 0.000000 1.000000
0.907805 0.064057 0.907805
0.907804 0.064057 0.907805
0.000000 1.000000 0.996384
0.000000 1.000000 0.996399
0.000000 1.000000 0.996591
1.000000 1.000000 1.000000
1.000000 1.000000 1.000000
0.000000 1.000000 0.996384
0.000000 1.000000 0.996399
0.000000 1.000000 0.996591
1.000000 1.000000 1.000000
1.000000 1.000000 1.000000
0.000000 0.000000 1.000000
0.000000 0.000000 1.000000
0.066069 0.000024 0.999935
0.907805 0.064057 0.907804
0.907804 0.064057 0.907804
0.000000 0.000000 1.000000
0.000000 0.000000 1.000000
0.065213 0.000024 0.999928
0.907805 0.064057 0.907804
0.907804 0.064057 0.907804
0.000000 0.000000 1.000000
0.000000 0.000000 1.000000
0.000000 0.000000 1.000000
0.907805 0.064057 0.907804
0.907804 0.064057 0.907804
0.000000 1.000000 0.996384
0.000000 1.000000 0.996399
0.000000 1.000000 0.996592
1.000000 1.000000 1.000000
1.000000 1.000000 1.000000
0.000000 1.000000 0.996384
0.000000 1.000000 0.996399
0.000000 1.000000 0.996592
1.000000 1.000000 1.000000
1.000000 1.000000 1.000000
