Assets/Art/Materials/LUT/Howlite.CUBE
#Created by: Adobe Photoshop Export Color Lookup Plugin
TITLE "Frame.exr"
#LUT size
LUT_3D_SIZE 32
#data domain
DOMAIN_MIN 0.0 0.0 0.0
DOMAIN_MAX 1.0 1.0 1.0
#LUT data points
0.000000 0.000000 0.000000
0.000000 0.000000 0.000000
0.000000 0.000000 0.000000
0.000538 0.000011 0.000016
0.003636 0.000075 0.000107
0.007256 0.000149 0.000214
0.011492 0.000237 0.000340
0.016992 0.000350 0.000502
0.025481 0.000529 0.000764
0.037311 0.000781 0.001129
0.054979 0.001168 0.001671
0.077179 0.001638 0.002448
0.107722 0.002282 0.003716
0.156102 0.003306 0.006392
0.294573 0.006225 0.015956
0.604749 0.012919 0.047981
0.912867 0.019828 0.119483
0.954604 0.021012 0.162496
0.954635 0.021042 0.166201
0.954635 0.021042 0.166201
0.954635 0.021042 0.166201
0.954635 0.021042 0.166201
0.954635 0.021042 0.166201
0.954635 0.021042 0.166201
0.954635 0.021042 0.166201
0.954635 0.021042 0.166201
0.954635 0.021042 0.166201
0.954636 0.021042 0.166201
0.954636 0.021042 0.166201
0.954636 0.021042 0.166201
0.954636 0.021042 0.166201
0.954636 0.021042 0.166201
0.000000 0.000000 0.000000
0.000000 0.000000 0.000000
0.000000 0.000000 0.000000
0.000538 0.000011 0.000016
0.003636 0.000075 0.000107
0.007256 0.000149 0.000214
0.011492 0.000237 0.000340
0.016992 0.000350 0.000502
0.025481 0.000529 0.000764
0.037311 0.000781 0.001129
0.054979 0.001168 0.001671
0.077179 0.001638 0.002448
0.107722 0.002282 0.003716
0.156102 0.003306 0.006392
0.294573 0.006225 0.015956
0.604749 0.012919 0.047981
0.912867 0.019828 0.119483
0.954604 0.021012 0.162496
0.954635 0.021042 0.166201
0.954635 0.021042 0.166201
0.954635 0.021042 0.166201
0.954635 0.021042 0.166201
0.954635 0.021042 0.166201
0.954635 0.021042 0.166201
0.954635 0.021042 0.166201
0.954635 0.021042 0.166201
0.954635 0.021042 0.166201
0.954636 0.021042 0.166201
0.954636 0.021042 0.166201
0.954636 0.021042 0.166201
0.954636 0.021042 0.166201
0.954636 0.021042 0.166201
0.000000 0.000000 0.000000
0.000000 0.000000 0.000000
0.000000 0.000000 0.000000
0.000538 0.000011 0.000016
0.003636 0.000075 0.000107
0.007256 0.000149 0.000214
0.011492 0.000237 0.000340
0.016992 0.000350 0.000502
0.025481 0.000529 0.000764
0.037311 0.000781 0.001129
0.054979 0.001168 0.001671
0.077179 0.001638 0.002448
0.107722 0.002282 0.003716
0.156102 0.003306 0.006392
0.294573 0.006225 0.015956
0.604749 0.012919 0.047981
0.912867 0.019828 0.119483
0.954604 0.021012 0.162496
0.954635 0.021042 0.166201
0.954635 0.021042 0.166201
0.954635 0.021042 0.166201
0.954635 0.021042 0.166201
0.954635 0.021042 0.166201
0.954635 0.021042 0.166201
0.954635 0.021042 0.166201
0.954635 0.021042 0.166201
0.954635 0.021042 0.166201
0.954636 0.021042 0.166201
0.954636 0.021042 0.166201
0.954636 0.021042 0.166201
0.954636 0.021042 0.166201
0.954636 0.021042 0.166201
0.000000 0.000339 0.000000
0.000000 0.000339 0.000000
0.000000 0.000339 0.000000
0.000412 0.000330 0.000002
0.003510 0.000393 0.000094
0.007129 0.000468 0.000201
0.011365 0.000555 0.000326
0.016866 0.000668 0.000489
0.025361 0.000837 0.000745
0.037191 0.001075 0.001116
0.054859 0.001463 0.001658
0.077120 0.001906 0.002421
0.107682 0.002526 0.003672
0.156074 0.003461 0.006335
0.294547 0.006224 0.015894
0.604739 0.012919 0.047919
0.912862 0.019828 0.119435
0.954604 0.021012 0.162461
0.954635 0.021042 0.166168
0.954635 0.021042 0.166168
0.954635 0.021042 0.166168
0.954635 0.021042 0.166168
0.954635 0.021042 0.166168
0.954635 0.021042 0.166168
0.954635 0.021042 0.166168
0.954635 0.021042 0.166168
0.954635 0.021042 0.166168
0.954636 0.021042 0.166168
0.954636 0.021042 0.166168
0.954636 0.021042 0.166168
0.954636 0.021042 0.166168
0.954636 0.021042 0.166168
0.000000 0.002289 0.000000
0.000000 0.002289 0.000000
0.000000 0.002289 0.000000
0.000412 0.002279 0.000002
0.002780 0.002227 0.000016
0.006400 0.002301 0.000123
0.010636 0.002388 0.000248
0.016136 0.002502 0.000411
0.024673 0.002606 0.000637
0.036503 0.002829 0.001016
0.054168 0.003160 0.001583
0.076625 0.003533 0.002320
0.107452 0.003926 0.003420
0.155913 0.004351 0.006008
0.294397 0.006219 0.015533
0.604684 0.012916 0.047561
0.912834 0.019825 0.119164
0.954604 0.021012 0.162265
0.954635 0.021039 0.165977
0.954635 0.021039 0.165977
0.954635 0.021039 0.165977
0.954635 0.021039 0.165977
0.954635 0.021039 0.165977
0.954635 0.021039 0.165977
0.954635 0.021039 0.165977
0.954635 0.021039 0.165977
0.954635 0.021039 0.165977
0.954636 0.021039 0.165977
0.954636 0.021039 0.165977
0.954636 0.021039 0.165977
0.954636 0.021039 0.165977
0.954636 0.021039 0.165977
0.000000 0.004567 0.000000
0.000000 0.004567 0.000000
0.000000 0.004567 0.000000
0.000412 0.004557 0.000002
0.002780 0.004505 0.000016
0.005547 0.004443 0.000032
0.009783 0.004530 0.000158
0.015284 0.004644 0.000320
0.023870 0.004674 0.000511
0.035699 0.004896 0.000889
0.053361 0.005143 0.001496
0.076029 0.005445 0.002210
0.107183 0.005563 0.003125
0.155725 0.005391 0.005626
0.294222 0.006212 0.015112
0.604614 0.012912 0.047143
0.912802 0.019821 0.118846
0.954604 0.021012 0.162034
0.954635 0.021036 0.165753
0.954635 0.021036 0.165753
0.954635 0.021036 0.165753
0.954635 0.021036 0.165753
0.954635 0.021036 0.165753
0.954635 0.021036 0.165753
0.954635 0.021036 0.165753
0.954635 0.021036 0.165753
0.954635 0.021036 0.165753
0.954636 0.021036 0.165753
0.954636 0.021036 0.165753
0.954636 0.021036 0.165753
0.954636 0.021036 0.165753
0.954636 0.021036 0.165753
0.000000 0.007233 0.000000
0.000000 0.007233 0.000000
0.000000 0.007233 0.000000
0.000412 0.007223 0.000002
0.002780 0.007171 0.000016
0.005547 0.007109 0.000032
0.008786 0.007037 0.000051
0.014287 0.007150 0.000214
0.022878 0.007172 0.000401
0.034759 0.007316 0.000741
0.052417 0.007464 0.001394
0.075331 0.007682 0.002081
0.106818 0.007542 0.002822
0.155505 0.006608 0.005178
0.294001 0.006205 0.014619
0.604511 0.012904 0.046654
0.912762 0.019818 0.118458
0.954604 0.021011 0.161765
0.954635 0.021032 0.165491
0.954635 0.021032 0.165491
0.954635 0.021032 0.165491
0.954635 0.021032 0.165491
0.954635 0.021032 0.165491
0.954635 0.021032 0.165491
0.954635 0.021032 0.165491
0.954635 0.021032 0.165491
0.954635 0.021032 0.165491
0.954636 0.021032 0.165491
0.954636 0.021032 0.165491
0.954636 0.021032 0.165491
0.954636 0.021032 0.165491
0.954636 0.021032 0.165491
0.000000 0.010694 0.000000
0.000000 0.010694 0.000000
0.000000 0.010694 0.000000
0.000412 0.010685 0.000002
0.002780 0.010632 0.000016
0.005547 0.010571 0.000032
0.008786 0.010499 0.000051
0.012991 0.010405 0.000076
0.021583 0.010427 0.000263
0.033538 0.010458 0.000549
0.051192 0.010509 0.001246
0.074425 0.010588 0.001914
0.106212 0.010280 0.002542
0.155196 0.008708 0.004621
0.293701 0.006195 0.013979
0.604378 0.012895 0.046019
0.912708 0.019813 0.117916
0.954599 0.021006 0.161410
0.954635 0.021027 0.165152
0.954635 0.021027 0.165152
0.954635 0.021027 0.165152
0.954635 0.021027 0.165152
0.954635 0.021027 0.165152
0.954635 0.021027 0.165152
0.954635 0.021027 0.165152
0.954635 0.021027 0.165152
0.954635 0.021027 0.165152
0.954636 0.021027 0.165152
0.954636 0.021027 0.165152
0.954636 0.021027 0.165152
0.954636 0.021027 0.165152
0.954636 0.021027 0.165152
0.000000 0.016091 0.000000
0.000000 0.016091 0.000000
0.000000 0.016091 0.000000
0.000242 0.016082 0.000001
0.001637 0.016032 0.000010
0.003267 0.015974 0.000019
0.006379 0.015902 0.000038
0.010584 0.015808 0.000062
0.019554 0.015664 0.000111
0.031529 0.015687 0.000406
0.049287 0.015704 0.001155
0.073090 0.015783 0.002006
0.105596 0.015512 0.002738
0.154850 0.013927 0.004149
0.293348 0.007807 0.013054
0.604206 0.012881 0.045025
0.912632 0.019806 0.117143
0.954592 0.020999 0.160865
0.954628 0.021027 0.164620
0.954628 0.021027 0.164620
0.954628 0.021027 0.164620
0.954628 0.021027 0.164620
0.954628 0.021027 0.164620
0.954628 0.021027 0.164620
0.954628 0.021027 0.164620
0.954628 0.021027 0.164620
0.954628 0.021027 0.164620
0.954628 0.021027 0.164620
0.954628 0.021027 0.164620
0.954628 0.021027 0.164620
0.954628 0.021027 0.164620
0.954628 0.021027 0.164620
0.000000 0.023645 0.000000
0.000000 0.023645 0.000000
0.000000 0.023645 0.000000
0.000049 0.023636 0.000000
0.001197 0.023585 0.000006
0.002827 0.023527 0.000016
0.004735 0.023459 0.000028
0.007212 0.023370 0.000042
0.016169 0.023226 0.000084
0.028701 0.023023 0.000156
0.046587 0.022998 0.000969
0.071240 0.023052 0.002065
0.104447 0.022825 0.002974
0.154306 0.021248 0.003936
0.292955 0.013653 0.011901
0.603925 0.012862 0.043636
0.912519 0.019796 0.115985
0.954584 0.020990 0.160103
0.954619 0.021026 0.163876
0.954619 0.021026 0.163876
0.954619 0.021026 0.163876
0.954619 0.021026 0.163876
0.954618 0.021026 0.163876
0.954618 0.021026 0.163876
0.954618 0.021026 0.163876
0.954618 0.021026 0.163876
0.954618 0.021026 0.163876
0.954618 0.021026 0.163876
0.954618 0.021026 0.163876
0.954618 0.021026 0.163876
0.954620 0.021026 0.163876
0.954620 0.021026 0.163876
0.000000 0.035259 0.000000
0.000000 0.035259 0.000000
0.000000 0.035259 0.000000
0.000049 0.035250 0.000000
0.000329 0.035198 0.000000
0.000656 0.035136 0.000000
0.001039 0.035064 0.000000
0.002024 0.034972 0.000004
0.010998 0.034834 0.000011
0.023552 0.034638 0.000040
0.042354 0.034328 0.000195
0.068375 0.034215 0.001343
0.103228 0.033939 0.002817
0.153576 0.032471 0.004309
0.292469 0.024829 0.010216
0.603524 0.012836 0.041519
0.912346 0.019778 0.114249
0.954584 0.020981 0.158933
0.954606 0.021013 0.162727
0.954606 0.021013 0.162727
0.954606 0.021013 0.162727
0.954606 0.021013 0.162727
0.954606 0.021013 0.162727
0.954606 0.021013 0.162727
0.954606 0.021013 0.162727
0.954606 0.021013 0.162727
0.954606 0.021013 0.162727
0.954605 0.021013 0.162727
0.954605 0.021013 0.162727
0.954605 0.021013 0.162727
0.954605 0.021013 0.162727
0.954605 0.021013 0.162727
0.000000 0.052155 0.000000
0.000000 0.052155 0.000000
0.000000 0.052155 0.000000
0.000000 0.052148 0.000000
0.000000 0.052105 0.000000
0.000000 0.052053 0.000000
0.000000 0.051992 0.000000
0.000000 0.051913 0.000000
0.005978 0.051798 0.000000
0.015491 0.051635 0.000000
0.034552 0.051364 0.000000
0.063016 0.050955 0.000242
0.100816 0.050530 0.002041
0.152733 0.049334 0.004419
0.291692 0.042309 0.008532
0.602922 0.013407 0.038241
0.912081 0.019750 0.111475
0.954568 0.020974 0.157071
0.954588 0.020996 0.160923
0.954588 0.020996 0.160923
0.954588 0.020996 0.160923
0.954588 0.020996 0.160923
0.954588 0.020996 0.160923
0.954588 0.020996 0.160923
0.954588 0.020996 0.160923
0.954588 0.020996 0.160923
0.954588 0.020996 0.160923
0.954588 0.020996 0.160923
0.954588 0.020996 0.160923
0.954588 0.020996 0.160923
0.954590 0.020996 0.160923
0.954590 0.020996 0.160923
0.000000 0.079123 0.000000
0.000000 0.079123 0.000000
0.000000 0.079123 0.000000
0.000000 0.079117 0.000000
0.000000 0.079087 0.000000
0.000000 0.079051 0.000000
0.000000 0.079007 0.000000
0.000000 0.078943 0.000000
0.000000 0.078860 0.000000
0.002967 0.078726 0.000000
0.017524 0.078539 0.000000
0.046875 0.078239 0.000000
0.093805 0.077632 0.000108
0.151060 0.076459 0.002906
0.289938 0.072861 0.008622
0.602895 0.045487 0.032541
0.911516 0.019688 0.105466
0.954535 0.020942 0.153037
0.954565 0.020972 0.156998
0.954565 0.020972 0.156998
0.954565 0.020972 0.156998
0.954565 0.020972 0.156998
0.954565 0.020972 0.156998
0.954565 0.020972 0.156998
0.954565 0.020972 0.156998
0.954565 0.020972 0.156998
0.954565 0.020972 0.156998
0.954565 0.020972 0.156998
0.954565 0.020972 0.156998
0.954565 0.020972 0.156998
0.954563 0.020972 0.156998
0.954563 0.020972 0.156998
0.000000 0.130351 0.000000
0.000000 0.130351 0.000000
0.000000 0.130351 0.000000
0.000000 0.130347 0.000000
0.000000 0.130325 0.000000
0.000000 0.130299 0.000000
0.000000 0.130269 0.000000
0.000000 0.130225 0.000000
0.000000 0.130163 0.000000
0.000000 0.130076 0.000000
0.000000 0.129944 0.000000
0.007533 0.129731 0.000000
0.062461 0.129310 0.000009
0.140808 0.128197 0.000000
0.286528 0.125177 0.006848
0.602063 0.113336 0.018778
0.911003 0.044619 0.088559
0.954435 0.020842 0.141360
0.954471 0.020878 0.145822
0.954471 0.020878 0.145822
0.954471 0.020878 0.145822
0.954471 0.020878 0.145822
0.954471 0.020878 0.145822
0.954471 0.020878 0.145822
0.954471 0.020878 0.145822
0.954471 0.020878 0.145822
0.954471 0.020878 0.145822
0.954472 0.020878 0.145822
0.954472 0.020878 0.145822
0.954472 0.020878 0.145822
0.954472 0.020878 0.145822
0.954472 0.020878 0.145822
0.000000 0.274650 0.000000
0.000000 0.274650 0.000000
0.000000 0.274650 0.000000
0.000000 0.274648 0.000000
0.000000 0.274634 0.000000
0.000000 0.274618 0.000000
0.000000 0.274596 0.000000
0.000000 0.274567 0.000000
0.000000 0.274525 0.000000
0.000000 0.274460 0.000000
0.000000 0.274364 0.000000
0.000000 0.274217 0.000000
0.000000 0.273911 0.000000
0.044447 0.273077 0.000002
0.255371 0.269739 0.000008
0.600001 0.260605 0.014655
0.913301 0.233146 0.031116
0.961129 0.198523 0.083960
0.961022 0.194496 0.090432
0.961022 0.194496 0.090432
0.961022 0.194496 0.090432
0.961022 0.194496 0.090432
0.961022 0.194496 0.090432
0.961022 0.194496 0.090432
0.961022 0.194496 0.090432
0.961021 0.194496 0.090432
0.961021 0.194496 0.090432
0.961021 0.194496 0.090432
0.961021 0.194496 0.090432
0.961021 0.194496 0.090432
0.961021 0.194496 0.090432
0.961021 0.194496 0.090432
0.000000 0.586662 0.000000
0.000000 0.586662 0.000000
0.000000 0.586662 0.000000
0.000000 0.586661 0.000000
0.000000 0.586656 0.000000
0.000000 0.586648 0.000000
0.000000 0.586637 0.000000
0.000000 0.586622 0.000000
0.000000 0.586607 0.000000
0.000000 0.586579 0.000000
0.000000 0.586540 0.000000
0.000000 0.586478 0.000000
0.000000 0.586350 0.000000
0.000000 0.586004 0.000000
0.043069 0.584617 0.000002
0.546292 0.579235 0.000019
0.918034 0.565062 0.012101
0.989932 0.551011 0.016433
0.989841 0.549368 0.016515
0.989841 0.549368 0.016515
0.989841 0.549368 0.016515
0.989841 0.549368 0.016515
0.989841 0.549368 0.016515
0.989841 0.549368 0.016515
0.989841 0.549368 0.016515
0.989841 0.549368 0.016515
0.989841 0.549368 0.016515
0.989841 0.549368 0.016515
0.989841 0.549368 0.016515
0.989841 0.549368 0.016515
0.989841 0.549368 0.016515
0.989841 0.549368 0.016515
0.000000 0.906027 0.000000
0.000000 0.906027 0.000000
0.000000 0.906027 0.000000
0.000000 0.906027 0.000000
0.000000 0.906027 0.000000
0.000000 0.906027 0.000000
0.000000 0.906025 0.000000
0.000000 0.906021 0.000000
0.000000 0.906014 0.000000
0.000000 0.906003 0.000000
0.000000 0.905982 0.000000
0.000000 0.905964 0.000000
0.000000 0.905917 0.000000
0.000000 0.905768 0.000000
0.000000 0.905217 0.000000
0.251970 0.903080 0.000022
0.854653 0.897280 0.000024
0.999964 0.891748 0.000160
0.999964 0.891146 0.000166
0.999964 0.891146 0.000166
0.999964 0.891146 0.000166
0.999964 0.891146 0.000166
0.999964 0.891146 0.000166
0.999964 0.891146 0.000166
0.999964 0.891146 0.000166
0.999965 0.891146 0.000166
0.999965 0.891146 0.000166
0.999964 0.891146 0.000166
0.999964 0.891146 0.000166
0.999964 0.891146 0.000166
0.999966 0.891146 0.000166
0.999966 0.891146 0.000166
0.000000 1.000000 0.000000
0.000000 1.000000 0.000000
0.000000 1.000000 0.000000
0.000000 1.000000 0.000000
0.000000 1.000000 0.000000
0.000000 1.000000 0.000000
0.000000 1.000000 0.000000
0.000000 1.000000 0.000000
0.000000 1.000000 0.000000
0.000000 1.000000 0.000000
0.000000 1.000000 0.000000
0.000000 1.000000 0.000000
0.000000 1.000000 0.000000
0.000000 1.000000 0.000000
0.000000 1.000000 0.000000
0.000000 1.000000 0.000000
0.776357 0.999994 0.000006
1.000000 1.000000 0.000000
1.000000 1.000000 0.000000
1.000000 1.000000 0.000000
1.000000 1.000000 0.000000
1.000000 1.000000 0.000000
1.000000 1.000000 0.000000
1.000000 1.000000 0.000000
1.000000 1.000000 0.000000
1.000000 1.000000 0.000000
1.000000 1.000000 0.000000
1.000000 1.000000 0.000000
1.000000 1.000000 0.000000
1.000000 1.000000 0.000000
1.000000 1.000000 0.000000
1.000000 1.000000 0.000000
0.000000 1.000000 0.000000
0.000000 1.000000 0.000000
0.000000 1.000000 0.000000
0.000000 1.000000 0.000000
0.000000 1.000000 0.000000
0.000000 1.000000 0.000000
0.000000 1.000000 0.000000
0.000000 1.000000 0.000000
0.000000 1.000000 0.000000
0.000000 1.000000 0.000000
0.000000 1.000000 0.000000
0.000000 1.000000 0.000000
0.000000 1.000000 0.000000
0.000000 1.000000 0.000000
0.000000 1.000000 0.000000
0.000000 1.000000 0.000000
0.766788 0.999987 0.000013
1.000000 1.000000 0.000000
1.000000 1.000000 0.000000
1.000000 1.000000 0.000000
1.000000 1.000000 0.000000
1.000000 1.000000 0.000000
1.000000 1.000000 0.000000
1.000000 1.000000 0.000000
1.000000 1.000000 0.000000
1.000000 1.000000 0.000000
1.000000 1.000000 0.000000
1.000000 1.000000 0.000000
1.000000 1.000000 0.000000
1.000000 1.000000 0.000000
1.000000 1.000000 0.000000
1.000000 1.000000 0.000000
0.000000 1.000000 0.000000
0.000000 1.000000 0.000000
0.000000 1.000000 0.000000
0.000000 1.000000 0.000000
0.000000 1.000000 0.000000
0.000000 1.000000 0.000000
0.000000 1.000000 0.000000
0.000000 1.000000 0.000000
0.000000 1.000000 0.000000
0.000000 1.000000 0.000000
0.000000 1.000000 0.000000
0.000000 1.000000 0.000000
0.000000 1.000000 0.000000
0.000000 1.000000 0.000000
0.000000 1.000000 0.000000
0.000000 1.000000 0.000000
0.766788 0.999987 0.000013
1.000000 1.000000 0.000000
1.000000 1.000000 0.000000
1.000000 1.000000 0.000000
1.000000 1.000000 0.000000
1.000000 1.000000 0.000000
1.000000 1.000000 0.000000
1.000000 1.000000 0.000000
1.000000 1.000000 0.000000
1.000000 1.000000 0.000000
1.000000 1.000000 0.000000
1.000000 1.000000 0.000000
1.000000 1.000000 0.000000
1.000000 1.000000 0.000000
1.000000 1.000000 0.000000
1.000000 1.000000 0.000000
0.000000 1.000000 0.000000
0.000000 1.000000 0.000000
0.000000 1.000000 0.000000
0.000000 1.000000 0.000000
0.000000 1.000000 0.000000
0.000000 1.000000 0.000000
0.000000 1.000000 0.000000
0.000000 1.000000 0.000000
0.000000 1.000000 0.000000
0.000000 1.000000 0.000000
0.000000 1.000000 0.000000
0.000000 1.000000 0.000000
0.000000 1.000000 0.000000
0.000000 1.000000 0.000000
0.000000 1.000000 0.000000
0.000000 1.000000 0.000000
0.766788 0.999987 0.000013
1.000000 1.000000 0.000000
1.000000 1.000000 0.000000
1.000000 1.000000 0.000000
1.000000 1.000000 0.000000
1.000000 1.000000 0.000000
1.000000 1.000000 0.000000
1.000000 1.000000 0.000000
1.000000 1.000000 0.000000
1.000000 1.000000 0.000000
1.000000 1.000000 0.000000
1.000000 1.000000 0.000000
1.000000 1.000000 0.000000
1.000000 1.000000 0.000000
1.000000 1.000000 0.000000
1.000000 1.000000 0.000000
0.000000 1.000000 0.000000
0.000000 1.000000 0.000000
0.000000 1.000000 0.000000
0.000000 1.000000 0.000000
0.000000 1.000000 0.000000
0.000000 1.000000 0.000000
0.000000 1.000000 0.000000
0.000000 1.000000 0.000000
0.000000 1.000000 0.000000
0.000000 1.000000 0.000000
0.000000 1.000000 0.000000
0.000000 1.000000 0.000000
0.000000 1.000000 0.000000
0.000000 1.000000 0.000000
0.000000 1.000000 0.000000
0.000000 1.000000 0.000000
0.766788 0.999987 0.000013
1.000000 1.000000 0.000000
1.000000 1.000000 0.000000
1.000000 1.000000 0.000000
1.000000 1.000000 0.000000
1.000000 1.000000 0.000000
1.000000 1.000000 0.000000
1.000000 1.000000 0.000000
1.000000 1.000000 0.000000
1.000000 1.000000 0.000000
1.000000 1.000000 0.000000
1.000000 1.000000 0.000000
1.000000 1.000000 0.000000
1.000000 1.000000 0.000000
1.000000 1.000000 0.000000
1.000000 1.000000 0.000000
0.000000 1.000000 0.000000
0.000000 1.000000 0.000000
0.000000 1.000000 0.000000
0.000000 1.000000 0.000000
0.000000 1.000000 0.000000
0.000000 1.000000 0.000000
0.000000 1.000000 0.000000
0.000000 1.000000 0.000000
0.000000 1.000000 0.000000
0.000000 1.000000 0.000000
0.000000 1.000000 0.000000
0.000000 1.000000 0.000000
0.000000 1.000000 0.000000
0.000000 1.000000 0.000000
0.000000 1.000000 0.000000
0.000000 1.000000 0.000000
0.766788 0.999987 0.000013
1.000000 1.000000 0.000000
1.000000 1.000000 0.000000
1.000000 1.000000 0.000000
1.000000 1.000000 0.000000
1.000000 1.000000 0.000000
1.000000 1.000000 0.000000
1.000000 1.000000 0.000000
1.000000 1.000000 0.000000
1.000000 1.000000 0.000000
1.000000 1.000000 0.000000
1.000000 1.000000 0.000000
1.000000 1.000000 0.000000
1.000000 1.000000 0.000000
1.000000 1.000000 0.000000
1.000000 1.000000 0.000000
0.000000 1.000000 0.000000
0.000000 1.000000 0.000000
0.000000 1.000000 0.000000
0.000000 1.000000 0.000000
0.000000 1.000000 0.000000
0.000000 1.000000 0.000000
0.000000 1.000000 0.000000
0.000000 1.000000 0.000000
0.000000 1.000000 0.000000
0.000000 1.000000 0.000000
0.000000 1.000000 0.000000
0.000000 1.000000 0.000000
0.000000 1.000000 0.000000
0.000000 1.000000 0.000000
0.000000 1.000000 0.000000
0.000000 1.000000 0.000000
0.766788 0.999987 0.000013
1.000000 1.000000 0.000000
1.000000 1.000000 0.000000
1.000000 1.000000 0.000000
1.000000 1.000000 0.000000
1.000000 1.000000 0.000000
1.000000 1.000000 0.000000
1.000000 1.000000 0.000000
1.000000 1.000000 0.000000
1.000000 1.000000 0.000000
1.000000 1.000000 0.000000
1.000000 1.000000 0.000000
1.000000 1.000000 0.000000
1.000000 1.000000 0.000000
1.000000 1.000000 0.000000
1.000000 1.000000 0.000000
0.000000 1.000000 0.000000
0.000000 1.000000 0.000000
0.000000 1.000000 0.000000
0.000000 1.000000 0.000000
0.000000 1.000000 0.000000
0.000000 1.000000 0.000000
0.000000 1.000000 0.000000
0.000000 1.000000 0.000000
0.000000 1.000000 0.000000
0.000000 1.000000 0.000000
0.000000 1.000000 0.000000
0.000000 1.000000 0.000000
0.000000 1.000000 0.000000
0.000000 1.000000 0.000000
0.000000 1.000000 0.000000
0.000000 1.000000 0.000000
0.766788 0.999987 0.000013
1.000000 1.000000 0.000000
1.000000 1.000000 0.000000
1.000000 1.000000 0.000000
1.000000 1.000000 0.000000
1.000000 1.000000 0.000000
1.000000 1.000000 0.000000
1.000000 1.000000 0.000000
1.000000 1.000000 0.000000
1.000000 1.000000 0.000000
1.000000 1.000000 0.000000
1.000000 1.000000 0.000000
1.000000 1.000000 0.000000
1.000000 1.000000 0.000000
1.000000 1.000000 0.000000
1.000000 1.000000 0.000000
0.000000 1.000000 0.000000
0.000000 1.000000 0.000000
0.000000 1.000000 0.000000
0.000000 1.000000 0.000000
0.000000 1.000000 0.000000
0.000000 1.000000 0.000000
0.000000 1.000000 0.000000
0.000000 1.000000 0.000000
0.000000 1.000000 0.000000
0.000000 1.000000 0.000000
0.000000 1.000000 0.000000
0.000000 1.000000 0.000000
0.000000 1.000000 0.000000
0.000000 1.000000 0.000000
0.000000 1.000000 0.000000
0.000000 1.000000 0.000000
0.766788 0.999988 0.000013
1.000000 1.000000 0.000000
1.000000 1.000000 0.000000
1.000000 1.000000 0.000000
1.000000 1.000000 0.000000
1.000000 1.000000 0.000000
1.000000 1.000000 0.000000
1.000000 1.000000 0.000000
1.000000 1.000000 0.000000
1.000000 1.000000 0.000000
1.000000 1.000000 0.000000
1.000000 1.000000 0.000000
1.000000 1.000000 0.000000
1.000000 1.000000 0.000000
1.000000 1.000000 0.000000
1.000000 1.000000 0.000000
0.000000 1.000000 0.000000
0.000000 1.000000 0.000000
0.000000 1.000000 0.000000
0.000000 1.000000 0.000000
0.000000 1.000000 0.000000
0.000000 1.000000 0.000000
0.000000 1.000000 0.000000
0.000000 1.000000 0.000000
0.000000 1.000000 0.000000
0.000000 1.000000 0.000000
0.000000 1.000000 0.000000
0.000000 1.000000 0.000000
0.000000 1.000000 0.000000
0.000000 1.000000 0.000000
0.000000 1.000000 0.000000
0.000000 1.000000 0.000000
0.766788 0.999988 0.000013
1.000000 1.000000 0.000000
1.000000 1.000000 0.000000
1.000000 1.000000 0.000000
1.000000 1.000000 0.000000
1.000000 1.000000 0.000000
1.000000 1.000000 0.000000
1.000000 1.000000 0.000000
1.000000 1.000000 0.000000
1.000000 1.000000 0.000000
1.000000 1.000000 0.000000
1.000000 1.000000 0.000000
1.000000 1.000000 0.000000
1.000000 1.000000 0.000000
1.000000 1.000000 0.000000
1.000000 1.000000 0.000000
0.000000 1.000000 0.000000
0.000000 1.000000 0.000000
0.000000 1.000000 0.000000
0.000000 1.000000 0.000000
0.000000 1.000000 0.000000
0.000000 1.000000 0.000000
0.000000 1.000000 0.000000
0.000000 1.000000 0.000000
0.000000 1.000000 0.000000
0.000000 1.000000 0.000000
0.000000 1.000000 0.000000
0.000000 1.000000 0.000000
0.000000 1.000000 0.000000
0.000000 1.000000 0.000000
0.000000 1.000000 0.000000
0.000000 1.000000 0.000000
0.766788 0.999987 0.000013
1.000000 1.000000 0.000000
