Assets/Art/Materials/LUT/Hypersthene.CUBE
#Created by: Adobe Photoshop Export Color Lookup Plugin
TITLE "Frame.exr"
#LUT size
LUT_3D_SIZE 8
#data domain
#LUT data points
DOMAIN_MIN 0.000000 0.000000 0.000000
DOMAIN_MAX 0.903226 0.903226 0.903226
0.000000 0.000000 0.000000
0.001875 0.000000 0.000007
0.013172 0.000000 0.000044
0.062283 0.001412 0.000000
0.753020 0.102187 0.004463
0.799252 0.095094 0.005249
0.799253 0.095094 0.005249
0.799252 0.095094 0.005249
0.000257 0.000153 0.000000
0.001852 0.000387 0.000000
0.013178 0.000439 0.000031
0.062482 0.002629 0.000000
0.752987 0.102287 0.004460
0.799249 0.095176 0.005246
0.799249 0.095176 0.005246
0.799250 0.095176 0.005246
0.001809 0.001280 0.000000
0.002750 0.001397 0.000000
0.013031 0.002783 0.000000
0.064019 0.011169 0.000000
0.752772 0.102919 0.004448
0.799230 0.095675 0.005234
0.799230 0.095675 0.005234
0.799231 0.095675 0.005234
0.007729 0.040509 0.002444
0.007729 0.040483 0.002441
0.007716 0.040326 0.002422
0.071052 0.050699 0.002234
0.751593 0.106525 0.004384
0.799134 0.098530 0.005194
0.799134 0.098530 0.005194
0.799133 0.098530 0.005194
0.094948 0.681680 0.079400
0.094948 0.681676 0.079400
0.094948 0.681658 0.079400
0.094933 0.681546 0.079384
0.925827 0.848789 0.080926
1.000000 0.759423 0.113601
1.000000 0.759423 0.113601
1.000000 0.759423 0.113601
0.108217 0.779507 0.091432
0.108217 0.779507 0.091432
0.108217 0.779507 0.091432
0.108217 0.779507 0.091432
0.856222 1.000000 0.105603
1.000000 0.905272 0.126070
1.000000 0.905272 0.126070
1.000000 0.905272 0.126070
0.108217 0.779507 0.091432
0.108217 0.779507 0.091432
0.108217 0.779507 0.091432
0.108217 0.779507 0.091432
0.856222 1.000000 0.105603
1.000000 0.905272 0.126070
1.000000 0.905272 0.126070
1.000000 0.905272 0.126070
0.108217 0.779507 0.091432
0.108217 0.779507 0.091432
0.108217 0.779507 0.091432
0.108217 0.779507 0.091432
0.856222 1.000000 0.105603
1.000000 0.905272 0.126070
1.000000 0.905272 0.126070
1.000000 0.905272 0.126070
0.000000 0.000000 0.000960
0.001494 0.000000 0.000706
0.012872 0.000000 0.000718
0.062241 0.001102 0.000003
0.753026 0.101259 0.004476
0.799278 0.094355 0.005259
0.799278 0.094355 0.005259
0.799278 0.094355 0.005259
0.000081 0.000007 0.000433
0.001722 0.000488 0.000970
0.012996 0.000479 0.000995
0.062332 0.002141 0.000713
0.752991 0.101350 0.004473
0.799275 0.094433 0.005259
0.799275 0.094433 0.005259
0.799274 0.094433 0.005259
0.001650 0.001052 0.000374
0.002555 0.001319 0.000671
0.012894 0.002838 0.000850
0.063863 0.010667 0.000960
0.752779 0.101968 0.004457
0.799256 0.094926 0.005244
0.799256 0.094926 0.005244
0.799255 0.094926 0.005244
0.007709 0.040330 0.002425
0.007706 0.040304 0.002422
0.007693 0.040147 0.002403
0.070883 0.050429 0.002253
0.751599 0.105490 0.004397
0.799160 0.097739 0.005207
0.799160 0.097739 0.005207
0.799160 0.097739 0.005207
0.094945 0.681657 0.079396
0.094945 0.681654 0.079396
0.094945 0.681635 0.079396
0.094930 0.681523 0.079381
0.925795 0.848746 0.080922
1.000000 0.759387 0.113598
1.000000 0.759387 0.113598
1.000000 0.759387 0.113598
0.108217 0.779507 0.091432
0.108217 0.779507 0.091432
0.108217 0.779507 0.091432
0.108217 0.779507 0.091432
0.856209 1.000000 0.105603
1.000000 0.905272 0.126070
1.000000 0.905272 0.126070
1.000000 0.905272 0.126070
0.108217 0.779507 0.091432
0.108217 0.779507 0.091432
0.108217 0.779507 0.091432
0.108217 0.779507 0.091432
0.856209 1.000000 0.105603
1.000000 0.905272 0.126070
1.000000 0.905272 0.126070
1.000000 0.905272 0.126070
0.108217 0.779507 0.091432
0.108217 0.779507 0.091432
0.108217 0.779507 0.091432
0.108217 0.779507 0.091432
0.856209 1.000000 0.105603
1.000000 0.905272 0.126070
1.000000 0.905272 0.126070
1.000000 0.905272 0.126070
0.000000 0.000000 0.006751
0.001328 0.000000 0.006455
0.010625 0.000000 0.004923
0.061983 0.000126 0.000141
0.753085 0.095668 0.004558
0.799423 0.089964 0.005322
0.799422 0.089964 0.005322
0.799423 0.089964 0.005322
0.000055 0.000000 0.006325
0.001432 0.000355 0.006689
0.010573 0.000335 0.005102
0.061927 0.000806 0.000574
0.753049 0.095756 0.004554
0.799422 0.090045 0.005319
0.799422 0.090045 0.005319
0.799423 0.090045 0.005319
0.000567 0.000037 0.003045
0.001319 0.000259 0.003292
0.012105 0.003441 0.006817
0.062901 0.007789 0.006055
0.752821 0.096300 0.004542
0.799407 0.090536 0.005315
0.799407 0.090536 0.005315
0.799408 0.090536 0.005315
0.007606 0.039182 0.004886
0.007602 0.039159 0.004892
0.007584 0.039006 0.004923
0.069741 0.049107 0.005971
0.751643 0.099397 0.004479
0.799318 0.093125 0.005276
0.799317 0.093125 0.005276
0.799318 0.093125 0.005276
0.094926 0.681518 0.079378
0.094926 0.681515 0.079378
0.094926 0.681496 0.079378
0.094911 0.681391 0.079362
0.925600 0.848468 0.080910
1.000000 0.759173 0.113585
1.000000 0.759173 0.113585
1.000000 0.759173 0.113585
0.108217 0.779507 0.091432
0.108217 0.779507 0.091432
0.108217 0.779507 0.091432
0.108217 0.779507 0.091432
0.856120 1.000000 0.105590
1.000000 0.905272 0.126070
1.000000 0.905272 0.126070
1.000000 0.905272 0.126070
0.108217 0.779507 0.091432
0.108217 0.779507 0.091432
0.108217 0.779507 0.091432
0.108217 0.779507 0.091432
0.856120 1.000000 0.105590
1.000000 0.905272 0.126070
1.000000 0.905272 0.126070
1.000000 0.905272 0.126070
0.108217 0.779507 0.091432
0.108217 0.779507 0.091432
0.108217 0.779507 0.091432
0.108217 0.779507 0.091432
0.856120 1.000000 0.105590
1.000000 0.905272 0.126070
1.000000 0.905272 0.126070
1.000000 0.905272 0.126070
0.000000 0.000000 0.045148
0.001035 0.000000 0.045141
0.010113 0.000000 0.044565
0.050121 0.000000 0.036159
0.753257 0.071090 0.004945
0.799761 0.068268 0.005627
0.799761 0.068268 0.005627
0.799761 0.068268 0.005627
0.000000 0.000000 0.045047
0.000420 0.000000 0.045050
0.009570 0.000000 0.044519
0.049808 0.000000 0.036019
0.753224 0.071151 0.004945
0.799758 0.068333 0.005627
0.799757 0.068333 0.005627
0.799757 0.068333 0.005627
0.000000 0.000233 0.044377
0.000000 0.000220 0.044386
0.006301 0.000171 0.044392
0.047900 0.000000 0.035260
0.753009 0.071549 0.004938
0.799752 0.068730 0.005620
0.799752 0.068730 0.005620
0.799751 0.068730 0.005620
0.002333 0.016994 0.025288
0.002330 0.016965 0.025285
0.002305 0.016776 0.025259
0.062856 0.044638 0.045123
0.751842 0.073710 0.004890
0.799712 0.070914 0.005587
0.799712 0.070914 0.005587
0.799713 0.070914 0.005587
0.094823 0.680741 0.079290
0.094823 0.680738 0.079290
0.094823 0.680719 0.079277
0.094808 0.680616 0.079275
0.924562 0.846969 0.080840
1.000000 0.757994 0.113497
1.000000 0.757994 0.113497
1.000000 0.757994 0.113497
0.108217 0.779507 0.091432
0.108217 0.779507 0.091432
0.108217 0.779507 0.091432
0.108217 0.779507 0.091432
0.855635 1.000000 0.105543
1.000000 0.905272 0.126070
1.000000 0.905272 0.126070
1.000000 0.905272 0.126070
0.108217 0.779507 0.091432
0.108217 0.779507 0.091432
0.108217 0.779507 0.091432
0.108217 0.779507 0.091432
0.855635 1.000000 0.105543
1.000000 0.905272 0.126070
1.000000 0.905272 0.126070
1.000000 0.905272 0.126070
0.108217 0.779507 0.091432
0.108217 0.779507 0.091432
0.108217 0.779507 0.091432
0.108217 0.779507 0.091432
0.855635 1.000000 0.105543
1.000000 0.905272 0.126070
1.000000 0.905272 0.126070
1.000000 0.905272 0.126070
0.000000 0.000000 0.744239
0.000000 0.000000 0.744239
0.000000 0.000000 0.744252
0.000000 0.000000 0.744294
0.550177 0.000000 0.572226
0.646156 0.000000 0.623634
0.646156 0.000000 0.623634
0.646156 0.000000 0.623634
0.000000 0.000000 0.744226
0.000000 0.000000 0.744226
0.000000 0.000000 0.744236
0.000000 0.000000 0.744277
0.550138 0.000000 0.572197
0.646166 0.000000 0.623634
0.646166 0.000000 0.623634
0.646166 0.000000 0.623634
0.000000 0.000000 0.744137
0.000000 0.000000 0.744137
0.000000 0.000000 0.744143
0.000000 0.000000 0.744183
0.549885 0.000000 0.572027
0.646230 0.000000 0.623627
0.646230 0.000000 0.623627
0.646229 0.000000 0.623627
0.000000 0.000000 0.743638
0.000000 0.000000 0.743638
0.000000 0.000000 0.743651
0.000000 0.000000 0.743693
0.548473 0.000000 0.571083
0.646548 0.000000 0.623589
0.646548 0.000000 0.623589
0.646547 0.000000 0.623589
0.028093 0.376976 0.430798
0.028093 0.376973 0.430795
0.028093 0.376941 0.430776
0.028084 0.376757 0.430689
0.826155 0.789592 0.764971
0.996159 0.808631 0.761864
0.996159 0.808631 0.761864
0.996159 0.808631 0.761864
0.039453 0.566985 0.498666
0.039453 0.566985 0.498666
0.039453 0.566985 0.498666
0.039453 0.566985 0.498696
0.739941 0.941343 0.739010
1.000000 0.992943 0.769824
1.000000 0.992943 0.769824
1.000000 0.992943 0.769824
0.039453 0.566985 0.498666
0.039453 0.566985 0.498666
0.039453 0.566985 0.498666
0.039453 0.566985 0.498696
0.739941 0.941343 0.739010
1.000000 0.992943 0.769824
1.000000 0.992943 0.769824
1.000000 0.992943 0.769824
0.039453 0.566986 0.498666
0.039453 0.566986 0.498666
0.039453 0.566986 0.498666
0.039453 0.566986 0.498696
0.739941 0.941343 0.739010
1.000000 0.992943 0.769824
1.000000 0.992943 0.769824
1.000000 0.992943 0.769825
0.000000 0.000000 0.919188
0.000000 0.000000 0.919188
0.000000 0.000000 0.919188
0.000000 0.000000 0.919188
0.492279 0.000000 0.673108
0.527825 0.000000 0.625757
0.527825 0.000000 0.625757
0.527824 0.000000 0.625757
0.000000 0.000000 0.919188
0.000000 0.000000 0.919188
0.000000 0.000000 0.919188
0.000000 0.000000 0.919188
0.492269 0.000000 0.673134
0.527825 0.000000 0.625757
0.527825 0.000000 0.625757
0.527824 0.000000 0.625757
0.000000 0.000000 0.919188
0.000000 0.000000 0.919188
0.000000 0.000000 0.919188
0.000000 0.000000 0.919188
0.492186 0.000000 0.673292
0.527825 0.000000 0.625757
0.527825 0.000000 0.625757
0.527824 0.000000 0.625757
0.000000 0.000000 0.919188
0.000000 0.000000 0.919188
0.000000 0.000000 0.919188
0.000000 0.000000 0.919188
0.491750 0.000000 0.674185
0.527825 0.000000 0.625757
0.527825 0.000000 0.625757
0.527824 0.000000 0.625757
0.014399 0.388048 0.691100
0.014396 0.388048 0.691104
0.014384 0.388041 0.691123
0.014377 0.387993 0.691222
0.793742 0.708151 0.983888
0.902802 0.699636 0.889020
0.902802 0.699636 0.889020
0.902802 0.699636 0.889020
0.035691 0.471733 0.551507
0.035691 0.471733 0.551507
0.035691 0.471733 0.551507
0.035691 0.471717 0.551507
0.686167 0.820107 0.832639
1.000000 1.000000 1.000000
1.000000 1.000000 1.000000
1.000000 1.000000 1.000000
0.035691 0.471733 0.551507
0.035691 0.471733 0.551507
0.035691 0.471733 0.551507
0.035691 0.471717 0.551507
0.686167 0.820107 0.832639
1.000000 1.000000 1.000000
1.000000 1.000000 1.000000
1.000000 1.000000 1.000000
0.035691 0.471733 0.551507
0.035691 0.471733 0.551507
0.035691 0.471733 0.551507
0.035691 0.471718 0.551507
0.686167 0.820107 0.832639
1.000000 1.000000 1.000000
1.000000 1.000000 1.000000
1.000000 1.000000 1.000000
0.000000 0.000000 0.919188
0.000000 0.000000 0.919188
0.000000 0.000000 0.919188
0.000000 0.000000 0.919188
0.492279 0.000000 0.673108
0.527825 0.000000 0.625757
0.527825 0.000000 0.625757
0.527824 0.000000 0.625757
0.000000 0.000000 0.919188
0.000000 0.000000 0.919188
0.000000 0.000000 0.919188
0.000000 0.000000 0.919188
0.492269 0.000000 0.673134
0.527825 0.000000 0.625757
0.527825 0.000000 0.625757
0.527824 0.000000 0.625757
0.000000 0.000000 0.919188
0.000000 0.000000 0.919188
0.000000 0.000000 0.919188
0.000000 0.000000 0.919188
0.492186 0.000000 0.673292
0.527825 0.000000 0.625757
0.527825 0.000000 0.625757
0.527824 0.000000 0.625757
0.000000 0.000000 0.919188
0.000000 0.000000 0.919188
0.000000 0.000000 0.919188
0.000000 0.000000 0.919188
0.491750 0.000000 0.674185
0.527825 0.000000 0.625757
0.527825 0.000000 0.625757
0.527824 0.000000 0.625757
0.014399 0.388048 0.691101
0.014396 0.388048 0.691104
0.014384 0.388041 0.691123
0.014377 0.387993 0.691222
0.793742 0.708151 0.983888
0.902802 0.699636 0.889020
0.902802 0.699636 0.889020
0.902802 0.699636 0.889020
0.035691 0.471733 0.551507
0.035691 0.471733 0.551507
0.035691 0.471733 0.551507
0.035691 0.471717 0.551507
0.686167 0.820107 0.832639
1.000000 1.000000 1.000000
1.000000 1.000000 1.000000
1.000000 1.000000 1.000000
0.035691 0.471733 0.551507
0.035691 0.471733 0.551507
0.035691 0.471733 0.551507
0.035691 0.471717 0.551507
0.686167 0.820107 0.832639
1.000000 1.000000 1.000000
1.000000 1.000000 1.000000
1.000000 1.000000 1.000000
0.035691 0.471733 0.551507
0.035691 0.471733 0.551507
0.035691 0.471733 0.551507
0.035691 0.471718 0.551507
0.686167 0.820107 0.832639
1.000000 1.000000 1.000000
1.000000 1.000000 1.000000
1.000000 1.000000 1.000000
0.000000 0.000000 0.919188
0.000000 0.000000 0.919188
0.000000 0.000000 0.919188
0.000000 0.000000 0.919188
0.492279 0.000000 0.673109
0.527825 0.000000 0.625757
0.527825 0.000000 0.625757
0.527824 0.000000 0.625757
0.000000 0.000000 0.919188
0.000000 0.000000 0.919188
0.000000 0.000000 0.919188
0.000000 0.000000 0.919188
0.492269 0.000000 0.673134
0.527825 0.000000 0.625757
0.527825 0.000000 0.625757
0.527824 0.000000 0.625757
0.000000 0.000000 0.919188
0.000000 0.000000 0.919188
0.000000 0.000000 0.919188
0.000000 0.000000 0.919188
0.492186 0.000000 0.673292
0.527825 0.000000 0.625757
0.527825 0.000000 0.625757
0.527824 0.000000 0.625757
0.000000 0.000000 0.919188
0.000000 0.000000 0.919188
0.000000 0.000000 0.919188
0.000000 0.000000 0.919188
0.491750 0.000000 0.674185
0.527825 0.000000 0.625757
0.527825 0.000000 0.625757
0.527824 0.000000 0.625757
0.014399 0.388048 0.691101
0.014396 0.388048 0.691103
0.014384 0.388041 0.691122
0.014377 0.387993 0.691221
0.793742 0.708151 0.983889
0.902802 0.699636 0.889021
0.902802 0.699636 0.889021
0.902802 0.699636 0.889021
0.035691 0.471733 0.551506
0.035691 0.471733 0.551506
0.035691 0.471733 0.551506
0.035691 0.471717 0.551506
0.686167 0.820107 0.832638
1.000000 1.000000 1.000000
1.000000 1.000000 1.000000
1.000000 1.000000 1.000000
0.035691 0.471733 0.551506
0.035691 0.471733 0.551506
0.035691 0.471733 0.551506
0.035691 0.471717 0.551506
0.686167 0.820107 0.832638
1.000000 1.000000 1.000000
1.000000 1.000000 1.000000
1.000000 1.000000 1.000000
0.035691 0.471733 0.551506
0.035691 0.471733 0.551506
0.035691 0.471733 0.551506
0.035691 0.471718 0.551506
0.686168 0.820107 0.832640
1.000000 1.000000 1.000000
1.000000 1.000000 1.000000
1.000000 1.000000 1.000000
