Assets/Art/Materials/LUT/Hypersthene.CUBE
#Created by: Adobe Photoshop Export Color Lookup Plugin
TITLE "Frame.exr"
#LUT size
LUT_3D_SIZE 5
#data domain
#LUT data points
DOMAIN_MIN 0.000000 0.000000 0.000000
DOMAIN_MAX 0.903226 0.903226 0.903226
0.000000 0.000000 0.000000
0.008762 0.000000 0.000030
0.218880 0.027950 0.000000
0.799252 0.095094 0.005249
0.799252 0.095094 0.005249
0.001202 0.000715 0.000000
0.008656 0.001810 0.000000
0.218215 0.028415 0.000000
0.799237 0.095475 0.005234
0.799236 0.095475 0.005234
0.026701 0.180176 0.018629
0.026701 0.180108 0.018629
0.259174 0.223838 0.018725
0.841869 0.282161 0.036135
0.841869 0.282161 0.036135
0.108217 0.779507 0.091432
0.108217 0.779507 0.091432
0.108217 0.779507 0.091432
1.000000 0.905272 0.126070
1.000000 0.905272 0.126070
0.108217 0.779507 0.091432
0.108217 0.779507 0.091432
0.108217 0.779507 0.091432
1.000000 0.905272 0.126070
1.000000 0.905272 0.126070
0.000000 0.000000 0.004488
0.006983 0.000000 0.003301
0.218896 0.022580 0.000000
0.799374 0.091641 0.005295
0.799374 0.091641 0.005295
0.000380 0.000030 0.002023
0.008047 0.002282 0.004533
0.218231 0.023037 0.000000
0.799359 0.092006 0.005295
0.799358 0.092006 0.005295
0.026648 0.179738 0.018576
0.026633 0.179685 0.018576
0.258698 0.223098 0.018688
0.840262 0.280926 0.042303
0.840261 0.280926 0.042303
0.108217 0.779507 0.091432
0.108217 0.779507 0.091432
0.108217 0.779507 0.091432
1.000000 0.905272 0.126070
1.000000 0.905272 0.126070
0.108217 0.779507 0.091432
0.108217 0.779507 0.091432
0.108217 0.779507 0.091432
1.000000 0.905272 0.126070
1.000000 0.905272 0.126070
0.000000 0.000000 0.187467
0.000000 0.000000 0.187483
0.174501 0.000000 0.158727
0.802858 0.001296 0.052440
0.802858 0.001296 0.052440
0.000000 0.000000 0.187202
0.000000 0.000000 0.187218
0.173773 0.000000 0.158285
0.802835 0.001304 0.052179
0.802835 0.001304 0.052179
0.007665 0.096671 0.109768
0.007657 0.096573 0.109715
0.228461 0.202134 0.189609
0.829860 0.160530 0.115893
0.829861 0.160530 0.115893
0.108217 0.779507 0.091432
0.108217 0.779507 0.091432
0.108217 0.779507 0.091432
1.000000 0.905272 0.126070
1.000000 0.905272 0.126070
0.108217 0.779507 0.091432
0.108217 0.779507 0.091432
0.108217 0.779507 0.091432
1.000000 0.905272 0.126070
1.000000 0.905272 0.126070
0.000000 0.000000 0.919188
0.000000 0.000000 0.919188
0.047543 0.000000 0.919092
0.527825 0.000000 0.625757
0.527824 0.000000 0.625757
0.000000 0.000000 0.919188
0.000000 0.000000 0.919188
0.046679 0.000000 0.919092
0.527825 0.000000 0.625757
0.527824 0.000000 0.625757
0.000000 0.000000 0.919188
0.000000 0.000000 0.919188
0.000000 0.000000 0.919188
0.527825 0.000000 0.625757
0.527824 0.000000 0.625757
0.035691 0.471733 0.551507
0.035691 0.471733 0.551507
0.035706 0.471579 0.551507
1.000000 1.000000 1.000000
1.000000 1.000000 1.000000
0.035691 0.471733 0.551507
0.035691 0.471733 0.551507
0.035706 0.471579 0.551507
1.000000 1.000000 1.000000
1.000000 1.000000 1.000000
0.000000 0.000000 0.919188
0.000000 0.000000 0.919188
0.047543 0.000000 0.919092
0.527825 0.000000 0.625757
0.527824 0.000000 0.625757
0.000000 0.000000 0.919188
0.000000 0.000000 0.919188
0.046679 0.000000 0.919092
0.527825 0.000000 0.625757
0.527824 0.000000 0.625757
0.000000 0.000000 0.919188
0.000000 0.000000 0.919188
0.000000 0.000000 0.919188
0.527825 0.000000 0.625757
0.527824 0.000000 0.625757
0.035691 0.471733 0.551506
0.035691 0.471733 0.551506
0.035706 0.471579 0.551506
1.000000 1.000000 1.000000
1.000000 1.000000 1.000000
0.035691 0.471733 0.551506
0.035691 0.471733 0.551506
0.035706 0.471579 0.551506
1.000000 1.000000 1.000000
1.000000 1.000000 1.000000
