Assets/Art/Materials/LUT/Hypersthene.CUBE
#Created by: Adobe Photoshop Export Color Lookup Plugin
TITLE "Frame.exr"
#LUT size
LUT_3D_SIZE 32
#data domain
DOMAIN_MIN 0.0 0.0 0.0
DOMAIN_MAX 1.0 1.0 1.0
#LUT data points
0.000000 0.000000 0.000000
0.000000 0.000000 0.000000
0.000000 0.000000 0.000000
0.000278 0.000000 0.000001
0.001875 0.000000 0.000007
0.003742 0.000000 0.000013
0.005926 0.000000 0.000021
0.008762 0.000000 0.000030
0.013172 0.000000 0.000044
0.019323 0.000000 0.000063
0.028563 0.000000 0.000089
0.041426 0.000021 0.000058
0.062283 0.001412 0.000000
0.104338 0.008847 0.000010
0.218880 0.027950 0.000000
0.438505 0.061260 0.000682
0.753020 0.102187 0.004463
0.799201 0.096484 0.005228
0.799252 0.095094 0.005249
0.799252 0.095094 0.005249
0.799252 0.095094 0.005249
0.799252 0.095094 0.005249
0.799252 0.095094 0.005249
0.799253 0.095094 0.005249
0.799253 0.095094 0.005249
0.799253 0.095094 0.005249
0.799253 0.095094 0.005249
0.799252 0.095094 0.005249
0.799252 0.095094 0.005249
0.799252 0.095094 0.005249
0.799252 0.095094 0.005249
0.799252 0.095094 0.005249
0.000000 0.000000 0.000000
0.000000 0.000000 0.000000
0.000000 0.000000 0.000000
0.000278 0.000000 0.000001
0.001875 0.000000 0.000007
0.003742 0.000000 0.000013
0.005926 0.000000 0.000021
0.008762 0.000000 0.000030
0.013172 0.000000 0.000044
0.019323 0.000000 0.000063
0.028563 0.000000 0.000089
0.041426 0.000021 0.000058
0.062283 0.001412 0.000000
0.104338 0.008847 0.000010
0.218880 0.027950 0.000000
0.438504 0.061260 0.000682
0.753020 0.102187 0.004463
0.799201 0.096484 0.005228
0.799252 0.095094 0.005249
0.799252 0.095094 0.005249
0.799252 0.095094 0.005249
0.799252 0.095094 0.005249
0.799252 0.095094 0.005249
0.799253 0.095094 0.005249
0.799253 0.095094 0.005249
0.799253 0.095094 0.005249
0.799253 0.095094 0.005249
0.799252 0.095094 0.005249
0.799252 0.095094 0.005249
0.799252 0.095094 0.005249
0.799252 0.095094 0.005249
0.799252 0.095094 0.005249
0.000000 0.000000 0.000000
0.000000 0.000000 0.000000
0.000000 0.000000 0.000000
0.000278 0.000000 0.000001
0.001875 0.000000 0.000007
0.003742 0.000000 0.000013
0.005926 0.000000 0.000021
0.008762 0.000000 0.000030
0.013172 0.000000 0.000044
0.019323 0.000000 0.000063
0.028563 0.000000 0.000089
0.041426 0.000021 0.000058
0.062283 0.001412 0.000000
0.104338 0.008847 0.000010
0.218880 0.027950 0.000000
0.438504 0.061260 0.000682
0.753020 0.102187 0.004463
0.799201 0.096484 0.005228
0.799252 0.095094 0.005249
0.799252 0.095094 0.005249
0.799252 0.095094 0.005249
0.799252 0.095094 0.005249
0.799252 0.095094 0.005249
0.799253 0.095094 0.005249
0.799253 0.095094 0.005249
0.799253 0.095094 0.005249
0.799253 0.095094 0.005249
0.799252 0.095094 0.005249
0.799252 0.095094 0.005249
0.799252 0.095094 0.005249
0.799252 0.095094 0.005249
0.799252 0.095094 0.005249
0.000038 0.000023 0.000000
0.000038 0.000023 0.000000
0.000038 0.000023 0.000000
0.000274 0.000057 0.000000
0.001872 0.000057 0.000006
0.003738 0.000057 0.000012
0.005923 0.000057 0.000020
0.008759 0.000057 0.000029
0.013173 0.000065 0.000042
0.019326 0.000102 0.000060
0.028566 0.000102 0.000086
0.041453 0.000214 0.000058
0.062313 0.001592 0.000000
0.104346 0.008980 0.000024
0.218861 0.027965 0.000000
0.438495 0.061277 0.000682
0.753015 0.102201 0.004462
0.799201 0.096496 0.005228
0.799252 0.095106 0.005249
0.799252 0.095106 0.005249
0.799252 0.095106 0.005249
0.799252 0.095106 0.005249
0.799252 0.095106 0.005249
0.799252 0.095106 0.005249
0.799252 0.095106 0.005249
0.799252 0.095106 0.005249
0.799252 0.095106 0.005249
0.799252 0.095106 0.005249
0.799252 0.095106 0.005249
0.799252 0.095106 0.005249
0.799252 0.095106 0.005249
0.799252 0.095106 0.005249
0.000257 0.000153 0.000000
0.000257 0.000153 0.000000
0.000257 0.000153 0.000000
0.000493 0.000188 0.000000
0.001852 0.000387 0.000000
0.003719 0.000387 0.000006
0.005903 0.000387 0.000014
0.008740 0.000387 0.000024
0.013178 0.000439 0.000031
0.019333 0.000523 0.000048
0.028580 0.000687 0.000070
0.041579 0.001233 0.000048
0.062482 0.002629 0.000000
0.104390 0.009749 0.000107
0.218753 0.028054 0.000000
0.438443 0.061371 0.000679
0.752987 0.102287 0.004460
0.799198 0.096568 0.005225
0.799249 0.095176 0.005246
0.799249 0.095176 0.005246
0.799249 0.095176 0.005246
0.799249 0.095176 0.005246
0.799249 0.095176 0.005246
0.799249 0.095176 0.005246
0.799249 0.095176 0.005246
0.799249 0.095176 0.005246
0.799249 0.095176 0.005246
0.799250 0.095176 0.005246
0.799250 0.095176 0.005246
0.799250 0.095176 0.005246
0.799248 0.095176 0.005246
0.799248 0.095176 0.005246
0.000513 0.000305 0.000000
0.000513 0.000305 0.000000
0.000513 0.000305 0.000000
0.000749 0.000340 0.000000
0.002108 0.000540 0.000000
0.003696 0.000773 0.000000
0.005880 0.000773 0.000008
0.008717 0.000773 0.000017
0.013185 0.000877 0.000018
0.019340 0.000960 0.000035
0.028596 0.001371 0.000050
0.041721 0.002413 0.000035
0.062680 0.003841 0.000000
0.104442 0.010646 0.000204
0.218627 0.028158 0.000000
0.438380 0.061481 0.000676
0.752955 0.102388 0.004456
0.799195 0.096653 0.005222
0.799246 0.095257 0.005243
0.799246 0.095257 0.005243
0.799246 0.095257 0.005243
0.799246 0.095257 0.005243
0.799246 0.095257 0.005243
0.799246 0.095257 0.005243
0.799246 0.095257 0.005243
0.799246 0.095257 0.005243
0.799246 0.095257 0.005243
0.799246 0.095257 0.005243
0.799246 0.095257 0.005243
0.799246 0.095257 0.005243
0.799248 0.095257 0.005243
0.799248 0.095257 0.005243
0.000813 0.000484 0.000000
0.000813 0.000484 0.000000
0.000813 0.000484 0.000000
0.001049 0.000518 0.000000
0.002408 0.000718 0.000000
0.003996 0.000951 0.000000
0.005854 0.001224 0.000000
0.008690 0.001224 0.000010
0.013162 0.001334 0.000010
0.019347 0.001472 0.000020
0.028615 0.002171 0.000027
0.041888 0.003793 0.000020
0.062906 0.005293 0.000000
0.104503 0.011697 0.000318
0.218456 0.028272 0.000000
0.438300 0.061610 0.000672
0.752914 0.102510 0.004453
0.799191 0.096751 0.005219
0.799242 0.095351 0.005239
0.799242 0.095351 0.005239
0.799242 0.095351 0.005239
0.799242 0.095351 0.005239
0.799242 0.095351 0.005239
0.799242 0.095351 0.005239
0.799242 0.095351 0.005239
0.799242 0.095351 0.005239
0.799242 0.095351 0.005239
0.799242 0.095351 0.005239
0.799242 0.095351 0.005239
0.799242 0.095351 0.005239
0.799244 0.095351 0.005239
0.799244 0.095351 0.005239
0.001202 0.000715 0.000000
0.001202 0.000715 0.000000
0.001202 0.000715 0.000000
0.001438 0.000750 0.000000
0.002797 0.000949 0.000000
0.004385 0.001183 0.000000
0.006243 0.001456 0.000000
0.008656 0.001810 0.000000
0.013127 0.001920 0.000000
0.019357 0.002137 0.000000
0.028636 0.003118 0.000000
0.042105 0.005586 0.000000
0.063187 0.007268 0.000000
0.104739 0.013289 0.000356
0.218215 0.028415 0.000000
0.438196 0.061778 0.000667
0.752855 0.102677 0.004448
0.799186 0.096879 0.005219
0.799237 0.095475 0.005234
0.799237 0.095475 0.005234
0.799237 0.095475 0.005234
0.799237 0.095475 0.005234
0.799237 0.095475 0.005234
0.799237 0.095475 0.005234
0.799237 0.095475 0.005234
0.799237 0.095475 0.005234
0.799237 0.095475 0.005234
0.799236 0.095475 0.005234
0.799236 0.095475 0.005234
0.799236 0.095475 0.005234
0.799236 0.095475 0.005234
0.799236 0.095475 0.005234
0.001809 0.001280 0.000000
0.001809 0.001280 0.000000
0.001809 0.001280 0.000000
0.001948 0.001297 0.000000
0.002750 0.001397 0.000000
0.003686 0.001513 0.000000
0.005472 0.001773 0.000000
0.007885 0.002128 0.000000
0.013031 0.002783 0.000000
0.019292 0.003060 0.000000
0.028732 0.004352 0.000000
0.042434 0.007367 0.000000
0.064019 0.011169 0.000000
0.105619 0.016857 0.000151
0.218336 0.030742 0.001077
0.438049 0.062046 0.000660
0.752772 0.102919 0.004448
0.799179 0.097086 0.005219
0.799230 0.095675 0.005234
0.799230 0.095675 0.005234
0.799230 0.095675 0.005234
0.799230 0.095675 0.005234
0.799230 0.095675 0.005234
0.799230 0.095675 0.005234
0.799230 0.095675 0.005234
0.799231 0.095675 0.005234
0.799231 0.095675 0.005234
0.799231 0.095675 0.005234
0.799231 0.095675 0.005234
0.799231 0.095675 0.005234
0.799229 0.095675 0.005234
0.799229 0.095675 0.005234
0.002641 0.002621 0.000000
0.002641 0.002621 0.000000
0.002641 0.002621 0.000000
0.002671 0.002625 0.000000
0.003333 0.002708 0.000000
0.004269 0.002825 0.000000
0.005365 0.002962 0.000000
0.006788 0.003139 0.000000
0.011980 0.003955 0.000000
0.019187 0.004751 0.000000
0.028828 0.006429 0.000000
0.042863 0.009749 0.000000
0.065019 0.015547 0.000000
0.107045 0.022062 0.000000
0.218773 0.035607 0.001756
0.437830 0.062413 0.000650
0.752650 0.103282 0.004447
0.799169 0.097376 0.005212
0.799221 0.095955 0.005233
0.799221 0.095955 0.005233
0.799221 0.095955 0.005233
0.799221 0.095955 0.005233
0.799221 0.095955 0.005233
0.799221 0.095955 0.005233
0.799221 0.095955 0.005233
0.799221 0.095955 0.005233
0.799221 0.095955 0.005233
0.799221 0.095955 0.005233
0.799221 0.095955 0.005233
0.799221 0.095955 0.005233
0.799221 0.095955 0.005233
0.799221 0.095955 0.005233
0.003738 0.010312 0.000000
0.003738 0.010312 0.000000
0.003738 0.010312 0.000000
0.003768 0.010317 0.000000
0.003937 0.010342 0.000000
0.004134 0.010371 0.000000
0.004366 0.010405 0.000000
0.004943 0.010482 0.000000
0.010423 0.012157 0.000000
0.017987 0.014017 0.000000
0.028982 0.013991 0.000000
0.043560 0.015208 0.000000
0.066496 0.020591 0.000000
0.110192 0.030345 0.000000
0.219495 0.043028 0.001126
0.437495 0.062981 0.000638
0.752464 0.103818 0.004434
0.799156 0.097819 0.005203
0.799208 0.096394 0.005220
0.799208 0.096394 0.005220
0.799208 0.096394 0.005220
0.799208 0.096394 0.005220
0.799208 0.096394 0.005220
0.799208 0.096394 0.005220
0.799208 0.096394 0.005220
0.799208 0.096394 0.005220
0.799208 0.096394 0.005220
0.799208 0.096394 0.005220
0.799208 0.096394 0.005220
0.799208 0.096394 0.005220
0.799210 0.096394 0.005220
0.799210 0.096394 0.005220
0.005322 0.021743 0.000525
0.005322 0.021743 0.000525
0.005322 0.021743 0.000525
0.005322 0.021739 0.000525
0.005319 0.021709 0.000522
0.005316 0.021673 0.000519
0.005312 0.021631 0.000515
0.005307 0.021577 0.000510
0.008614 0.022415 0.000576
0.013924 0.023794 0.000674
0.026791 0.028026 0.000532
0.045033 0.028326 0.000369
0.068311 0.028267 0.000375
0.114423 0.041033 0.000149
0.224547 0.056243 0.000510
0.437107 0.064657 0.001067
0.752188 0.104686 0.004416
0.799138 0.098513 0.005197
0.799190 0.097071 0.005218
0.799190 0.097071 0.005218
0.799190 0.097071 0.005218
0.799190 0.097071 0.005218
0.799190 0.097071 0.005218
0.799190 0.097071 0.005218
0.799190 0.097071 0.005218
0.799190 0.097071 0.005218
0.799190 0.097071 0.005218
0.799191 0.097071 0.005218
0.799191 0.097071 0.005218
0.799191 0.097071 0.005218
0.799191 0.097071 0.005218
0.799191 0.097071 0.005218
0.007729 0.040509 0.002444
0.007729 0.040509 0.002444
0.007729 0.040509 0.002444
0.007729 0.040505 0.002444
0.007729 0.040483 0.002441
0.007729 0.040457 0.002438
0.007728 0.040426 0.002434
0.007723 0.040381 0.002429
0.007716 0.040326 0.002422
0.009219 0.040512 0.002490
0.016627 0.041733 0.002848
0.036473 0.047633 0.002807
0.071052 0.050699 0.002234
0.116386 0.052070 0.001907
0.235462 0.082366 0.001251
0.439359 0.094703 0.008694
0.751593 0.106525 0.004384
0.799082 0.100010 0.005173
0.799134 0.098530 0.005194
0.799134 0.098530 0.005194
0.799134 0.098530 0.005194
0.799134 0.098530 0.005194
0.799134 0.098530 0.005194
0.799134 0.098530 0.005194
0.799134 0.098530 0.005194
0.799133 0.098530 0.005194
0.799133 0.098530 0.005194
0.799133 0.098530 0.005194
0.799133 0.098530 0.005194
0.799133 0.098530 0.005194
0.799133 0.098530 0.005194
0.799133 0.098530 0.005194
0.012856 0.077550 0.006662
0.012856 0.077550 0.006662
0.012856 0.077550 0.006662
0.012855 0.077547 0.006661
0.012853 0.077531 0.006659
0.012849 0.077511 0.006655
0.012846 0.077489 0.006652
0.012841 0.077459 0.006651
0.012834 0.077418 0.006645
0.012825 0.077349 0.006635
0.012822 0.077246 0.006622
0.016362 0.077384 0.006876
0.048332 0.085861 0.007711
0.122470 0.096902 0.006542
0.242126 0.110913 0.005701
0.460584 0.151195 0.006040
0.754523 0.143210 0.021059
0.798971 0.104226 0.005105
0.799002 0.102677 0.005126
0.799002 0.102677 0.005126
0.799002 0.102677 0.005126
0.799002 0.102677 0.005126
0.799002 0.102677 0.005126
0.799002 0.102677 0.005126
0.799002 0.102677 0.005126
0.799002 0.102677 0.005126
0.799002 0.102677 0.005126
0.799002 0.102677 0.005126
0.799002 0.102677 0.005126
0.799002 0.102677 0.005126
0.799004 0.102677 0.005126
0.799004 0.102677 0.005126
0.026701 0.180176 0.018629
0.026701 0.180176 0.018629
0.026701 0.180176 0.018629
0.026701 0.180174 0.018629
0.026701 0.180163 0.018629
0.026701 0.180150 0.018629
0.026701 0.180133 0.018629
0.026701 0.180108 0.018629
0.026694 0.180081 0.018629
0.026686 0.180043 0.018621
0.026680 0.179979 0.018608
0.026663 0.179883 0.018599
0.026638 0.179682 0.018573
0.049893 0.182701 0.019805
0.259174 0.223838 0.018725
0.491036 0.242400 0.016683
0.811473 0.312739 0.016061
0.844172 0.286035 0.033909
0.841869 0.282161 0.036135
0.841869 0.282161 0.036135
0.841869 0.282161 0.036135
0.841869 0.282161 0.036135
0.841869 0.282161 0.036135
0.841869 0.282161 0.036135
0.841869 0.282161 0.036135
0.841869 0.282161 0.036135
0.841869 0.282161 0.036135
0.841869 0.282161 0.036135
0.841869 0.282161 0.036135
0.841869 0.282161 0.036135
0.841869 0.282161 0.036135
0.841869 0.282161 0.036135
0.054735 0.385804 0.043360
0.054735 0.385804 0.043360
0.054735 0.385804 0.043360
0.054734 0.385803 0.043360
0.054732 0.385797 0.043360
0.054728 0.385791 0.043360
0.054725 0.385783 0.043360
0.054720 0.385773 0.043360
0.054720 0.385765 0.043359
0.054720 0.385745 0.043350
0.054720 0.385715 0.043350
0.054719 0.385670 0.043345
0.054701 0.385581 0.043329
0.054663 0.385325 0.043299
0.079176 0.387237 0.044800
0.531126 0.477381 0.044174
0.857606 0.471102 0.042954
0.938373 0.489930 0.040521
0.938080 0.489172 0.040310
0.938080 0.489172 0.040310
0.938080 0.489172 0.040310
0.938080 0.489172 0.040310
0.938080 0.489172 0.040310
0.938080 0.489172 0.040310
0.938080 0.489172 0.040310
0.938081 0.489172 0.040310
0.938081 0.489172 0.040310
0.938080 0.489172 0.040310
0.938080 0.489172 0.040310
0.938080 0.489172 0.040310
0.938080 0.489172 0.040310
0.938080 0.489172 0.040310
0.094948 0.681680 0.079400
0.094948 0.681680 0.079400
0.094948 0.681680 0.079400
0.094948 0.681679 0.079400
0.094948 0.681676 0.079400
0.094948 0.681673 0.079400
0.094948 0.681669 0.079400
0.094948 0.681664 0.079400
0.094948 0.681658 0.079400
0.094948 0.681647 0.079399
0.094948 0.681626 0.079391
0.094941 0.681602 0.079391
0.094933 0.681546 0.079384
0.094916 0.681412 0.079369
0.094841 0.680836 0.079293
0.271410 0.707096 0.089046
0.925827 0.848789 0.080926
1.000000 0.760347 0.113664
1.000000 0.759423 0.113601
1.000000 0.759423 0.113601
1.000000 0.759423 0.113601
1.000000 0.759423 0.113601
1.000000 0.759423 0.113601
1.000000 0.759423 0.113601
1.000000 0.759423 0.113601
1.000000 0.759423 0.113601
1.000000 0.759423 0.113601
1.000000 0.759423 0.113601
1.000000 0.759423 0.113601
1.000000 0.759423 0.113601
1.000000 0.759423 0.113601
1.000000 0.759423 0.113601
0.108217 0.779507 0.091432
0.108217 0.779507 0.091432
0.108217 0.779507 0.091432
0.108217 0.779507 0.091432
0.108217 0.779507 0.091432
0.108217 0.779507 0.091432
0.108217 0.779507 0.091432
0.108217 0.779507 0.091432
0.108217 0.779507 0.091432
0.108217 0.779507 0.091432
0.108217 0.779507 0.091432
0.108217 0.779507 0.091432
0.108217 0.779507 0.091432
0.108217 0.779507 0.091432
0.108217 0.779507 0.091432
0.108217 0.779507 0.091432
0.869157 1.000000 0.107581
1.000000 0.905272 0.126070
1.000000 0.905272 0.126070
1.000000 0.905272 0.126070
1.000000 0.905272 0.126070
1.000000 0.905272 0.126070
1.000000 0.905272 0.126070
1.000000 0.905272 0.126070
1.000000 0.905272 0.126070
1.000000 0.905272 0.126070
1.000000 0.905272 0.126070
1.000000 0.905272 0.126070
1.000000 0.905272 0.126070
1.000000 0.905272 0.126070
1.000000 0.905272 0.126070
1.000000 0.905272 0.126070
0.108217 0.779507 0.091432
0.108217 0.779507 0.091432
0.108217 0.779507 0.091432
0.108217 0.779507 0.091432
0.108217 0.779507 0.091432
0.108217 0.779507 0.091432
0.108217 0.779507 0.091432
0.108217 0.779507 0.091432
0.108217 0.779507 0.091432
0.108217 0.779507 0.091432
0.108217 0.779507 0.091432
0.108217 0.779507 0.091432
0.108217 0.779507 0.091432
0.108217 0.779507 0.091432
0.108217 0.779507 0.091432
0.108217 0.779507 0.091432
0.856222 1.000000 0.105603
1.000000 0.905272 0.126070
1.000000 0.905272 0.126070
1.000000 0.905272 0.126070
1.000000 0.905272 0.126070
1.000000 0.905272 0.126070
1.000000 0.905272 0.126070
1.000000 0.905272 0.126070
1.000000 0.905272 0.126070
1.000000 0.905272 0.126070
1.000000 0.905272 0.126070
1.000000 0.905272 0.126070
1.000000 0.905272 0.126070
1.000000 0.905272 0.126070
1.000000 0.905272 0.126070
1.000000 0.905272 0.126070
0.108217 0.779507 0.091432
0.108217 0.779507 0.091432
0.108217 0.779507 0.091432
0.108217 0.779507 0.091432
0.108217 0.779507 0.091432
0.108217 0.779507 0.091432
0.108217 0.779507 0.091432
0.108217 0.779507 0.091432
0.108217 0.779507 0.091432
0.108217 0.779507 0.091432
0.108217 0.779507 0.091432
0.108217 0.779507 0.091432
0.108217 0.779507 0.091432
0.108217 0.779507 0.091432
0.108217 0.779507 0.091432
0.108217 0.779507 0.091432
0.856222 1.000000 0.105603
1.000000 0.905272 0.126070
1.000000 0.905272 0.126070
1.000000 0.905272 0.126070
1.000000 0.905272 0.126070
1.000000 0.905272 0.126070
1.000000 0.905272 0.126070
1.000000 0.905272 0.126070
1.000000 0.905272 0.126070
1.000000 0.905272 0.126070
1.000000 0.905272 0.126070
1.000000 0.905272 0.126070
1.000000 0.905272 0.126070
1.000000 0.905272 0.126070
1.000000 0.905272 0.126070
1.000000 0.905272 0.126070
0.108217 0.779507 0.091432
0.108217 0.779507 0.091432
0.108217 0.779507 0.091432
0.108217 0.779507 0.091432
0.108217 0.779507 0.091432
0.108217 0.779507 0.091432
0.108217 0.779507 0.091432
0.108217 0.779507 0.091432
0.108217 0.779507 0.091432
0.108217 0.779507 0.091432
0.108217 0.779507 0.091432
0.108217 0.779507 0.091432
0.108217 0.779507 0.091432
0.108217 0.779507 0.091432
0.108217 0.779507 0.091432
0.108217 0.779507 0.091432
0.856222 1.000000 0.105603
1.000000 0.905272 0.126070
1.000000 0.905272 0.126070
1.000000 0.905272 0.126070
1.000000 0.905272 0.126070
1.000000 0.905272 0.126070
1.000000 0.905272 0.126070
1.000000 0.905272 0.126070
1.000000 0.905272 0.126070
1.000000 0.905272 0.126070
1.000000 0.905272 0.126070
1.000000 0.905272 0.126070
1.000000 0.905272 0.126070
1.000000 0.905272 0.126070
1.000000 0.905272 0.126070
1.000000 0.905272 0.126070
0.108217 0.779507 0.091432
0.108217 0.779507 0.091432
0.108217 0.779507 0.091432
0.108217 0.779507 0.091432
0.108217 0.779507 0.091432
0.108217 0.779507 0.091432
0.108217 0.779507 0.091432
0.108217 0.779507 0.091432
0.108217 0.779507 0.091432
0.108217 0.779507 0.091432
0.108217 0.779507 0.091432
0.108217 0.779507 0.091432
0.108217 0.779507 0.091432
0.108217 0.779507 0.091432
0.108217 0.779507 0.091432
0.108217 0.779507 0.091432
0.856222 1.000000 0.105603
1.000000 0.905272 0.126070
1.000000 0.905272 0.126070
1.000000 0.905272 0.126070
1.000000 0.905272 0.126070
1.000000 0.905272 0.126070
1.000000 0.905272 0.126070
1.000000 0.905272 0.126070
1.000000 0.905272 0.126070
1.000000 0.905272 0.126070
1.000000 0.905272 0.126070
1.000000 0.905272 0.126070
1.000000 0.905272 0.126070
1.000000 0.905272 0.126070
1.000000 0.905272 0.126070
1.000000 0.905272 0.126070
0.108217 0.779507 0.091432
0.108217 0.779507 0.091432
0.108217 0.779507 0.091432
0.108217 0.779507 0.091432
0.108217 0.779507 0.091432
0.108217 0.779507 0.091432
0.108217 0.779507 0.091432
0.108217 0.779507 0.091432
0.108217 0.779507 0.091432
0.108217 0.779507 0.091432
0.108217 0.779507 0.091432
0.108217 0.779507 0.091432
0.108217 0.779507 0.091432
0.108217 0.779507 0.091432
0.108217 0.779507 0.091432
0.108217 0.779507 0.091432
0.856222 1.000000 0.105603
1.000000 0.905272 0.126070
1.000000 0.905272 0.126070
1.000000 0.905272 0.126070
1.000000 0.905272 0.126070
1.000000 0.905272 0.126070
1.000000 0.905272 0.126070
1.000000 0.905272 0.126070
1.000000 0.905272 0.126070
1.000000 0.905272 0.126070
1.000000 0.905272 0.126070
1.000000 0.905272 0.126070
1.000000 0.905272 0.126070
1.000000 0.905272 0.126070
1.000000 0.905272 0.126070
1.000000 0.905272 0.126070
0.108217 0.779507 0.091432
0.108217 0.779507 0.091432
0.108217 0.779507 0.091432
0.108217 0.779507 0.091432
0.108217 0.779507 0.091432
0.108217 0.779507 0.091432
0.108217 0.779507 0.091432
0.108217 0.779507 0.091432
0.108217 0.779507 0.091432
0.108217 0.779507 0.091432
0.108217 0.779507 0.091432
0.108217 0.779507 0.091432
0.108217 0.779507 0.091432
0.108217 0.779507 0.091432
0.108217 0.779507 0.091432
0.108217 0.779507 0.091432
0.856222 1.000000 0.105603
1.000000 0.905272 0.126070
1.000000 0.905272 0.126070
1.000000 0.905272 0.126070
1.000000 0.905272 0.126070
1.000000 0.905272 0.126070
1.000000 0.905272 0.126070
1.000000 0.905272 0.126070
1.000000 0.905272 0.126070
1.000000 0.905272 0.126070
1.000000 0.905272 0.126070
1.000000 0.905272 0.126070
1.000000 0.905272 0.126070
1.000000 0.905272 0.126070
1.000000 0.905272 0.126070
1.000000 0.905272 0.126070
0.108217 0.779507 0.091432
0.108217 0.779507 0.091432
0.108217 0.779507 0.091432
0.108217 0.779507 0.091432
0.108217 0.779507 0.091432
0.108217 0.779507 0.091432
0.108217 0.779507 0.091432
0.108217 0.779507 0.091432
0.108217 0.779507 0.091432
0.108217 0.779507 0.091432
0.108217 0.779507 0.091432
0.108217 0.779507 0.091432
0.108217 0.779507 0.091432
0.108217 0.779507 0.091432
0.108217 0.779507 0.091432
0.108217 0.779507 0.091432
0.856222 1.000000 0.105603
1.000000 0.905272 0.126070
1.000000 0.905272 0.126070
1.000000 0.905272 0.126070
1.000000 0.905272 0.126070
1.000000 0.905272 0.126070
1.000000 0.905272 0.126070
1.000000 0.905272 0.126070
1.000000 0.905272 0.126070
1.000000 0.905272 0.126070
1.000000 0.905272 0.126070
1.000000 0.905272 0.126070
1.000000 0.905272 0.126070
1.000000 0.905272 0.126070
1.000000 0.905272 0.126070
1.000000 0.905272 0.126070
0.108217 0.779508 0.091432
0.108217 0.779508 0.091432
0.108217 0.779508 0.091432
0.108217 0.779508 0.091432
0.108217 0.779508 0.091432
0.108217 0.779508 0.091432
0.108217 0.779508 0.091432
0.108217 0.779508 0.091432
0.108217 0.779508 0.091432
0.108217 0.779508 0.091432
0.108217 0.779508 0.091432
0.108217 0.779508 0.091432
0.108217 0.779508 0.091432
0.108217 0.779508 0.091432
0.108217 0.779508 0.091432
0.108217 0.779508 0.091432
0.856222 1.000000 0.105603
1.000000 0.905272 0.126070
1.000000 0.905272 0.126070
1.000000 0.905272 0.126070
1.000000 0.905272 0.126070
1.000000 0.905272 0.126070
1.000000 0.905272 0.126070
1.000000 0.905272 0.126070
1.000000 0.905272 0.126070
1.000000 0.905272 0.126070
1.000000 0.905272 0.126070
1.000000 0.905272 0.126070
1.000000 0.905272 0.126070
1.000000 0.905272 0.126070
1.000000 0.905272 0.126070
1.000000 0.905272 0.126070
0.108217 0.779508 0.091432
0.108217 0.779507 0.091432
0.108217 0.779507 0.091432
0.108217 0.779508 0.091432
0.108217 0.779508 0.091432
0.108217 0.779508 0.091432
0.108217 0.779508 0.091432
0.108217 0.779508 0.091432
0.108217 0.779508 0.091432
0.108217 0.779508 0.091432
0.108217 0.779508 0.091432
0.108217 0.779508 0.091432
0.108217 0.779508 0.091432
0.108217 0.779508 0.091432
0.108217 0.779508 0.091432
0.108217 0.779508 0.091432
0.856222 1.000000 0.105603
1.000000 0.905272 0.126070
1.000000 0.905272 0.126070
1.000000 0.905272 0.126070
1.000000 0.905272 0.126070
1.000000 0.905272 0.126070
1.000000 0.905272 0.126070
1.000000 0.905272 0.126070
1.000000 0.905272 0.126070
1.000000 0.905272 0.126070
1.000000 0.905272 0.126070
1.000000 0.905272 0.126070
1.000000 0.905272 0.126070
1.000000 0.905272 0.126070
1.000000 0.905272 0.126070
1.000000 0.905272 0.126070
0.108217 0.779507 0.091432
0.108217 0.779507 0.091432
0.108217 0.779507 0.091432
0.108217 0.779507 0.091432
0.108217 0.779507 0.091432
0.108217 0.779507 0.091432
0.108217 0.779507 0.091432
0.108217 0.779507 0.091432
0.108217 0.779507 0.091432
0.108217 0.779507 0.091432
0.108217 0.779507 0.091432
0.108217 0.779507 0.091432
0.108217 0.779507 0.091432
0.108217 0.779507 0.091432
0.108217 0.779507 0.091432
0.108217 0.779507 0.091432
0.856222 1.000000 0.105603
1.000000 0.905272 0.126070
