Assets/Art/Materials/LUT/Pasadena.CUBE
#Created by: Adobe Photoshop Export Color Lookup Plugin
TITLE "Frame.exr"
#LUT size
LUT_3D_SIZE 5
#data domain
#LUT data points
DOMAIN_MIN 0.000000 0.000000 0.000000
DOMAIN_MAX 0.903226 0.903226 0.903226
0.049836 0.017914 0.085542
0.071323 0.018828 0.085277
0.291946 0.031060 0.078936
0.669398 0.071015 0.079438
0.669397 0.071015 0.079438
0.052371 0.039695 0.084894
0.074211 0.040698 0.084393
0.295978 0.054339 0.077321
0.675057 0.095626 0.082474
0.675056 0.095626 0.082474
0.096009 0.274644 0.073945
0.120184 0.276359 0.073945
0.334250 0.292312 0.078473
0.740681 0.329168 0.124601
0.740681 0.329168 0.124601
0.223148 0.692561 0.153109
0.247552 0.696305 0.156145
0.416910 0.735865 0.185433
0.890440 0.806729 0.228611
0.890440 0.806729 0.228611
0.223148 0.692562 0.153109
0.247552 0.696304 0.156145
0.416910 0.735865 0.185433
0.890440 0.806728 0.228611
0.890440 0.806728 0.228611
0.050278 0.018268 0.106469
0.071794 0.019123 0.106174
0.292707 0.031685 0.099450
0.670400 0.071693 0.100866
0.670401 0.071693 0.100866
0.052901 0.040020 0.105761
0.074771 0.041140 0.105231
0.296762 0.054987 0.097811
0.676089 0.096363 0.104049
0.676088 0.096363 0.104049
0.096982 0.275251 0.094695
0.121281 0.277019 0.094695
0.334922 0.292902 0.099824
0.742267 0.329869 0.147857
0.742268 0.329869 0.147857
0.224386 0.693887 0.177013
0.248761 0.697778 0.180166
0.417547 0.737392 0.209000
0.889320 0.807554 0.249891
0.889320 0.807554 0.249891
0.224386 0.693888 0.177013
0.248761 0.697779 0.180166
0.417547 0.737392 0.209000
0.889320 0.807554 0.249891
0.889320 0.807554 0.249891
0.055308 0.021727 0.304252
0.077419 0.022935 0.303751
0.300020 0.037611 0.297710
0.680709 0.078703 0.305690
0.680708 0.078703 0.305690
0.058863 0.044133 0.303203
0.081298 0.045489 0.302637
0.304246 0.061326 0.296614
0.686763 0.103685 0.308649
0.686764 0.103685 0.308649
0.106620 0.281272 0.296107
0.131166 0.282975 0.296173
0.341536 0.298653 0.304590
0.758151 0.336592 0.340813
0.758150 0.336592 0.340813
0.236460 0.707770 0.360332
0.259850 0.711855 0.362277
0.422537 0.751693 0.378962
0.878323 0.815277 0.402037
0.878323 0.815277 0.402037
0.236460 0.707771 0.360332
0.259850 0.711855 0.362277
0.422537 0.751694 0.378962
0.878323 0.815277 0.402037
0.878323 0.815277 0.402037
0.072023 0.033082 0.622736
0.095189 0.034703 0.622029
0.316898 0.052354 0.619165
0.706386 0.095521 0.645563
0.706387 0.095521 0.645563
0.076886 0.056455 0.621321
0.100406 0.058282 0.620702
0.320895 0.076470 0.619165
0.713401 0.121518 0.650132
0.713400 0.121518 0.650132
0.128016 0.294322 0.624725
0.153370 0.295949 0.626129
0.356483 0.311890 0.643903
0.804155 0.353480 0.702380
0.804155 0.353480 0.702380
0.258854 0.740932 0.740963
0.279663 0.745088 0.744735
0.425725 0.779407 0.776771
0.862119 0.829160 0.828336
0.862120 0.829160 0.828336
0.258854 0.740932 0.740963
0.279663 0.745089 0.744735
0.425725 0.779408 0.776771
0.862119 0.829161 0.828336
0.862120 0.829161 0.828336
0.072023 0.033082 0.622736
0.095189 0.034703 0.622028
0.316898 0.052354 0.619165
0.706386 0.095521 0.645563
0.706387 0.095521 0.645563
0.076886 0.056455 0.621321
0.100406 0.058282 0.620703
0.320895 0.076470 0.619165
0.713401 0.121518 0.650131
0.713400 0.121518 0.650131
0.128016 0.294322 0.624725
0.153370 0.295949 0.626129
0.356483 0.311890 0.643904
0.804155 0.353480 0.702379
0.804155 0.353480 0.702379
0.258854 0.740932 0.740963
0.279663 0.745088 0.744736
0.425725 0.779407 0.776772
0.862119 0.829160 0.828337
0.862120 0.829160 0.828337
0.258854 0.740932 0.740963
0.279663 0.745089 0.744736
0.425725 0.779408 0.776772
0.862119 0.829161 0.828337
0.862120 0.829161 0.828337
