Assets/Art/Materials/LUT/Pasadena.CUBE
#Created by: Adobe Photoshop Export Color Lookup Plugin
TITLE "Frame.exr"
#LUT size
LUT_3D_SIZE 32
#data domain
DOMAIN_MIN 0.0 0.0 0.0
DOMAIN_MAX 1.0 1.0 1.0
#LUT data points
0.049836 0.017914 0.085542
0.049836 0.017914 0.085542
0.049836 0.017914 0.085542
0.050517 0.017943 0.085534
0.054434 0.018110 0.085485
0.059011 0.018304 0.085429
0.064367 0.018532 0.085363
0.071323 0.018828 0.085277
0.081323 0.019255 0.085107
0.095108 0.019844 0.084867
0.114611 0.020719 0.084442
0.141657 0.022003 0.083817
0.179932 0.023889 0.082826
0.231023 0.026711 0.081239
0.291946 0.031060 0.078936
0.358900 0.037618 0.075862
0.439383 0.047249 0.073945
0.558106 0.060721 0.073945
0.669398 0.071015 0.079438
0.669398 0.071015 0.079438
0.669398 0.071015 0.079438
0.669398 0.071015 0.079438
0.669398 0.071015 0.079438
0.669398 0.071015 0.079438
0.669398 0.071015 0.079438
0.669398 0.071015 0.079438
0.669398 0.071015 0.079438
0.669397 0.071015 0.079438
0.669397 0.071015 0.079438
0.669397 0.071015 0.079438
0.669399 0.071015 0.079438
0.669399 0.071015 0.079438
0.049836 0.017914 0.085542
0.049836 0.017914 0.085542
0.049836 0.017914 0.085542
0.050517 0.017943 0.085534
0.054434 0.018110 0.085485
0.059011 0.018304 0.085429
0.064367 0.018532 0.085363
0.071323 0.018828 0.085277
0.081323 0.019255 0.085107
0.095108 0.019844 0.084867
0.114611 0.020719 0.084442
0.141657 0.022003 0.083817
0.179932 0.023889 0.082826
0.231023 0.026711 0.081239
0.291946 0.031060 0.078936
0.358900 0.037618 0.075862
0.439383 0.047249 0.073945
0.558106 0.060721 0.073945
0.669398 0.071015 0.079438
0.669398 0.071015 0.079438
0.669398 0.071015 0.079438
0.669398 0.071015 0.079438
0.669398 0.071015 0.079438
0.669398 0.071015 0.079438
0.669398 0.071015 0.079438
0.669398 0.071015 0.079438
0.669398 0.071015 0.079438
0.669397 0.071015 0.079438
0.669397 0.071015 0.079438
0.669397 0.071015 0.079438
0.669399 0.071015 0.079438
0.669399 0.071015 0.079438
0.049836 0.017914 0.085542
0.049836 0.017914 0.085542
0.049836 0.017914 0.085542
0.050517 0.017943 0.085534
0.054434 0.018110 0.085485
0.059011 0.018304 0.085429
0.064367 0.018532 0.085363
0.071323 0.018828 0.085277
0.081323 0.019255 0.085107
0.095108 0.019844 0.084867
0.114611 0.020719 0.084442
0.141657 0.022003 0.083817
0.179932 0.023889 0.082826
0.231023 0.026711 0.081239
0.291946 0.031060 0.078936
0.358900 0.037618 0.075862
0.439383 0.047249 0.073945
0.558106 0.060721 0.073945
0.669398 0.071015 0.079438
0.669398 0.071015 0.079438
0.669398 0.071015 0.079438
0.669398 0.071015 0.079438
0.669398 0.071015 0.079438
0.669398 0.071015 0.079438
0.669398 0.071015 0.079438
0.669398 0.071015 0.079438
0.669398 0.071015 0.079438
0.669397 0.071015 0.079438
0.669397 0.071015 0.079438
0.669397 0.071015 0.079438
0.669399 0.071015 0.079438
0.669399 0.071015 0.079438
0.049916 0.018604 0.085522
0.049916 0.018604 0.085522
0.049916 0.018604 0.085522
0.050608 0.018636 0.085506
0.054526 0.018802 0.085457
0.059102 0.018997 0.085401
0.064459 0.019225 0.085335
0.071414 0.019521 0.085249
0.081425 0.019954 0.085074
0.095214 0.020545 0.084834
0.114727 0.021424 0.084406
0.141785 0.022712 0.083775
0.180075 0.024610 0.082777
0.231164 0.027441 0.081188
0.292070 0.031800 0.078885
0.359013 0.038369 0.075820
0.439498 0.048010 0.073945
0.558233 0.061490 0.073997
0.669577 0.071795 0.079535
0.669577 0.071795 0.079535
0.669577 0.071795 0.079535
0.669577 0.071795 0.079535
0.669577 0.071795 0.079535
0.669577 0.071795 0.079535
0.669577 0.071795 0.079535
0.669578 0.071795 0.079535
0.669578 0.071795 0.079535
0.669577 0.071795 0.079535
0.669577 0.071795 0.079535
0.669577 0.071795 0.079535
0.669579 0.071795 0.079535
0.669579 0.071795 0.079535
0.050378 0.022575 0.085403
0.050378 0.022575 0.085403
0.050378 0.022575 0.085403
0.051070 0.022607 0.085387
0.055052 0.022790 0.085296
0.059629 0.022984 0.085240
0.064985 0.023212 0.085173
0.071941 0.023508 0.085088
0.082016 0.023979 0.084886
0.095805 0.024570 0.084645
0.115393 0.025481 0.084196
0.142521 0.026796 0.083533
0.180897 0.028758 0.082498
0.231975 0.031643 0.080898
0.292781 0.036060 0.078595
0.359664 0.042689 0.075578
0.440159 0.052389 0.073945
0.558964 0.065912 0.074292
0.670609 0.076282 0.080088
0.670609 0.076282 0.080088
0.670609 0.076282 0.080088
0.670609 0.076282 0.080088
0.670609 0.076282 0.080088
0.670609 0.076282 0.080088
0.670609 0.076282 0.080088
0.670609 0.076282 0.080088
0.670609 0.076282 0.080088
0.670609 0.076282 0.080088
0.670609 0.076282 0.080088
0.670609 0.076282 0.080088
0.670609 0.076282 0.080088
0.670609 0.076282 0.080088
0.050918 0.027215 0.085265
0.050918 0.027215 0.085265
0.050918 0.027215 0.085265
0.051610 0.027247 0.085249
0.055592 0.027429 0.085158
0.060244 0.027643 0.085051
0.065601 0.027871 0.084985
0.072556 0.028166 0.084899
0.082704 0.028680 0.084668
0.096496 0.029272 0.084426
0.116172 0.030222 0.083951
0.143381 0.031568 0.083251
0.181858 0.033605 0.082171
0.232923 0.036553 0.080559
0.293647 0.041014 0.078249
0.360423 0.047737 0.075296
0.440931 0.057506 0.073945
0.559818 0.071079 0.074637
0.671815 0.081525 0.080735
0.671815 0.081525 0.080735
0.671814 0.081525 0.080735
0.671814 0.081525 0.080735
0.671814 0.081525 0.080735
0.671814 0.081525 0.080735
0.671814 0.081525 0.080735
0.671815 0.081525 0.080735
0.671815 0.081525 0.080735
0.671814 0.081525 0.080735
0.671814 0.081525 0.080735
0.671814 0.081525 0.080735
0.671814 0.081525 0.080735
0.671814 0.081525 0.080735
0.051550 0.032645 0.085104
0.051550 0.032645 0.085104
0.051550 0.032645 0.085104
0.052242 0.032677 0.085088
0.056224 0.032859 0.084996
0.060876 0.033073 0.084890
0.066321 0.033322 0.084765
0.073276 0.033618 0.084679
0.083424 0.034132 0.084447
0.097304 0.034775 0.084169
0.117083 0.035769 0.083665
0.144388 0.037152 0.082920
0.182946 0.039234 0.081811
0.234058 0.042267 0.080169
0.294661 0.046811 0.077845
0.361312 0.053644 0.074965
0.441835 0.063494 0.073945
0.560817 0.077127 0.075042
0.673225 0.087660 0.081492
0.673225 0.087660 0.081492
0.673225 0.087660 0.081492
0.673225 0.087660 0.081492
0.673225 0.087660 0.081492
0.673225 0.087660 0.081492
0.673225 0.087660 0.081492
0.673225 0.087660 0.081492
0.673225 0.087660 0.081492
0.673225 0.087660 0.081492
0.673225 0.087660 0.081492
0.673225 0.087660 0.081492
0.673225 0.087660 0.081492
0.673225 0.087660 0.081492
0.052371 0.039695 0.084894
0.052371 0.039695 0.084894
0.052371 0.039695 0.084894
0.053063 0.039727 0.084878
0.057045 0.039910 0.084786
0.061697 0.040123 0.084680
0.067141 0.040373 0.084555
0.074211 0.040698 0.084393
0.084359 0.041211 0.084161
0.098353 0.041922 0.083835
0.118206 0.042947 0.083310
0.145678 0.044396 0.082499
0.184358 0.046542 0.081343
0.235537 0.049680 0.079663
0.295978 0.054339 0.077321
0.362470 0.061310 0.074532
0.443008 0.071270 0.073945
0.562095 0.084959 0.075404
0.675057 0.095626 0.082474
0.675057 0.095626 0.082474
0.675057 0.095626 0.082474
0.675057 0.095626 0.082474
0.675057 0.095626 0.082474
0.675057 0.095626 0.082474
0.675057 0.095626 0.082474
0.675057 0.095626 0.082474
0.675057 0.095626 0.082474
0.675056 0.095626 0.082474
0.675056 0.095626 0.082474
0.675056 0.095626 0.082474
0.675056 0.095626 0.082474
0.675056 0.095626 0.082474
0.053756 0.049768 0.084439
0.053756 0.049768 0.084439
0.053756 0.049768 0.084439
0.054459 0.049807 0.084419
0.058505 0.050033 0.084306
0.063230 0.050294 0.084176
0.068674 0.050544 0.084051
0.075744 0.050868 0.083889
0.086040 0.051459 0.083562
0.100050 0.052178 0.083230
0.120060 0.053288 0.082669
0.147682 0.054806 0.081829
0.186573 0.057087 0.080626
0.237660 0.060359 0.078917
0.297844 0.065172 0.076646
0.364117 0.072297 0.074285
0.444639 0.082407 0.073945
0.563910 0.096262 0.076352
0.677712 0.107193 0.084025
0.677712 0.107193 0.084025
0.677712 0.107193 0.084025
0.677712 0.107193 0.084025
0.677712 0.107193 0.084025
0.677712 0.107193 0.084025
0.677712 0.107193 0.084025
0.677712 0.107193 0.084025
0.677712 0.107193 0.084025
0.677711 0.107193 0.084025
0.677711 0.107193 0.084025
0.677711 0.107193 0.084025
0.677711 0.107193 0.084025
0.677711 0.107193 0.084025
0.055691 0.063645 0.083793
0.055691 0.063645 0.083793
0.055691 0.063645 0.083793
0.056396 0.063685 0.083772
0.060442 0.063911 0.083660
0.065170 0.064175 0.083528
0.070703 0.064483 0.083373
0.077887 0.064884 0.083173
0.088199 0.065484 0.082843
0.102411 0.066314 0.082382
0.122589 0.067514 0.081782
0.150456 0.069149 0.080895
0.189575 0.071572 0.079650
0.240688 0.075014 0.077888
0.300474 0.080061 0.075711
0.366384 0.087437 0.073945
0.446882 0.097756 0.073945
0.566396 0.111858 0.077694
0.681375 0.123151 0.086180
0.681375 0.123151 0.086180
0.681375 0.123151 0.086180
0.681375 0.123151 0.086180
0.681375 0.123151 0.086180
0.681375 0.123151 0.086180
0.681375 0.123151 0.086180
0.681375 0.123151 0.086180
0.681375 0.123151 0.086180
0.681376 0.123151 0.086180
0.681376 0.123151 0.086180
0.681376 0.123151 0.086180
0.681374 0.123151 0.086180
0.681374 0.123151 0.086180
0.058741 0.083222 0.082668
0.058741 0.083222 0.082668
0.058741 0.083222 0.082668
0.059453 0.083267 0.082644
0.063548 0.083525 0.082510
0.068332 0.083827 0.082353
0.073931 0.084179 0.082169
0.081162 0.084612 0.081948
0.091644 0.085285 0.081605
0.106036 0.086191 0.081132
0.126539 0.087517 0.080432
0.154682 0.089302 0.079545
0.193938 0.091925 0.078250
0.244893 0.095634 0.076603
0.304053 0.101006 0.074626
0.369409 0.108715 0.073945
0.449857 0.119384 0.073945
0.569942 0.134007 0.080039
0.686551 0.145854 0.089405
0.686551 0.145854 0.089405
0.686551 0.145854 0.089405
0.686551 0.145854 0.089405
0.686551 0.145854 0.089405
0.686551 0.145854 0.089405
0.686551 0.145854 0.089405
0.686550 0.145854 0.089405
0.686550 0.145854 0.089405
0.686550 0.145854 0.089405
0.686550 0.145854 0.089405
0.686550 0.145854 0.089405
0.686550 0.145854 0.089405
0.686550 0.145854 0.089405
0.063244 0.110341 0.080994
0.063244 0.110341 0.080994
0.063244 0.110341 0.080994
0.063964 0.110391 0.080969
0.068107 0.110682 0.080830
0.072948 0.111021 0.080667
0.078613 0.111417 0.080475
0.085957 0.111925 0.080229
0.096596 0.112678 0.079845
0.111255 0.113713 0.079319
0.132058 0.115238 0.078593
0.160646 0.117231 0.077682
0.200068 0.120113 0.076487
0.250642 0.124224 0.074984
0.308855 0.130017 0.073988
0.373439 0.138188 0.073945
0.453752 0.149186 0.074508
0.574670 0.164454 0.083534
0.693671 0.176788 0.094030
0.693671 0.176788 0.094030
0.693671 0.176788 0.094030
0.693671 0.176788 0.094030
0.693671 0.176788 0.094030
0.693671 0.176788 0.094030
0.693671 0.176788 0.094030
0.693671 0.176788 0.094030
0.693671 0.176788 0.094030
0.693672 0.176788 0.094030
0.693672 0.176788 0.094030
0.693672 0.176788 0.094030
0.693672 0.176788 0.094030
0.693672 0.176788 0.094030
0.070227 0.149799 0.078525
0.070227 0.149799 0.078525
0.070227 0.149799 0.078525
0.070964 0.149860 0.078500
0.075204 0.150209 0.078361
0.080157 0.150617 0.078197
0.085890 0.151073 0.077999
0.093331 0.151665 0.077742
0.104248 0.152593 0.077393
0.119144 0.153756 0.076861
0.140360 0.155456 0.076211
0.169280 0.157692 0.075415
0.208704 0.160950 0.074674
0.258467 0.165330 0.073945
0.315305 0.171452 0.073945
0.378781 0.179797 0.073945
0.459123 0.190853 0.077635
0.581338 0.206278 0.089198
0.703905 0.218500 0.100887
0.703905 0.218500 0.100887
0.703905 0.218500 0.100887
0.703905 0.218500 0.100887
0.703905 0.218500 0.100887
0.703905 0.218500 0.100887
0.703905 0.218500 0.100887
0.703905 0.218500 0.100887
0.703905 0.218500 0.100887
0.703905 0.218500 0.100887
0.703905 0.218500 0.100887
0.703905 0.218500 0.100887
0.703903 0.218500 0.100887
0.703903 0.218500 0.100887
0.080695 0.205372 0.075366
0.080695 0.205372 0.075366
0.080695 0.205372 0.075366
0.081447 0.205436 0.075346
0.085772 0.205807 0.075233
0.090826 0.206240 0.075101
0.096690 0.206734 0.074928
0.104294 0.207374 0.074699
0.115476 0.208282 0.074674
0.130764 0.209551 0.074284
0.152420 0.211324 0.074051
0.181600 0.213635 0.073945
0.220553 0.216820 0.073945
0.268880 0.221194 0.073945
0.323624 0.226969 0.074047
0.385715 0.234650 0.076359
0.466614 0.245046 0.083761
0.590591 0.259241 0.098004
0.718708 0.270343 0.110735
0.718708 0.270343 0.110735
0.718708 0.270343 0.110735
0.718708 0.270343 0.110735
0.718708 0.270343 0.110735
0.718708 0.270343 0.110735
0.718708 0.270343 0.110735
0.718707 0.270343 0.110735
0.718707 0.270343 0.110735
0.718708 0.270343 0.110735
0.718708 0.270343 0.110735
0.718708 0.270343 0.110735
0.718708 0.270343 0.110735
0.718708 0.270343 0.110735
0.096009 0.274644 0.073945
0.096009 0.274644 0.073945
0.096009 0.274644 0.073945
0.096780 0.274695 0.073945
0.101211 0.274992 0.073945
0.106353 0.275362 0.073945
0.112370 0.275796 0.073945
0.120184 0.276359 0.073945
0.131597 0.277131 0.073945
0.147293 0.278233 0.073945
0.169090 0.279668 0.073945
0.198131 0.281617 0.073945
0.236033 0.284192 0.074202
0.281881 0.287631 0.075235
0.334250 0.292312 0.078473
0.395280 0.298667 0.084376
0.477140 0.307380 0.094757
0.603569 0.319550 0.111337
0.740681 0.329168 0.124601
0.740681 0.329168 0.124601
0.740681 0.329168 0.124601
0.740681 0.329168 0.124601
0.740681 0.329168 0.124601
0.740681 0.329168 0.124601
0.740681 0.329168 0.124601
0.740681 0.329168 0.124601
0.740681 0.329168 0.124601
0.740681 0.329168 0.124601
0.740681 0.329168 0.124601
0.740681 0.329168 0.124601
0.740681 0.329168 0.124601
0.740681 0.329168 0.124601
0.116581 0.348520 0.075077
0.116581 0.348520 0.075077
0.116581 0.348520 0.075077
0.117368 0.348562 0.075110
0.121898 0.348804 0.075298
0.127191 0.349087 0.075518
0.133385 0.349417 0.075775
0.141420 0.349849 0.076081
0.153012 0.350478 0.076573
0.168986 0.351344 0.077272
0.190665 0.352470 0.078372
0.219216 0.354035 0.079936
0.255431 0.356130 0.082358
0.298654 0.359053 0.085964
0.348643 0.363029 0.091555
0.408666 0.368561 0.100030
0.491746 0.376413 0.112637
0.622052 0.387821 0.130077
0.778155 0.397901 0.144986
0.778155 0.397901 0.144986
0.778155 0.397901 0.144986
0.778155 0.397901 0.144986
0.778155 0.397901 0.144986
0.778155 0.397901 0.144986
0.778155 0.397901 0.144986
0.778154 0.397901 0.144986
0.778154 0.397901 0.144986
0.778154 0.397901 0.144986
0.778154 0.397901 0.144986
0.778154 0.397901 0.144986
0.778156 0.397901 0.144986
0.778156 0.397901 0.144986
0.145620 0.433624 0.090925
0.145620 0.433624 0.090925
0.145620 0.433624 0.090925
0.146436 0.433668 0.090993
0.151132 0.433920 0.091385
0.156620 0.434215 0.091844
0.163041 0.434561 0.092380
0.171380 0.435009 0.093076
0.183047 0.435675 0.094060
0.199085 0.436591 0.095417
0.220288 0.437791 0.097268
0.247446 0.439424 0.099853
0.280798 0.441724 0.103456
0.320641 0.444938 0.108541
0.367867 0.449430 0.115563
0.427190 0.455813 0.125107
0.512590 0.465538 0.138631
0.653741 0.480805 0.159995
0.845741 0.492669 0.176741
0.845741 0.492669 0.176741
0.845741 0.492669 0.176741
0.845741 0.492669 0.176741
0.845741 0.492669 0.176741
0.845741 0.492669 0.176741
0.845741 0.492669 0.176741
0.845741 0.492669 0.176741
0.845741 0.492669 0.176741
0.845741 0.492669 0.176741
0.845741 0.492669 0.176741
0.845741 0.492669 0.176741
0.845741 0.492669 0.176741
0.845741 0.492669 0.176741
0.187733 0.561332 0.123841
0.187733 0.561332 0.123841
0.187733 0.561332 0.123841
0.188537 0.561396 0.123918
0.193163 0.561767 0.124364
0.198569 0.562200 0.124885
0.204895 0.562707 0.125495
0.213144 0.563341 0.126297
0.224227 0.564259 0.127410
0.239429 0.565505 0.128926
0.258837 0.567351 0.131147
0.283175 0.569848 0.134155
0.313148 0.573397 0.138379
0.349869 0.578466 0.144420
0.395554 0.585712 0.153019
0.457052 0.595928 0.165084
0.546151 0.609819 0.181120
0.694039 0.626632 0.199964
0.902800 0.636888 0.211258
0.902800 0.636888 0.211258
0.902800 0.636888 0.211258
0.902800 0.636888 0.211258
0.902800 0.636888 0.211258
0.902800 0.636888 0.211258
0.902800 0.636888 0.211258
0.902800 0.636888 0.211258
0.902800 0.636888 0.211258
0.902800 0.636888 0.211258
0.902800 0.636888 0.211258
0.902800 0.636888 0.211258
0.902802 0.636888 0.211258
0.902802 0.636888 0.211258
0.223148 0.692561 0.153109
0.223148 0.692561 0.153109
0.223148 0.692561 0.153109
0.223921 0.692680 0.153205
0.228370 0.693362 0.153759
0.233569 0.694160 0.154405
0.239653 0.695093 0.155162
0.247552 0.696304 0.156145
0.257853 0.698090 0.157572
0.271914 0.700556 0.159541
0.289566 0.703981 0.162241
0.311576 0.708507 0.165741
0.339082 0.714951 0.170585
0.373255 0.723779 0.177043
0.416910 0.735865 0.185433
0.476825 0.751763 0.195912
0.559836 0.770590 0.207525
0.696388 0.792558 0.220586
0.890440 0.806729 0.228611
0.890440 0.806729 0.228611
0.890440 0.806729 0.228611
0.890440 0.806729 0.228611
0.890440 0.806729 0.228611
0.890440 0.806729 0.228611
0.890440 0.806729 0.228611
0.890440 0.806729 0.228611
0.890440 0.806729 0.228611
0.890440 0.806729 0.228611
0.890440 0.806729 0.228611
0.890440 0.806729 0.228611
0.890442 0.806729 0.228611
0.890442 0.806729 0.228611
0.223148 0.692561 0.153109
0.223148 0.692561 0.153109
0.223148 0.692561 0.153109
0.223921 0.692680 0.153205
0.228370 0.693362 0.153759
0.233569 0.694160 0.154405
0.239653 0.695093 0.155162
0.247552 0.696304 0.156145
0.257853 0.698090 0.157572
0.271914 0.700556 0.159541
0.289566 0.703981 0.162241
0.311576 0.708507 0.165741
0.339082 0.714951 0.170585
0.373255 0.723779 0.177043
0.416910 0.735865 0.185433
0.476825 0.751763 0.195912
0.559836 0.770590 0.207525
0.696388 0.792558 0.220586
0.890440 0.806729 0.228611
0.890440 0.806729 0.228611
0.890440 0.806729 0.228611
0.890440 0.806729 0.228611
0.890440 0.806729 0.228611
0.890440 0.806729 0.228611
0.890440 0.806729 0.228611
0.890440 0.806729 0.228611
0.890440 0.806729 0.228611
0.890440 0.806729 0.228611
0.890440 0.806729 0.228611
0.890440 0.806729 0.228611
0.890442 0.806729 0.228611
0.890442 0.806729 0.228611
0.223148 0.692561 0.153109
0.223148 0.692561 0.153109
0.223148 0.692561 0.153109
0.223921 0.692680 0.153205
0.228370 0.693362 0.153759
0.233569 0.694160 0.154405
0.239653 0.695093 0.155162
0.247552 0.696304 0.156145
0.257853 0.698090 0.157572
0.271914 0.700556 0.159541
0.289566 0.703981 0.162241
0.311576 0.708507 0.165741
0.339082 0.714951 0.170585
0.373255 0.723779 0.177043
0.416910 0.735865 0.185433
0.476825 0.751763 0.195912
0.559836 0.770590 0.207525
0.696388 0.792558 0.220586
0.890440 0.806729 0.228611
0.890440 0.806729 0.228611
0.890440 0.806729 0.228611
0.890440 0.806729 0.228611
0.890440 0.806729 0.228611
0.890440 0.806729 0.228611
0.890440 0.806729 0.228611
0.890440 0.806729 0.228611
0.890440 0.806729 0.228611
0.890440 0.806729 0.228611
0.890440 0.806729 0.228611
0.890440 0.806729 0.228611
0.890442 0.806729 0.228611
0.890442 0.806729 0.228611
0.223148 0.692561 0.153109
0.223148 0.692561 0.153109
0.223148 0.692561 0.153109
0.223921 0.692680 0.153205
0.228370 0.693362 0.153759
0.233569 0.694160 0.154405
0.239653 0.695093 0.155162
0.247552 0.696305 0.156145
0.257853 0.698090 0.157572
0.271914 0.700556 0.159541
0.289566 0.703981 0.162241
0.311576 0.708507 0.165741
0.339082 0.714951 0.170585
0.373255 0.723779 0.177043
0.416910 0.735865 0.185433
0.476825 0.751763 0.195912
0.559836 0.770590 0.207525
0.696388 0.792558 0.220586
0.890440 0.806729 0.228611
0.890440 0.806729 0.228611
0.890440 0.806729 0.228611
0.890440 0.806729 0.228611
0.890440 0.806729 0.228611
0.890440 0.806729 0.228611
0.890440 0.806729 0.228611
0.890440 0.806729 0.228611
0.890440 0.806729 0.228611
0.890440 0.806729 0.228611
0.890440 0.806729 0.228611
0.890440 0.806729 0.228611
0.890442 0.806729 0.228611
0.890442 0.806729 0.228611
0.223148 0.692561 0.153109
0.223148 0.692561 0.153109
0.223148 0.692561 0.153109
0.223921 0.692680 0.153205
0.228370 0.693362 0.153759
0.233569 0.694160 0.154405
0.239653 0.695093 0.155162
0.247552 0.696304 0.156145
0.257853 0.698090 0.157572
0.271914 0.700556 0.159541
0.289566 0.703981 0.162241
0.311576 0.708507 0.165741
0.339082 0.714951 0.170585
0.373255 0.723779 0.177043
0.416910 0.735865 0.185433
0.476825 0.751763 0.195912
0.559836 0.770590 0.207525
0.696388 0.792558 0.220586
0.890440 0.806729 0.228611
0.890440 0.806729 0.228611
0.890440 0.806729 0.228611
0.890440 0.806729 0.228611
0.890440 0.806729 0.228611
0.890440 0.806729 0.228611
0.890440 0.806729 0.228611
0.890440 0.806729 0.228611
0.890440 0.806729 0.228611
0.890440 0.806729 0.228611
0.890440 0.806729 0.228611
0.890440 0.806729 0.228611
0.890442 0.806729 0.228611
0.890442 0.806729 0.228611
0.223148 0.692561 0.153109
0.223148 0.692561 0.153109
0.223148 0.692561 0.153109
0.223921 0.692680 0.153205
0.228370 0.693362 0.153759
0.233569 0.694160 0.154405
0.239653 0.695093 0.155162
0.247552 0.696304 0.156145
0.257853 0.698090 0.157572
0.271914 0.700556 0.159541
0.289566 0.703981 0.162241
0.311576 0.708507 0.165741
0.339082 0.714951 0.170585
0.373255 0.723779 0.177043
0.416910 0.735865 0.185433
0.476825 0.751763 0.195912
0.559836 0.770590 0.207525
0.696388 0.792558 0.220586
0.890440 0.806729 0.228611
0.890440 0.806729 0.228611
0.890440 0.806729 0.228611
0.890440 0.806729 0.228611
0.890440 0.806729 0.228611
0.890440 0.806729 0.228611
0.890440 0.806729 0.228611
0.890440 0.806729 0.228611
0.890440 0.806729 0.228611
0.890440 0.806729 0.228611
0.890440 0.806729 0.228611
0.890440 0.806729 0.228611
0.890442 0.806729 0.228611
0.890442 0.806729 0.228611
0.223148 0.692561 0.153109
0.223148 0.692561 0.153109
0.223148 0.692561 0.153109
0.223921 0.692680 0.153205
0.228370 0.693362 0.153759
0.233569 0.694160 0.154405
0.239653 0.695093 0.155162
0.247552 0.696304 0.156145
0.257853 0.698090 0.157572
0.271914 0.700556 0.159541
0.289566 0.703981 0.162241
0.311576 0.708507 0.165741
0.339082 0.714951 0.170585
0.373255 0.723779 0.177043
0.416910 0.735865 0.185433
0.476825 0.751763 0.195912
0.559836 0.770590 0.207525
0.696388 0.792558 0.220586
0.890440 0.806729 0.228611
0.890440 0.806729 0.228611
0.890440 0.806729 0.228611
0.890440 0.806729 0.228611
0.890440 0.806729 0.228611
0.890440 0.806729 0.228611
0.890440 0.806729 0.228611
0.890440 0.806729 0.228611
0.890440 0.806729 0.228611
0.890440 0.806729 0.228611
0.890440 0.806729 0.228611
0.890440 0.806729 0.228611
0.890442 0.806729 0.228611
0.890442 0.806729 0.228611
0.223148 0.692561 0.153109
0.223148 0.692561 0.153109
0.223148 0.692561 0.153109
0.223921 0.692679 0.153205
0.228370 0.693362 0.153759
0.233569 0.694160 0.154405
0.239653 0.695093 0.155162
0.247552 0.696304 0.156145
0.257853 0.698090 0.157572
0.271914 0.700556 0.159541
0.289566 0.703981 0.162241
0.311576 0.708508 0.165741
0.339082 0.714951 0.170585
0.373255 0.723780 0.177043
0.416910 0.735866 0.185433
0.476825 0.751763 0.195912
0.559836 0.770590 0.207525
0.696388 0.792558 0.220586
0.890440 0.806729 0.228611
0.890440 0.806729 0.228611
0.890440 0.806729 0.228611
0.890440 0.806729 0.228611
0.890440 0.806729 0.228611
0.890440 0.806729 0.228611
0.890440 0.806729 0.228611
0.890440 0.806729 0.228611
0.890440 0.806729 0.228611
0.890440 0.806729 0.228611
0.890440 0.806729 0.228611
0.890440 0.806729 0.228611
0.890442 0.806729 0.228611
0.890442 0.806729 0.228611
0.223148 0.692561 0.153109
0.223148 0.692561 0.153109
0.223148 0.692561 0.153109
0.223921 0.692679 0.153205
0.228370 0.693362 0.153759
0.233569 0.694160 0.154405
0.239653 0.695093 0.155162
0.247552 0.696304 0.156145
0.257853 0.698090 0.157572
0.271914 0.700556 0.159541
0.289566 0.703981 0.162241
0.311576 0.708508 0.165741
0.339082 0.714951 0.170585
0.373255 0.723780 0.177043
0.416910 0.735866 0.185433
0.476825 0.751763 0.195912
0.559836 0.770590 0.207525
0.696388 0.792558 0.220586
0.890440 0.806729 0.228611
0.890440 0.806729 0.228611
0.890440 0.806729 0.228611
0.890440 0.806729 0.228611
0.890440 0.806729 0.228611
0.890440 0.806729 0.228611
0.890440 0.806729 0.228611
0.890440 0.806729 0.228611
0.890440 0.806729 0.228611
0.890440 0.806729 0.228611
0.890440 0.806729 0.228611
0.890440 0.806729 0.228611
0.890442 0.806729 0.228611
0.890442 0.806729 0.228611
0.223148 0.692562 0.153109
0.223148 0.692562 0.153109
0.223148 0.692562 0.153109
0.223921 0.692680 0.153205
0.228370 0.693361 0.153759
0.233569 0.694160 0.154405
0.239653 0.695093 0.155162
0.247552 0.696304 0.156145
0.257853 0.698090 0.157572
0.271914 0.700556 0.159541
0.289566 0.703981 0.162241
0.311576 0.708508 0.165741
0.339082 0.714951 0.170585
0.373255 0.723780 0.177043
0.416910 0.735865 0.185433
0.476825 0.751762 0.195912
0.559836 0.770590 0.207525
0.696388 0.792557 0.220586
