Assets/Art/Materials/LUT/Pasadena.CUBE
#Created by: Adobe Photoshop Export Color Lookup Plugin
TITLE "Frame.exr"
#LUT size
LUT_3D_SIZE 8
#data domain
#LUT data points
DOMAIN_MIN 0.000000 0.000000 0.000000
DOMAIN_MAX 0.903226 0.903226 0.903226
0.049836 0.017914 0.085542
0.054434 0.018110 0.085485
0.081323 0.019255 0.085107
0.179932 0.023889 0.082826
0.439383 0.047249 0.073945
0.669398 0.071015 0.079438
0.669398 0.071015 0.079438
0.669397 0.071015 0.079438
0.050378 0.022575 0.085403
0.055052 0.022790 0.085296
0.082016 0.023979 0.084886
0.180897 0.028758 0.082498
0.440159 0.052389 0.073945
0.670609 0.076282 0.080088
0.670609 0.076282 0.080088
0.670609 0.076282 0.080088
0.053756 0.049768 0.084439
0.058505 0.050033 0.084306
0.086040 0.051459 0.083562
0.186573 0.057087 0.080626
0.444639 0.082407 0.073945
0.677712 0.107193 0.084025
0.677712 0.107193 0.084025
0.677711 0.107193 0.084025
0.070227 0.149799 0.078525
0.075204 0.150209 0.078361
0.104248 0.152593 0.077393
0.208704 0.160950 0.074674
0.459123 0.190853 0.077635
0.703905 0.218500 0.100887
0.703905 0.218500 0.100887
0.703905 0.218500 0.100887
0.145620 0.433624 0.090925
0.151132 0.433920 0.091385
0.183047 0.435675 0.094060
0.280798 0.441724 0.103456
0.512590 0.465538 0.138631
0.845741 0.492669 0.176741
0.845741 0.492669 0.176741
0.845741 0.492669 0.176741
0.223148 0.692561 0.153109
0.228370 0.693362 0.153759
0.257853 0.698090 0.157572
0.339082 0.714951 0.170585
0.559836 0.770590 0.207525
0.890440 0.806729 0.228611
0.890440 0.806729 0.228611
0.890440 0.806729 0.228611
0.223148 0.692561 0.153109
0.228370 0.693362 0.153759
0.257853 0.698090 0.157572
0.339082 0.714951 0.170585
0.559836 0.770590 0.207525
0.890440 0.806729 0.228611
0.890440 0.806729 0.228611
0.890440 0.806729 0.228611
0.223148 0.692562 0.153109
0.228370 0.693363 0.153759
0.257853 0.698090 0.157572
0.339082 0.714951 0.170585
0.559836 0.770590 0.207525
0.890440 0.806728 0.228611
0.890440 0.806728 0.228611
0.890440 0.806728 0.228611
0.049931 0.017990 0.090020
0.054535 0.018173 0.089957
0.081449 0.019331 0.089566
0.180096 0.023983 0.087247
0.439522 0.047406 0.078386
0.669612 0.071161 0.084024
0.669612 0.071161 0.084024
0.669613 0.071161 0.084024
0.050492 0.022645 0.089869
0.055172 0.022884 0.089755
0.082168 0.024074 0.089327
0.181080 0.028865 0.086906
0.440310 0.052547 0.078386
0.670830 0.076440 0.084705
0.670830 0.076440 0.084705
0.670830 0.076440 0.084705
0.053888 0.049869 0.088886
0.058638 0.050133 0.088741
0.086217 0.051566 0.087997
0.186762 0.057213 0.085016
0.444784 0.082577 0.078386
0.677946 0.107363 0.088680
0.677946 0.107363 0.088680
0.677946 0.107363 0.088680
0.070410 0.149950 0.082927
0.075418 0.150379 0.082744
0.104475 0.152750 0.081776
0.208918 0.161107 0.079115
0.459262 0.191017 0.082201
0.704201 0.218683 0.105713
0.704201 0.218683 0.105713
0.704201 0.218683 0.105713
0.145859 0.433731 0.095643
0.151359 0.434034 0.096103
0.183274 0.435776 0.098804
0.280987 0.441844 0.108287
0.512776 0.465702 0.143721
0.846296 0.492839 0.181837
0.846296 0.492839 0.181837
0.846296 0.492839 0.181837
0.223413 0.692845 0.158224
0.228629 0.693678 0.158899
0.258099 0.698405 0.162713
0.339240 0.715279 0.175681
0.559836 0.770855 0.212350
0.890201 0.806906 0.233165
0.890201 0.806906 0.233165
0.890200 0.806906 0.233165
0.223413 0.692845 0.158224
0.228629 0.693678 0.158899
0.258099 0.698405 0.162713
0.339240 0.715279 0.175681
0.559836 0.770855 0.212350
0.890201 0.806906 0.233165
0.890201 0.806906 0.233165
0.890200 0.806906 0.233165
0.223413 0.692844 0.158224
0.228629 0.693678 0.158899
0.258099 0.698406 0.162713
0.339240 0.715279 0.175681
0.559836 0.770855 0.212350
0.890201 0.806906 0.233165
0.890201 0.806906 0.233165
0.890200 0.806906 0.233165
0.050479 0.018404 0.116264
0.055102 0.018605 0.116188
0.082095 0.019745 0.115724
0.181101 0.024586 0.113155
0.440351 0.048282 0.104373
0.670880 0.072038 0.110864
0.670880 0.072038 0.110864
0.670879 0.072038 0.110864
0.051065 0.023084 0.116081
0.055764 0.023323 0.115955
0.082833 0.024495 0.115466
0.182098 0.029475 0.112802
0.441121 0.053429 0.104373
0.672110 0.077324 0.111596
0.672110 0.077324 0.111596
0.672110 0.077324 0.111596
0.054613 0.050350 0.114964
0.059388 0.050628 0.114806
0.087040 0.052139 0.114008
0.187877 0.057925 0.110820
0.445630 0.083490 0.104373
0.679286 0.108326 0.115875
0.679286 0.108326 0.115875
0.679287 0.108326 0.115875
0.071514 0.150786 0.108640
0.076509 0.151203 0.108464
0.105664 0.153611 0.107465
0.210215 0.162028 0.104960
0.460091 0.191992 0.108909
0.705800 0.219725 0.133825
0.705800 0.219725 0.133825
0.705799 0.219725 0.133825
0.147223 0.434365 0.123257
0.152736 0.434668 0.123755
0.184614 0.436432 0.126554
0.282065 0.442527 0.136560
0.513838 0.466637 0.173215
0.849450 0.493815 0.211049
0.849451 0.493815 0.211049
0.849451 0.493815 0.211049
0.224997 0.694539 0.187838
0.230175 0.695365 0.188482
0.259524 0.700220 0.192325
0.340226 0.717174 0.205054
0.559836 0.772380 0.239831
0.888787 0.807966 0.258934
0.888787 0.807966 0.258934
0.888786 0.807966 0.258934
0.224997 0.694539 0.187838
0.230175 0.695365 0.188482
0.259524 0.700220 0.192325
0.340226 0.717174 0.205054
0.559836 0.772380 0.239831
0.888787 0.807966 0.258934
0.888787 0.807966 0.258934
0.888786 0.807966 0.258934
0.224997 0.694538 0.187838
0.230175 0.695366 0.188482
0.259524 0.700220 0.192325
0.340226 0.717175 0.205054
0.559836 0.772381 0.239831
0.888787 0.807966 0.258934
0.888787 0.807966 0.258934
0.888786 0.807966 0.258934
0.052476 0.019806 0.209025
0.057162 0.020033 0.208905
0.084509 0.021368 0.208234
0.184546 0.026707 0.205164
0.443158 0.051173 0.197186
0.675253 0.075039 0.206581
0.675253 0.075039 0.206581
0.675253 0.075039 0.206581
0.053151 0.024537 0.208785
0.057907 0.024808 0.208634
0.085323 0.026175 0.207937
0.185606 0.031639 0.204798
0.443934 0.056332 0.197186
0.676521 0.080356 0.207363
0.676521 0.080356 0.207363
0.676521 0.080356 0.207363
0.057218 0.052188 0.207291
0.062043 0.052484 0.207114
0.089958 0.054113 0.206194
0.191768 0.060328 0.202666
0.448377 0.086472 0.197186
0.683940 0.111536 0.212084
0.683940 0.111536 0.212084
0.683941 0.111536 0.212084
0.075278 0.153706 0.200433
0.080337 0.154141 0.200269
0.109742 0.156604 0.199272
0.214645 0.165276 0.197222
0.462832 0.195290 0.204227
0.711156 0.223256 0.230522
0.711156 0.223256 0.230522
0.711157 0.223256 0.230522
0.151737 0.436511 0.220023
0.157268 0.436833 0.220509
0.189216 0.438647 0.223367
0.285673 0.444844 0.233227
0.517498 0.469820 0.266358
0.859741 0.497018 0.296503
0.859741 0.497018 0.296503
0.859741 0.497018 0.296503
0.230300 0.700461 0.278485
0.235415 0.701332 0.279002
0.264226 0.706302 0.282038
0.343533 0.723639 0.291997
0.559836 0.777411 0.317481
0.883932 0.811389 0.331327
0.883932 0.811389 0.331327
0.883932 0.811389 0.331327
0.230300 0.700461 0.278485
0.235415 0.701332 0.279002
0.264226 0.706302 0.282038
0.343533 0.723639 0.291997
0.559836 0.777411 0.317481
0.883932 0.811389 0.331327
0.883932 0.811389 0.331327
0.883932 0.811389 0.331327
0.230300 0.700460 0.278485
0.235415 0.701332 0.279002
0.264226 0.706303 0.282038
0.343533 0.723639 0.291997
0.559836 0.777411 0.317481
0.883932 0.811388 0.331327
0.883932 0.811388 0.331327
0.883932 0.811388 0.331327
0.061594 0.025988 0.431906
0.066432 0.026303 0.431793
0.094769 0.028128 0.431148
0.197807 0.034806 0.428884
0.452392 0.060933 0.426806
0.691123 0.085580 0.439054
0.691123 0.085580 0.439054
0.691124 0.085580 0.439054
0.062502 0.030889 0.431685
0.067403 0.031229 0.431566
0.095804 0.033086 0.430915
0.198986 0.039846 0.428669
0.453124 0.066124 0.427027
0.692511 0.091017 0.439653
0.692511 0.091017 0.439653
0.692511 0.091017 0.439653
0.067912 0.059505 0.430382
0.072882 0.059877 0.430262
0.101773 0.061929 0.429593
0.205896 0.069285 0.427550
0.457386 0.096519 0.428468
0.700622 0.122987 0.443209
0.700622 0.122987 0.443209
0.700623 0.122987 0.443209
0.089001 0.164260 0.426810
0.094148 0.164721 0.426810
0.124323 0.167399 0.426806
0.229209 0.176342 0.426806
0.472343 0.206590 0.437134
0.730546 0.235614 0.456209
0.730546 0.235614 0.456209
0.730545 0.235614 0.456209
0.167253 0.444155 0.448911
0.172785 0.444483 0.449258
0.204588 0.446408 0.451266
0.297592 0.453143 0.458000
0.530302 0.481110 0.483176
0.890773 0.506905 0.506471
0.890773 0.506905 0.506471
0.890774 0.506905 0.506471
0.246951 0.721630 0.492770
0.251725 0.722557 0.493186
0.278605 0.727842 0.495554
0.352857 0.745242 0.503096
0.559836 0.792976 0.522713
0.869407 0.821784 0.534246
0.869407 0.821784 0.534246
0.869408 0.821784 0.534246
0.246951 0.721630 0.492770
0.251725 0.722558 0.493186
0.278605 0.727841 0.495554
0.352857 0.745242 0.503096
0.559836 0.792976 0.522713
0.869407 0.821784 0.534246
0.869407 0.821784 0.534246
0.869408 0.821784 0.534246
0.246951 0.721630 0.492770
0.251725 0.722557 0.493186
0.278605 0.727842 0.495554
0.352857 0.745243 0.503096
0.559836 0.792976 0.522713
0.869407 0.821785 0.534246
0.869407 0.821785 0.534246
0.869408 0.821785 0.534246
0.072023 0.033082 0.622736
0.076980 0.033428 0.622585
0.106088 0.035512 0.621707
0.210852 0.042996 0.619272
0.460462 0.069678 0.623283
0.706386 0.095521 0.645563
0.706386 0.095521 0.645563
0.706387 0.095521 0.645563
0.073063 0.038083 0.622433
0.078097 0.038474 0.622301
0.107267 0.040565 0.621430
0.212050 0.048117 0.619272
0.461225 0.074932 0.623845
0.707887 0.101085 0.646541
0.707887 0.101085 0.646541
0.707888 0.101085 0.646541
0.079217 0.067323 0.620753
0.084313 0.067727 0.620633
0.114018 0.070066 0.620038
0.219069 0.078004 0.619165
0.465668 0.105781 0.627251
0.716708 0.133811 0.652243
0.716708 0.133811 0.652243
0.716709 0.133811 0.652243
0.101569 0.174087 0.619165
0.106811 0.174547 0.619165
0.137449 0.177226 0.619165
0.241184 0.186010 0.620316
0.480965 0.216902 0.642481
0.749507 0.246955 0.672290
0.749507 0.246955 0.672290
0.749508 0.246955 0.672290
0.181200 0.451394 0.661144
0.186668 0.451741 0.661662
0.217986 0.453786 0.664695
0.307944 0.461136 0.675201
0.541344 0.491201 0.722455
0.902781 0.514200 0.767483
0.902781 0.514200 0.767483
0.902781 0.514200 0.767483
0.258854 0.740932 0.740963
0.263307 0.741822 0.741770
0.288430 0.746938 0.746423
0.358084 0.762737 0.760931
0.557144 0.804982 0.802659
0.862119 0.829160 0.828336
0.862120 0.829160 0.828336
0.862120 0.829160 0.828336
0.258854 0.740932 0.740963
0.263307 0.741822 0.741770
0.288430 0.746938 0.746423
0.358084 0.762737 0.760931
0.557144 0.804982 0.802659
0.862119 0.829160 0.828336
0.862120 0.829160 0.828336
0.862120 0.829160 0.828336
0.258854 0.740932 0.740963
0.263307 0.741821 0.741770
0.288430 0.746937 0.746423
0.358084 0.762737 0.760931
0.557144 0.804981 0.802659
0.862119 0.829161 0.828336
0.862120 0.829161 0.828336
0.862120 0.829161 0.828336
0.072023 0.033082 0.622736
0.076980 0.033428 0.622584
0.106088 0.035512 0.621707
0.210852 0.042996 0.619272
0.460462 0.069678 0.623283
0.706386 0.095521 0.645564
0.706386 0.095521 0.645564
0.706387 0.095521 0.645564
0.073063 0.038083 0.622433
0.078097 0.038474 0.622301
0.107267 0.040565 0.621430
0.212050 0.048117 0.619272
0.461225 0.074932 0.623845
0.707887 0.101085 0.646541
0.707887 0.101085 0.646541
0.707888 0.101085 0.646541
0.079217 0.067323 0.620753
0.084313 0.067727 0.620633
0.114018 0.070066 0.620038
0.219069 0.078004 0.619165
0.465668 0.105781 0.627251
0.716708 0.133811 0.652243
0.716708 0.133811 0.652243
0.716709 0.133811 0.652243
0.101569 0.174087 0.619165
0.106811 0.174547 0.619165
0.137449 0.177226 0.619165
0.241184 0.186010 0.620316
0.480965 0.216902 0.642481
0.749507 0.246955 0.672290
0.749507 0.246955 0.672290
0.749508 0.246955 0.672290
0.181200 0.451394 0.661144
0.186668 0.451741 0.661662
0.217986 0.453786 0.664695
0.307944 0.461136 0.675201
0.541344 0.491201 0.722455
0.902781 0.514200 0.767484
0.902781 0.514200 0.767484
0.902781 0.514200 0.767484
0.258854 0.740932 0.740963
0.263307 0.741822 0.741770
0.288430 0.746938 0.746423
0.358084 0.762737 0.760931
0.557144 0.804982 0.802659
0.862119 0.829160 0.828336
0.862120 0.829160 0.828336
0.862120 0.829160 0.828336
0.258854 0.740932 0.740963
0.263307 0.741822 0.741770
0.288430 0.746938 0.746423
0.358084 0.762737 0.760931
0.557144 0.804982 0.802659
0.862119 0.829160 0.828336
0.862120 0.829160 0.828336
0.862120 0.829160 0.828336
0.258854 0.740932 0.740963
0.263307 0.741821 0.741770
0.288430 0.746937 0.746423
0.358084 0.762737 0.760931
0.557144 0.804981 0.802659
0.862119 0.829161 0.828336
0.862120 0.829161 0.828336
0.862120 0.829161 0.828336
0.072023 0.033082 0.622736
0.076980 0.033428 0.622585
0.106088 0.035512 0.621708
0.210852 0.042996 0.619272
0.460462 0.069678 0.623283
0.706386 0.095521 0.645563
0.706386 0.095521 0.645563
0.706387 0.095521 0.645563
0.073063 0.038083 0.622433
0.078097 0.038474 0.622301
0.107267 0.040565 0.621429
0.212050 0.048117 0.619272
0.461225 0.074932 0.623844
0.707887 0.101085 0.646542
0.707887 0.101085 0.646542
0.707888 0.101085 0.646542
0.079217 0.067323 0.620752
0.084313 0.067727 0.620634
0.114018 0.070066 0.620039
0.219069 0.078004 0.619165
0.465668 0.105781 0.627251
0.716708 0.133811 0.652243
0.716708 0.133811 0.652243
0.716709 0.133811 0.652243
0.101569 0.174087 0.619165
0.106811 0.174547 0.619165
0.137449 0.177226 0.619165
0.241184 0.186010 0.620316
0.480965 0.216902 0.642481
0.749507 0.246955 0.672289
0.749507 0.246955 0.672289
0.749508 0.246955 0.672289
0.181200 0.451394 0.661144
0.186668 0.451741 0.661661
0.217986 0.453786 0.664694
0.307944 0.461136 0.675201
0.541345 0.491201 0.722454
0.902781 0.514200 0.767483
0.902781 0.514200 0.767483
0.902781 0.514200 0.767483
0.258854 0.740932 0.740963
0.263307 0.741822 0.741770
0.288430 0.746938 0.746424
0.358084 0.762737 0.760931
0.557144 0.804982 0.802658
0.862119 0.829160 0.828337
0.862120 0.829160 0.828337
0.862120 0.829160 0.828337
0.258854 0.740932 0.740963
0.263307 0.741822 0.741770
0.288430 0.746938 0.746424
0.358084 0.762737 0.760931
0.557144 0.804982 0.802658
0.862119 0.829160 0.828337
0.862120 0.829160 0.828337
0.862120 0.829160 0.828337
0.258854 0.740932 0.740963
0.263307 0.741821 0.741770
0.288430 0.746937 0.746424
0.358084 0.762737 0.760931
0.557144 0.804981 0.802658
0.862119 0.829161 0.828337
0.862120 0.829161 0.828337
0.862120 0.829161 0.828337
