Assets/Art/Materials/LUT/Tweed.CUBE
#Created by: Adobe Photoshop Export Color Lookup Plugin
TITLE "Frame2.exr"
#LUT size
LUT_3D_SIZE 8
#data domain
#LUT data points
DOMAIN_MIN 0.000000 0.000000 0.000000
DOMAIN_MAX 0.903226 0.903226 0.903226
0.001678 0.001678 0.001678
0.001678 0.001678 0.001678
0.015432 0.005860 0.004454
0.132760 0.027192 0.017899
0.538405 0.029018 0.017395
0.856321 0.036072 0.019684
0.856321 0.036072 0.019684
0.856321 0.036072 0.019684
0.001678 0.001678 0.001678
0.001678 0.001678 0.001678
0.015432 0.005860 0.004454
0.132760 0.027192 0.017899
0.538405 0.029018 0.017395
0.856321 0.036072 0.019684
0.856321 0.036072 0.019684
0.856321 0.036072 0.019684
0.015309 0.018195 0.007550
0.015309 0.018195 0.007550
0.024338 0.019194 0.008105
0.133118 0.034877 0.017961
0.538602 0.036629 0.017395
0.857135 0.044275 0.020030
0.857135 0.044275 0.020030
0.857136 0.044275 0.020030
0.042316 0.120387 0.018219
0.042316 0.120387 0.018219
0.049927 0.120424 0.018195
0.135965 0.120769 0.017970
0.542660 0.124174 0.017773
0.867635 0.138534 0.024547
0.867635 0.138534 0.024547
0.867634 0.138534 0.024547
0.063731 0.537939 0.023967
0.063731 0.537939 0.023967
0.071798 0.538457 0.024189
0.163217 0.544348 0.026922
0.592321 0.569677 0.040317
0.911245 0.583213 0.049568
0.911245 0.583213 0.049568
0.911245 0.583213 0.049568
0.100313 0.881712 0.043732
0.100313 0.881712 0.043732
0.108281 0.882033 0.043967
0.198245 0.885634 0.046606
0.617715 0.900871 0.060630
0.932525 0.917418 0.081331
0.932525 0.917418 0.081331
0.932524 0.917418 0.081331
0.100313 0.881712 0.043732
0.100313 0.881712 0.043732
0.108281 0.882033 0.043967
0.198245 0.885634 0.046606
0.617715 0.900871 0.060630
0.932525 0.917418 0.081331
0.932525 0.917418 0.081331
0.932524 0.917418 0.081331
0.100313 0.881712 0.043732
0.100313 0.881712 0.043732
0.108281 0.882032 0.043967
0.198245 0.885633 0.046606
0.617715 0.900871 0.060630
0.932525 0.917418 0.081331
0.932525 0.917418 0.081331
0.932524 0.917418 0.081331
0.001678 0.001678 0.001678
0.001678 0.001678 0.001678
0.015432 0.005860 0.004454
0.132760 0.027192 0.017899
0.538405 0.029018 0.017395
0.856321 0.036072 0.019684
0.856321 0.036072 0.019684
0.856321 0.036072 0.019684
0.001678 0.001678 0.001678
0.001678 0.001678 0.001678
0.015432 0.005860 0.004454
0.132760 0.027192 0.017899
0.538405 0.029018 0.017395
0.856321 0.036072 0.019684
0.856321 0.036072 0.019684
0.856321 0.036072 0.019684
0.015309 0.018195 0.007550
0.015309 0.018195 0.007550
0.024338 0.019194 0.008105
0.133118 0.034877 0.017961
0.538602 0.036629 0.017395
0.857135 0.044275 0.020030
0.857135 0.044275 0.020030
0.857136 0.044275 0.020030
0.042316 0.120387 0.018219
0.042316 0.120387 0.018219
0.049927 0.120424 0.018195
0.135965 0.120769 0.017970
0.542660 0.124174 0.017773
0.867635 0.138534 0.024547
0.867635 0.138534 0.024547
0.867634 0.138534 0.024547
0.063731 0.537939 0.023967
0.063731 0.537939 0.023967
0.071798 0.538457 0.024189
0.163217 0.544348 0.026922
0.592321 0.569677 0.040317
0.911245 0.583213 0.049568
0.911245 0.583213 0.049568
0.911245 0.583213 0.049568
0.100313 0.881712 0.043732
0.100313 0.881712 0.043732
0.108281 0.882033 0.043967
0.198245 0.885634 0.046606
0.617715 0.900871 0.060630
0.932525 0.917418 0.081331
0.932525 0.917418 0.081331
0.932524 0.917418 0.081331
0.100313 0.881712 0.043732
0.100313 0.881712 0.043732
0.108281 0.882033 0.043967
0.198245 0.885634 0.046606
0.617715 0.900871 0.060630
0.932525 0.917418 0.081331
0.932525 0.917418 0.081331
0.932524 0.917418 0.081331
0.100313 0.881712 0.043732
0.100313 0.881712 0.043732
0.108281 0.882032 0.043967
0.198245 0.885633 0.046606
0.617715 0.900871 0.060630
0.932525 0.917418 0.081331
0.932525 0.917418 0.081331
0.932524 0.917418 0.081331
0.003331 0.002776 0.009857
0.003331 0.002776 0.009857
0.018356 0.007797 0.013175
0.132834 0.027229 0.025386
0.538430 0.029043 0.024870
0.856469 0.036183 0.027221
0.856469 0.036183 0.027221
0.856468 0.036183 0.027221
0.003331 0.002776 0.009857
0.003331 0.002776 0.009857
0.018356 0.007797 0.013175
0.132834 0.027229 0.025386
0.538430 0.029043 0.024870
0.856469 0.036183 0.027221
0.856469 0.036183 0.027221
0.856468 0.036183 0.027221
0.016666 0.019083 0.015519
0.016666 0.019083 0.015519
0.024437 0.019256 0.015605
0.133180 0.034901 0.025448
0.538639 0.036654 0.024870
0.857296 0.044411 0.027566
0.857296 0.044411 0.027566
0.857296 0.044411 0.027566
0.042353 0.120400 0.025682
0.042353 0.120400 0.025682
0.049964 0.120424 0.025657
0.135977 0.120769 0.025445
0.542784 0.124260 0.025297
0.867844 0.138732 0.032134
0.867844 0.138732 0.032134
0.867844 0.138732 0.032134
0.063903 0.538124 0.031529
0.063903 0.538124 0.031529
0.071983 0.538629 0.031763
0.163415 0.544545 0.034508
0.592469 0.569801 0.047916
0.911356 0.583336 0.057191
0.911356 0.583336 0.057191
0.911356 0.583336 0.057191
0.100449 0.881835 0.051355
0.100449 0.881835 0.051355
0.108417 0.882168 0.051578
0.198356 0.885745 0.054217
0.617826 0.900994 0.068314
0.932623 0.917591 0.089151
0.932623 0.917591 0.089151
0.932623 0.917591 0.089151
0.100449 0.881835 0.051355
0.100449 0.881835 0.051355
0.108417 0.882168 0.051578
0.198356 0.885745 0.054217
0.617826 0.900994 0.068314
0.932623 0.917591 0.089151
0.932623 0.917591 0.089151
0.932623 0.917591 0.089151
0.100449 0.881836 0.051355
0.100449 0.881836 0.051355
0.108417 0.882168 0.051578
0.198356 0.885746 0.054217
0.617826 0.900995 0.068314
0.932623 0.917591 0.089151
0.932623 0.917591 0.089151
0.932623 0.917591 0.089151
0.032871 0.022375 0.107062
0.032871 0.022375 0.107062
0.041321 0.022991 0.107396
0.133671 0.027693 0.110044
0.538851 0.029286 0.109327
0.858160 0.037629 0.112468
0.858160 0.037629 0.112468
0.858160 0.037629 0.112468
0.032871 0.022375 0.107062
0.032871 0.022375 0.107062
0.041321 0.022991 0.107396
0.133671 0.027693 0.110044
0.538851 0.029286 0.109327
0.858160 0.037629 0.112468
0.858160 0.037629 0.112468
0.858160 0.037629 0.112468
0.034043 0.030627 0.107470
0.034043 0.030627 0.107470
0.041790 0.030750 0.107531
0.133954 0.035316 0.110057
0.539123 0.036933 0.109327
0.859048 0.045918 0.112863
0.859048 0.045918 0.112863
0.859049 0.045918 0.112863
0.042822 0.120593 0.110113
0.042822 0.120593 0.110113
0.050408 0.120618 0.110088
0.136275 0.120817 0.109754
0.544039 0.125271 0.110205
0.870026 0.140712 0.117756
0.870026 0.140712 0.117756
0.870026 0.140712 0.117756
0.066016 0.540223 0.117092
0.066016 0.540223 0.117092
0.074095 0.540753 0.117339
0.165693 0.546763 0.120221
0.594154 0.571423 0.133910
0.912577 0.584636 0.143336
0.912577 0.584636 0.143336
0.912577 0.584636 0.143336
0.101869 0.883182 0.137325
0.101869 0.883182 0.137325
0.109826 0.883515 0.137559
0.199697 0.887000 0.140225
0.619001 0.902378 0.155201
0.933707 0.919662 0.177762
0.933707 0.919662 0.177762
0.933708 0.919662 0.177762
0.101869 0.883182 0.137325
0.101869 0.883182 0.137325
0.109826 0.883515 0.137559
0.199697 0.887000 0.140225
0.619001 0.902378 0.155201
0.933707 0.919662 0.177762
0.933707 0.919662 0.177762
0.933708 0.919662 0.177762
0.101869 0.883183 0.137325
0.101869 0.883183 0.137325
0.109826 0.883514 0.137559
0.199697 0.886999 0.140225
0.619001 0.902378 0.155201
0.933707 0.919661 0.177762
0.933707 0.919661 0.177762
0.933708 0.919661 0.177762
0.042171 0.028196 0.508765
0.042171 0.028196 0.508765
0.049819 0.028246 0.508765
0.135904 0.028607 0.508531
0.542285 0.031649 0.508133
0.867012 0.045453 0.515453
0.867012 0.045453 0.515453
0.867012 0.045453 0.515453
0.042171 0.028196 0.508765
0.042171 0.028196 0.508765
0.049819 0.028245 0.508765
0.135904 0.028607 0.508531
0.542285 0.031649 0.508133
0.867012 0.045453 0.515453
0.867012 0.045453 0.515453
0.867012 0.045453 0.515453
0.042418 0.035782 0.508765
0.042418 0.035782 0.508765
0.050028 0.035819 0.508740
0.136040 0.036119 0.508464
0.542889 0.039593 0.508361
0.868060 0.053915 0.515971
0.868060 0.053915 0.515971
0.868061 0.053915 0.515971
0.044132 0.120882 0.508086
0.044132 0.120882 0.508086
0.051718 0.120895 0.508043
0.137452 0.121119 0.507836
0.551558 0.131402 0.511967
0.880143 0.150119 0.522194
0.880143 0.150119 0.522194
0.880142 0.150119 0.522194
0.075965 0.550173 0.521428
0.075965 0.550173 0.521428
0.084082 0.550728 0.521724
0.175836 0.556789 0.525045
0.601090 0.578022 0.539049
0.917801 0.590494 0.549900
0.917800 0.590494 0.549900
0.917801 0.590494 0.549900
0.107837 0.888841 0.542648
0.107837 0.888841 0.542648
0.115768 0.889149 0.542920
0.205378 0.892463 0.546042
0.624444 0.909689 0.566587
0.938283 0.928599 0.594610
0.938283 0.928599 0.594610
0.938284 0.928599 0.594610
0.107837 0.888841 0.542648
0.107837 0.888841 0.542648
0.115768 0.889149 0.542920
0.205378 0.892464 0.546042
0.624444 0.909689 0.566587
0.938283 0.928599 0.594610
0.938283 0.928599 0.594610
0.938284 0.928599 0.594610
0.107837 0.888842 0.542648
0.107837 0.888842 0.542648
0.115768 0.889149 0.542920
0.205378 0.892464 0.546042
0.624444 0.909689 0.566587
0.938283 0.928598 0.594610
0.938283 0.928598 0.594610
0.938284 0.928598 0.594610
0.043580 0.028656 0.819333
0.043580 0.028656 0.819333
0.051154 0.028656 0.819296
0.136798 0.028700 0.818825
0.547193 0.035457 0.820812
0.874754 0.052399 0.829496
0.874754 0.052399 0.829496
0.874754 0.052399 0.829496
0.043580 0.028656 0.819333
0.043580 0.028656 0.819333
0.051154 0.028656 0.819296
0.136798 0.028700 0.818825
0.547193 0.035457 0.820812
0.874754 0.052399 0.829496
0.874754 0.052399 0.829496
0.874754 0.052399 0.829496
0.043703 0.036156 0.819247
0.043703 0.036156 0.819247
0.051277 0.036156 0.819210
0.136922 0.036236 0.818812
0.548044 0.043636 0.821157
0.875839 0.060923 0.830026
0.875839 0.060923 0.830026
0.875839 0.060923 0.830026
0.045096 0.121186 0.818723
0.045096 0.121186 0.818723
0.052707 0.121235 0.818723
0.139047 0.122102 0.818723
0.559007 0.137672 0.825722
0.887756 0.157262 0.836213
0.887756 0.157262 0.836213
0.887756 0.157262 0.836213
0.083592 0.557860 0.835475
0.083592 0.557860 0.835475
0.091696 0.558391 0.835746
0.183087 0.563992 0.838901
0.605910 0.582655 0.851447
0.921661 0.595295 0.862987
0.921661 0.595295 0.862987
0.921661 0.595295 0.862987
0.112062 0.893095 0.855100
0.112062 0.893095 0.855100
0.119981 0.893379 0.855384
0.209485 0.896760 0.858687
0.628671 0.916507 0.882917
0.941314 0.934813 0.909697
0.941314 0.934813 0.909697
0.941315 0.934813 0.909697
0.112062 0.893095 0.855100
0.112062 0.893095 0.855100
0.119981 0.893379 0.855384
0.209485 0.896760 0.858687
0.628671 0.916508 0.882917
0.941314 0.934813 0.909697
0.941314 0.934813 0.909697
0.941315 0.934813 0.909697
0.112062 0.893095 0.855100
0.112062 0.893095 0.855100
0.119981 0.893379 0.855384
0.209485 0.896761 0.858687
0.628671 0.916508 0.882917
0.941314 0.934813 0.909697
0.941314 0.934813 0.909697
0.941315 0.934813 0.909697
0.043580 0.028656 0.819333
0.043580 0.028656 0.819333
0.051154 0.028656 0.819296
0.136798 0.028700 0.818825
0.547193 0.035457 0.820812
0.874754 0.052399 0.829495
0.874754 0.052399 0.829495
0.874754 0.052399 0.829495
0.043580 0.028656 0.819333
0.043580 0.028656 0.819333
0.051154 0.028656 0.819296
0.136798 0.028700 0.818824
0.547193 0.035457 0.820812
0.874754 0.052399 0.829495
0.874754 0.052399 0.829495
0.874754 0.052399 0.829495
0.043703 0.036156 0.819247
0.043703 0.036156 0.819247
0.051277 0.036156 0.819210
0.136922 0.036236 0.818812
0.548044 0.043636 0.821157
0.875839 0.060923 0.830026
0.875839 0.060923 0.830026
0.875839 0.060923 0.830026
0.045096 0.121186 0.818723
0.045096 0.121186 0.818723
0.052707 0.121235 0.818723
0.139047 0.122102 0.818723
0.559007 0.137672 0.825722
0.887756 0.157262 0.836213
0.887756 0.157262 0.836213
0.887756 0.157262 0.836213
0.083592 0.557860 0.835474
0.083592 0.557860 0.835474
0.091696 0.558391 0.835746
0.183087 0.563992 0.838901
0.605910 0.582655 0.851447
0.921661 0.595295 0.862987
0.921661 0.595295 0.862987
0.921661 0.595295 0.862987
0.112062 0.893095 0.855100
0.112062 0.893095 0.855100
0.119981 0.893379 0.855384
0.209485 0.896760 0.858686
0.628671 0.916507 0.882917
0.941314 0.934813 0.909697
0.941314 0.934813 0.909697
0.941315 0.934813 0.909697
0.112062 0.893095 0.855100
0.112062 0.893095 0.855100
0.119981 0.893379 0.855384
0.209485 0.896760 0.858686
0.628671 0.916508 0.882917
0.941314 0.934813 0.909697
0.941314 0.934813 0.909697
0.941315 0.934813 0.909697
0.112062 0.893095 0.855100
0.112062 0.893095 0.855100
0.119981 0.893379 0.855384
0.209485 0.896761 0.858686
0.628671 0.916508 0.882917
0.941314 0.934813 0.909697
0.941314 0.934813 0.909697
0.941315 0.934813 0.909697
0.043580 0.028656 0.819334
0.043580 0.028656 0.819334
0.051154 0.028656 0.819296
0.136798 0.028700 0.818825
0.547193 0.035457 0.820812
0.874754 0.052399 0.829496
0.874754 0.052399 0.829496
0.874754 0.052399 0.829496
0.043580 0.028656 0.819334
0.043580 0.028656 0.819334
0.051154 0.028656 0.819296
0.136798 0.028700 0.818825
0.547193 0.035457 0.820812
0.874754 0.052399 0.829496
0.874754 0.052399 0.829496
0.874754 0.052399 0.829496
0.043703 0.036156 0.819246
0.043703 0.036156 0.819246
0.051277 0.036156 0.819210
0.136922 0.036236 0.818811
0.548044 0.043636 0.821157
0.875839 0.060923 0.830027
0.875839 0.060923 0.830027
0.875839 0.060923 0.830027
0.045096 0.121186 0.818724
0.045096 0.121186 0.818724
0.052707 0.121235 0.818724
0.139047 0.122102 0.818724
0.559007 0.137672 0.825722
0.887756 0.157262 0.836212
0.887756 0.157262 0.836212
0.887756 0.157262 0.836212
0.083592 0.557860 0.835474
0.083592 0.557860 0.835474
0.091696 0.558391 0.835747
0.183087 0.563992 0.838902
0.605910 0.582656 0.851446
0.921661 0.595295 0.862988
0.921661 0.595295 0.862988
0.921661 0.595296 0.862988
0.112062 0.893095 0.855101
0.112062 0.893095 0.855101
0.119981 0.893379 0.855385
0.209485 0.896760 0.858686
0.628671 0.916507 0.882917
0.941314 0.934813 0.909697
0.941314 0.934813 0.909697
0.941315 0.934813 0.909697
0.112062 0.893095 0.855101
0.112062 0.893095 0.855101
0.119981 0.893379 0.855385
0.209485 0.896760 0.858686
0.628671 0.916508 0.882917
0.941314 0.934813 0.909697
0.941314 0.934813 0.909697
0.941315 0.934813 0.909697
0.112062 0.893095 0.855101
0.112062 0.893095 0.855101
0.119981 0.893379 0.855385
0.209485 0.896761 0.858686
0.628671 0.916508 0.882917
0.941314 0.934813 0.909697
0.941314 0.934813 0.909697
0.941315 0.934813 0.909697
