Assets/Art/Materials/LUT/Tweed.CUBE
#Created by: Adobe Photoshop Export Color Lookup Plugin
TITLE "Frame2.exr"
#LUT size
LUT_3D_SIZE 5
#data domain
#LUT data points
DOMAIN_MIN 0.000000 0.000000 0.000000
DOMAIN_MAX 0.903226 0.903226 0.903226
0.001678 0.001678 0.001678
0.001678 0.001678 0.001678
0.253533 0.028406 0.018207
0.856321 0.036072 0.019684
0.856321 0.036072 0.019684
0.001678 0.001678 0.001678
0.001678 0.001678 0.001678
0.253533 0.028406 0.018207
0.856321 0.036072 0.019684
0.856321 0.036072 0.019684
0.044560 0.238917 0.017395
0.044560 0.238917 0.017395
0.259034 0.241276 0.017539
0.883972 0.272525 0.032328
0.883972 0.272525 0.032328
0.100313 0.881712 0.043732
0.100313 0.881712 0.043732
0.323189 0.890222 0.050229
0.932525 0.917418 0.081331
0.932524 0.917418 0.081331
0.100313 0.881712 0.043732
0.100313 0.881712 0.043732
0.323189 0.890223 0.050229
0.932525 0.917418 0.081331
0.932524 0.917418 0.081331
0.001678 0.001678 0.001678
0.001678 0.001678 0.001678
0.253533 0.028406 0.018207
0.856321 0.036072 0.019684
0.856321 0.036072 0.019684
0.001678 0.001678 0.001678
0.001678 0.001678 0.001678
0.253533 0.028406 0.018207
0.856321 0.036072 0.019684
0.856321 0.036072 0.019684
0.044560 0.238917 0.017395
0.044560 0.238917 0.017395
0.259034 0.241276 0.017539
0.883972 0.272525 0.032328
0.883972 0.272525 0.032328
0.100313 0.881712 0.043732
0.100313 0.881712 0.043732
0.323189 0.890222 0.050229
0.932525 0.917418 0.081331
0.932524 0.917418 0.081331
0.100313 0.881712 0.043732
0.100313 0.881712 0.043732
0.323189 0.890223 0.050229
0.932525 0.917418 0.081331
0.932524 0.917418 0.081331
0.039861 0.026898 0.227406
0.039861 0.026898 0.227406
0.254437 0.028632 0.227572
0.860682 0.039817 0.231299
0.860682 0.039817 0.231299
0.039861 0.026898 0.227406
0.039861 0.026898 0.227406
0.254437 0.028632 0.227572
0.860682 0.039817 0.231299
0.860682 0.039817 0.231299
0.045346 0.239275 0.227022
0.045346 0.239275 0.227022
0.261829 0.243564 0.228003
0.889220 0.277638 0.245553
0.889219 0.277638 0.245553
0.103729 0.884939 0.257037
0.103729 0.884939 0.257037
0.326251 0.893174 0.264155
0.935178 0.922426 0.301278
0.935179 0.922426 0.301278
0.103729 0.884939 0.257037
0.103729 0.884939 0.257037
0.326251 0.893173 0.264155
0.935178 0.922426 0.301278
0.935179 0.922426 0.301278
0.043580 0.028656 0.819333
0.043580 0.028656 0.819333
0.256316 0.029156 0.818723
0.874754 0.052399 0.829496
0.874754 0.052399 0.829496
0.043580 0.028656 0.819333
0.043580 0.028656 0.819333
0.256316 0.029156 0.818723
0.874754 0.052399 0.829496
0.874754 0.052399 0.829496
0.050436 0.243376 0.819646
0.050436 0.243376 0.819646
0.273383 0.253757 0.824583
0.900732 0.289077 0.844265
0.900732 0.289077 0.844265
0.112062 0.893095 0.855100
0.112062 0.893095 0.855100
0.334066 0.901629 0.864006
0.941314 0.934813 0.909697
0.941315 0.934813 0.909697
0.112062 0.893095 0.855100
0.112062 0.893095 0.855100
0.334066 0.901628 0.864006
0.941314 0.934813 0.909697
0.941315 0.934813 0.909697
0.043580 0.028656 0.819334
0.043580 0.028656 0.819334
0.256316 0.029156 0.818724
0.874754 0.052399 0.829496
0.874754 0.052399 0.829496
0.043580 0.028656 0.819334
0.043580 0.028656 0.819334
0.256316 0.029156 0.818724
0.874754 0.052399 0.829496
0.874754 0.052399 0.829496
0.050436 0.243376 0.819647
0.050436 0.243376 0.819647
0.273383 0.253757 0.824583
0.900732 0.289077 0.844265
0.900732 0.289077 0.844265
0.112062 0.893095 0.855101
0.112062 0.893095 0.855101
0.334066 0.901629 0.864006
0.941314 0.934813 0.909697
0.941315 0.934813 0.909697
0.112062 0.893095 0.855101
0.112062 0.893095 0.855101
0.334066 0.901628 0.864006
0.941314 0.934813 0.909697
0.941315 0.934813 0.909697
