Assets/Art/Materials/LUT/Tweed.CUBE
#Created by: Adobe Photoshop Export Color Lookup Plugin
TITLE "Frame2.exr"
#LUT size
LUT_3D_SIZE 32
#data domain
DOMAIN_MIN 0.0 0.0 0.0
DOMAIN_MAX 1.0 1.0 1.0
#LUT data points
0.001678 0.001678 0.001678
0.001678 0.001678 0.001678
0.001678 0.001678 0.001678
0.001678 0.001678 0.001678
0.001678 0.001678 0.001678
0.001678 0.001678 0.001678
0.001678 0.001678 0.001678
0.001678 0.001678 0.001678
0.015432 0.005860 0.004454
0.036000 0.012119 0.008605
0.070380 0.023271 0.015631
0.098779 0.026536 0.017599
0.132760 0.027192 0.017899
0.181187 0.027833 0.018155
0.253533 0.028406 0.018207
0.366764 0.028656 0.017803
0.538405 0.029018 0.017395
0.748886 0.032248 0.017915
0.856321 0.036072 0.019684
0.856321 0.036072 0.019684
0.856321 0.036072 0.019684
0.856321 0.036072 0.019684
0.856321 0.036072 0.019684
0.856321 0.036072 0.019684
0.856321 0.036072 0.019684
0.856321 0.036072 0.019684
0.856321 0.036072 0.019684
0.856321 0.036072 0.019684
0.856321 0.036072 0.019684
0.856321 0.036072 0.019684
0.856319 0.036072 0.019684
0.856319 0.036072 0.019684
0.001678 0.001678 0.001678
0.001678 0.001678 0.001678
0.001678 0.001678 0.001678
0.001678 0.001678 0.001678
0.001678 0.001678 0.001678
0.001678 0.001678 0.001678
0.001678 0.001678 0.001678
0.001678 0.001678 0.001678
0.015432 0.005860 0.004454
0.036000 0.012119 0.008605
0.070380 0.023271 0.015631
0.098779 0.026536 0.017599
0.132760 0.027192 0.017899
0.181187 0.027833 0.018155
0.253533 0.028406 0.018207
0.366764 0.028656 0.017803
0.538405 0.029018 0.017395
0.748886 0.032248 0.017915
0.856321 0.036072 0.019684
0.856321 0.036072 0.019684
0.856321 0.036072 0.019684
0.856321 0.036072 0.019684
0.856321 0.036072 0.019684
0.856321 0.036072 0.019684
0.856321 0.036072 0.019684
0.856321 0.036072 0.019684
0.856321 0.036072 0.019684
0.856321 0.036072 0.019684
0.856321 0.036072 0.019684
0.856321 0.036072 0.019684
0.856319 0.036072 0.019684
0.856319 0.036072 0.019684
0.001678 0.001678 0.001678
0.001678 0.001678 0.001678
0.001678 0.001678 0.001678
0.001678 0.001678 0.001678
0.001678 0.001678 0.001678
0.001678 0.001678 0.001678
0.001678 0.001678 0.001678
0.001678 0.001678 0.001678
0.015432 0.005860 0.004454
0.036000 0.012119 0.008605
0.070380 0.023271 0.015631
0.098779 0.026536 0.017599
0.132760 0.027192 0.017899
0.181187 0.027833 0.018155
0.253533 0.028406 0.018207
0.366764 0.028656 0.017803
0.538405 0.029018 0.017395
0.748886 0.032248 0.017915
0.856321 0.036072 0.019684
0.856321 0.036072 0.019684
0.856321 0.036072 0.019684
0.856321 0.036072 0.019684
0.856321 0.036072 0.019684
0.856321 0.036072 0.019684
0.856321 0.036072 0.019684
0.856321 0.036072 0.019684
0.856321 0.036072 0.019684
0.856321 0.036072 0.019684
0.856321 0.036072 0.019684
0.856321 0.036072 0.019684
0.856319 0.036072 0.019684
0.856319 0.036072 0.019684
0.001678 0.001678 0.001678
0.001678 0.001678 0.001678
0.001678 0.001678 0.001678
0.001678 0.001678 0.001678
0.001678 0.001678 0.001678
0.001678 0.001678 0.001678
0.001678 0.001678 0.001678
0.001678 0.001678 0.001678
0.015432 0.005860 0.004454
0.036000 0.012119 0.008605
0.070380 0.023271 0.015631
0.098779 0.026536 0.017599
0.132760 0.027192 0.017899
0.181187 0.027833 0.018155
0.253533 0.028406 0.018207
0.366764 0.028656 0.017803
0.538405 0.029018 0.017395
0.748886 0.032248 0.017915
0.856321 0.036072 0.019684
0.856321 0.036072 0.019684
0.856321 0.036072 0.019684
0.856321 0.036072 0.019684
0.856321 0.036072 0.019684
0.856321 0.036072 0.019684
0.856321 0.036072 0.019684
0.856321 0.036072 0.019684
0.856321 0.036072 0.019684
0.856321 0.036072 0.019684
0.856321 0.036072 0.019684
0.856321 0.036072 0.019684
0.856319 0.036072 0.019684
0.856319 0.036072 0.019684
0.001678 0.001678 0.001678
0.001678 0.001678 0.001678
0.001678 0.001678 0.001678
0.001678 0.001678 0.001678
0.001678 0.001678 0.001678
0.001678 0.001678 0.001678
0.001678 0.001678 0.001678
0.001678 0.001678 0.001678
0.015432 0.005860 0.004454
0.036000 0.012119 0.008605
0.070380 0.023271 0.015631
0.098779 0.026536 0.017599
0.132760 0.027192 0.017899
0.181187 0.027833 0.018155
0.253533 0.028406 0.018207
0.366764 0.028656 0.017803
0.538405 0.029018 0.017395
0.748886 0.032248 0.017915
0.856321 0.036072 0.019684
0.856321 0.036072 0.019684
0.856321 0.036072 0.019684
0.856321 0.036072 0.019684
0.856321 0.036072 0.019684
0.856321 0.036072 0.019684
0.856321 0.036072 0.019684
0.856321 0.036072 0.019684
0.856321 0.036072 0.019684
0.856321 0.036072 0.019684
0.856321 0.036072 0.019684
0.856321 0.036072 0.019684
0.856319 0.036072 0.019684
0.856319 0.036072 0.019684
0.001678 0.001678 0.001678
0.001678 0.001678 0.001678
0.001678 0.001678 0.001678
0.001678 0.001678 0.001678
0.001678 0.001678 0.001678
0.001678 0.001678 0.001678
0.001678 0.001678 0.001678
0.001678 0.001678 0.001678
0.015432 0.005860 0.004454
0.036000 0.012119 0.008605
0.070380 0.023271 0.015631
0.098779 0.026536 0.017599
0.132760 0.027192 0.017899
0.181187 0.027833 0.018155
0.253533 0.028406 0.018207
0.366764 0.028656 0.017803
0.538405 0.029018 0.017395
0.748886 0.032248 0.017915
0.856321 0.036072 0.019684
0.856321 0.036072 0.019684
0.856321 0.036072 0.019684
0.856321 0.036072 0.019684
0.856321 0.036072 0.019684
0.856321 0.036072 0.019684
0.856321 0.036072 0.019684
0.856321 0.036072 0.019684
0.856321 0.036072 0.019684
0.856321 0.036072 0.019684
0.856321 0.036072 0.019684
0.856321 0.036072 0.019684
0.856319 0.036072 0.019684
0.856319 0.036072 0.019684
0.001678 0.001678 0.001678
0.001678 0.001678 0.001678
0.001678 0.001678 0.001678
0.001678 0.001678 0.001678
0.001678 0.001678 0.001678
0.001678 0.001678 0.001678
0.001678 0.001678 0.001678
0.001678 0.001678 0.001678
0.015432 0.005860 0.004454
0.036000 0.012119 0.008605
0.070380 0.023271 0.015631
0.098779 0.026536 0.017599
0.132760 0.027192 0.017899
0.181187 0.027833 0.018155
0.253533 0.028406 0.018207
0.366764 0.028656 0.017803
0.538405 0.029018 0.017395
0.748886 0.032248 0.017915
0.856321 0.036072 0.019684
0.856321 0.036072 0.019684
0.856321 0.036072 0.019684
0.856321 0.036072 0.019684
0.856321 0.036072 0.019684
0.856321 0.036072 0.019684
0.856321 0.036072 0.019684
0.856321 0.036072 0.019684
0.856321 0.036072 0.019684
0.856321 0.036072 0.019684
0.856321 0.036072 0.019684
0.856321 0.036072 0.019684
0.856319 0.036072 0.019684
0.856319 0.036072 0.019684
0.001678 0.001678 0.001678
0.001678 0.001678 0.001678
0.001678 0.001678 0.001678
0.001678 0.001678 0.001678
0.001678 0.001678 0.001678
0.001678 0.001678 0.001678
0.001678 0.001678 0.001678
0.001678 0.001678 0.001678
0.015432 0.005860 0.004454
0.036000 0.012119 0.008605
0.070380 0.023271 0.015631
0.098779 0.026536 0.017599
0.132760 0.027192 0.017899
0.181187 0.027833 0.018155
0.253533 0.028406 0.018207
0.366764 0.028656 0.017803
0.538405 0.029018 0.017395
0.748886 0.032248 0.017915
0.856321 0.036072 0.019684
0.856321 0.036072 0.019684
0.856321 0.036072 0.019684
0.856321 0.036072 0.019684
0.856321 0.036072 0.019684
0.856321 0.036072 0.019684
0.856321 0.036072 0.019684
0.856321 0.036072 0.019684
0.856321 0.036072 0.019684
0.856321 0.036072 0.019684
0.856321 0.036072 0.019684
0.856321 0.036072 0.019684
0.856319 0.036072 0.019684
0.856319 0.036072 0.019684
0.015309 0.018195 0.007550
0.015309 0.018195 0.007550
0.015309 0.018195 0.007550
0.015309 0.018195 0.007550
0.015309 0.018195 0.007550
0.015309 0.018195 0.007550
0.015309 0.018195 0.007550
0.015309 0.018195 0.007550
0.024338 0.019194 0.008105
0.044766 0.025362 0.012198
0.071231 0.031289 0.015902
0.099247 0.034295 0.017722
0.133118 0.034877 0.017961
0.181458 0.035443 0.018167
0.253719 0.035949 0.018164
0.366888 0.036169 0.017729
0.538602 0.036629 0.017395
0.749515 0.040266 0.018150
0.857135 0.044275 0.020030
0.857135 0.044275 0.020030
0.857135 0.044275 0.020030
0.857135 0.044275 0.020030
0.857135 0.044275 0.020030
0.857135 0.044275 0.020030
0.857135 0.044275 0.020030
0.857135 0.044275 0.020030
0.857135 0.044275 0.020030
0.857136 0.044275 0.020030
0.857136 0.044275 0.020030
0.857136 0.044275 0.020030
0.857136 0.044275 0.020030
0.857136 0.044275 0.020030
0.035433 0.042711 0.016216
0.035433 0.042711 0.016216
0.035433 0.042711 0.016216
0.035433 0.042711 0.016216
0.035433 0.042711 0.016216
0.035433 0.042711 0.016216
0.035433 0.042711 0.016216
0.035433 0.042711 0.016216
0.044440 0.043695 0.016763
0.057902 0.045170 0.017582
0.075955 0.045545 0.017757
0.100019 0.045934 0.017934
0.133740 0.046409 0.018105
0.181947 0.046863 0.018219
0.254013 0.047244 0.018108
0.367072 0.047389 0.017616
0.538897 0.047997 0.017395
0.750427 0.052210 0.018483
0.858353 0.056531 0.020546
0.858353 0.056531 0.020546
0.858353 0.056531 0.020546
0.858353 0.056531 0.020546
0.858353 0.056531 0.020546
0.858353 0.056531 0.020546
0.858353 0.056531 0.020546
0.858353 0.056531 0.020546
0.858353 0.056531 0.020546
0.858353 0.056531 0.020546
0.858353 0.056531 0.020546
0.858353 0.056531 0.020546
0.858353 0.056531 0.020546
0.858353 0.056531 0.020546
0.039158 0.062514 0.017516
0.039158 0.062514 0.017516
0.039158 0.062514 0.017516
0.039158 0.062514 0.017516
0.039158 0.062514 0.017516
0.039158 0.062514 0.017516
0.039158 0.062514 0.017516
0.039158 0.062514 0.017516
0.046892 0.062650 0.017578
0.059003 0.063223 0.017882
0.076905 0.063473 0.017982
0.100869 0.063812 0.018109
0.134452 0.064136 0.018193
0.182471 0.064464 0.018192
0.254376 0.064697 0.017972
0.367322 0.064841 0.017441
0.539522 0.065799 0.017395
0.752074 0.071009 0.019132
0.860403 0.075759 0.021421
0.860403 0.075759 0.021421
0.860403 0.075759 0.021421
0.860403 0.075759 0.021421
0.860403 0.075759 0.021421
0.860403 0.075759 0.021421
0.860403 0.075759 0.021421
0.860403 0.075759 0.021421
0.860403 0.075759 0.021421
0.860403 0.075759 0.021421
0.860403 0.075759 0.021421
0.860403 0.075759 0.021421
0.860401 0.075759 0.021421
0.860405 0.075759 0.021421
0.041018 0.086950 0.018073
0.041018 0.086950 0.018073
0.041018 0.086950 0.018073
0.041018 0.086950 0.018073
0.041018 0.086950 0.018073
0.041018 0.086950 0.018073
0.041018 0.086950 0.018073
0.041018 0.086950 0.018073
0.048703 0.087036 0.018098
0.060192 0.087175 0.018142
0.077994 0.087375 0.018192
0.101791 0.087563 0.018207
0.135236 0.087764 0.018194
0.183067 0.087933 0.018066
0.254781 0.088043 0.017748
0.367745 0.088242 0.017406
0.540580 0.089808 0.017395
0.754471 0.096350 0.020093
0.863286 0.101677 0.022648
0.863286 0.101677 0.022648
0.863286 0.101677 0.022648
0.863286 0.101677 0.022648
0.863286 0.101677 0.022648
0.863286 0.101677 0.022648
0.863286 0.101677 0.022648
0.863286 0.101677 0.022648
0.863286 0.101677 0.022648
0.863287 0.101677 0.022648
0.863287 0.101677 0.022648
0.863287 0.101677 0.022648
0.863285 0.101677 0.022648
0.863285 0.101677 0.022648
0.042316 0.120387 0.018219
0.042316 0.120387 0.018219
0.042316 0.120387 0.018219
0.042316 0.120387 0.018219
0.042316 0.120387 0.018219
0.042316 0.120387 0.018219
0.042316 0.120387 0.018219
0.042316 0.120387 0.018219
0.049927 0.120424 0.018195
0.061350 0.120515 0.018193
0.079040 0.120602 0.018168
0.102711 0.120701 0.018099
0.135965 0.120769 0.017970
0.183662 0.120836 0.017771
0.255304 0.120944 0.017484
0.368533 0.121409 0.017395
0.542660 0.124174 0.017773
0.758305 0.132546 0.021672
0.867635 0.138534 0.024547
0.867635 0.138534 0.024547
0.867635 0.138534 0.024547
0.867635 0.138534 0.024547
0.867635 0.138534 0.024547
0.867635 0.138534 0.024547
0.867635 0.138534 0.024547
0.867635 0.138534 0.024547
0.867635 0.138534 0.024547
0.867634 0.138534 0.024547
0.867634 0.138534 0.024547
0.867634 0.138534 0.024547
0.867634 0.138534 0.024547
0.867634 0.138534 0.024547
0.043465 0.167895 0.018002
0.043465 0.167895 0.018002
0.043465 0.167895 0.018002
0.043465 0.167895 0.018002
0.043465 0.167895 0.018002
0.043465 0.167895 0.018002
0.043465 0.167895 0.018002
0.043465 0.167895 0.018002
0.051051 0.167907 0.017965
0.062383 0.167942 0.017910
0.079998 0.167942 0.017835
0.103565 0.167970 0.017706
0.136730 0.167999 0.017566
0.184385 0.168101 0.017429
0.256245 0.168410 0.017395
0.370347 0.169725 0.017395
0.546830 0.174650 0.019283
0.764462 0.185272 0.024294
0.874185 0.191886 0.027545
0.874185 0.191886 0.027545
0.874185 0.191886 0.027545
0.874185 0.191886 0.027545
0.874186 0.191886 0.027545
0.874186 0.191886 0.027545
0.874186 0.191886 0.027545
0.874186 0.191886 0.027545
0.874186 0.191886 0.027545
0.874186 0.191886 0.027545
0.874186 0.191886 0.027545
0.874186 0.191886 0.027545
0.874184 0.191886 0.027545
0.874184 0.191886 0.027545
0.044560 0.238917 0.017395
0.044560 0.238917 0.017395
0.044560 0.238917 0.017395
0.044560 0.238917 0.017395
0.044560 0.238917 0.017395
0.044560 0.238917 0.017395
0.044560 0.238917 0.017395
0.044560 0.238917 0.017395
0.052152 0.238947 0.017395
0.063486 0.238985 0.017395
0.081125 0.239052 0.017395
0.104774 0.239165 0.017395
0.138109 0.239418 0.017395
0.186176 0.239964 0.017395
0.259034 0.241276 0.017539
0.375366 0.244662 0.018844
0.555152 0.252708 0.022554
0.774378 0.265574 0.028774
0.883972 0.272525 0.032328
0.883972 0.272525 0.032328
0.883972 0.272525 0.032328
0.883972 0.272525 0.032328
0.883972 0.272525 0.032328
0.883972 0.272525 0.032328
0.883972 0.272525 0.032328
0.883972 0.272525 0.032328
0.883972 0.272525 0.032328
0.883972 0.272525 0.032328
0.883972 0.272525 0.032328
0.883972 0.272525 0.032328
0.883972 0.272525 0.032328
0.883972 0.272525 0.032328
0.047960 0.353002 0.017424
0.047960 0.353002 0.017424
0.047960 0.353002 0.017424
0.047960 0.353002 0.017424
0.047960 0.353002 0.017424
0.047960 0.353002 0.017424
0.047960 0.353002 0.017424
0.047960 0.353002 0.017424
0.055718 0.353199 0.017498
0.067299 0.353481 0.017595
0.085376 0.354006 0.017795
0.109628 0.354750 0.018101
0.144003 0.355994 0.018628
0.193550 0.357974 0.019519
0.268715 0.361508 0.021101
0.388392 0.368031 0.024106
0.570920 0.378989 0.029304
0.789315 0.392382 0.036302
0.897163 0.398270 0.039800
0.897163 0.398270 0.039800
0.897163 0.398270 0.039800
0.897163 0.398270 0.039800
0.897163 0.398270 0.039800
0.897163 0.398270 0.039800
0.897163 0.398270 0.039800
0.897163 0.398270 0.039800
0.897163 0.398270 0.039800
0.897163 0.398270 0.039800
0.897163 0.398270 0.039800
0.897163 0.398270 0.039800
0.897163 0.398270 0.039800
0.897163 0.398270 0.039800
0.063731 0.537939 0.023967
0.063731 0.537939 0.023967
0.063731 0.537939 0.023967
0.063731 0.537939 0.023967
0.063731 0.537939 0.023967
0.063731 0.537939 0.023967
0.063731 0.537939 0.023967
0.063731 0.537939 0.023967
0.071798 0.538457 0.024189
0.083847 0.539228 0.024521
0.102600 0.540428 0.025096
0.127711 0.542003 0.025835
0.163217 0.544348 0.026922
0.214200 0.547658 0.028507
0.290994 0.552700 0.030953
0.411774 0.560155 0.034801
0.592321 0.569677 0.040317
0.805412 0.578921 0.046411
0.911245 0.583213 0.049568
0.911245 0.583213 0.049568
0.911245 0.583213 0.049568
0.911245 0.583213 0.049568
0.911245 0.583213 0.049568
0.911245 0.583213 0.049568
0.911245 0.583213 0.049568
0.911245 0.583213 0.049568
0.911245 0.583213 0.049568
0.911245 0.583213 0.049568
0.911245 0.583213 0.049568
0.911245 0.583213 0.049568
0.911243 0.583213 0.049568
0.911243 0.583213 0.049568
0.090115 0.769439 0.037215
0.090115 0.769439 0.037215
0.090115 0.769439 0.037215
0.090115 0.769439 0.037215
0.090115 0.769439 0.037215
0.090115 0.769439 0.037215
0.090115 0.769439 0.037215
0.090115 0.769439 0.037215
0.098157 0.769871 0.037487
0.110183 0.770533 0.037892
0.128814 0.771486 0.038492
0.153789 0.772761 0.039300
0.188810 0.774437 0.040383
0.238985 0.776743 0.041898
0.314397 0.779922 0.044096
0.432835 0.784462 0.047331
0.610111 0.790823 0.052513
0.820304 0.798932 0.060502
0.925208 0.803708 0.065895
0.925208 0.803708 0.065895
0.925208 0.803708 0.065895
0.925208 0.803708 0.065895
0.925208 0.803708 0.065895
0.925208 0.803708 0.065895
0.925208 0.803708 0.065895
0.925208 0.803708 0.065895
0.925208 0.803708 0.065895
0.925207 0.803708 0.065895
0.925207 0.803708 0.065895
0.925207 0.803708 0.065895
0.925209 0.803708 0.065895
0.925209 0.803708 0.065895
0.100313 0.881712 0.043732
0.100313 0.881712 0.043732
0.100313 0.881712 0.043732
0.100313 0.881712 0.043732
0.100313 0.881712 0.043732
0.100313 0.881712 0.043732
0.100313 0.881712 0.043732
0.100313 0.881712 0.043732
0.108281 0.882033 0.043967
0.120185 0.882512 0.044317
0.138663 0.883262 0.044867
0.163437 0.884265 0.045603
0.198245 0.885634 0.046606
0.248157 0.887504 0.048009
0.323189 0.890222 0.050229
0.441218 0.894413 0.053939
0.617715 0.900871 0.060630
0.827670 0.910998 0.072819
0.932525 0.917418 0.081331
0.932525 0.917418 0.081331
0.932525 0.917418 0.081331
0.932525 0.917418 0.081331
0.932525 0.917418 0.081331
0.932525 0.917418 0.081331
0.932525 0.917418 0.081331
0.932525 0.917418 0.081331
0.932525 0.917418 0.081331
0.932524 0.917418 0.081331
0.932524 0.917418 0.081331
0.932524 0.917418 0.081331
0.932526 0.917418 0.081331
0.932526 0.917418 0.081331
0.100313 0.881712 0.043732
0.100313 0.881712 0.043732
0.100313 0.881712 0.043732
0.100313 0.881712 0.043732
0.100313 0.881712 0.043732
0.100313 0.881712 0.043732
0.100313 0.881712 0.043732
0.100313 0.881712 0.043732
0.108281 0.882033 0.043967
0.120185 0.882512 0.044317
0.138663 0.883262 0.044867
0.163437 0.884265 0.045603
0.198245 0.885634 0.046606
0.248157 0.887504 0.048009
0.323189 0.890222 0.050229
0.441218 0.894413 0.053939
0.617715 0.900871 0.060630
0.827670 0.910998 0.072819
0.932525 0.917418 0.081331
0.932525 0.917418 0.081331
0.932525 0.917418 0.081331
0.932525 0.917418 0.081331
0.932525 0.917418 0.081331
0.932525 0.917418 0.081331
0.932525 0.917418 0.081331
0.932525 0.917418 0.081331
0.932525 0.917418 0.081331
0.932524 0.917418 0.081331
0.932524 0.917418 0.081331
0.932524 0.917418 0.081331
0.932526 0.917418 0.081331
0.932526 0.917418 0.081331
0.100313 0.881712 0.043732
0.100313 0.881712 0.043732
0.100313 0.881712 0.043732
0.100313 0.881712 0.043732
0.100313 0.881712 0.043732
0.100313 0.881712 0.043732
0.100313 0.881712 0.043732
0.100313 0.881712 0.043732
0.108281 0.882033 0.043967
0.120185 0.882512 0.044317
0.138663 0.883262 0.044867
0.163437 0.884265 0.045603
0.198245 0.885634 0.046606
0.248157 0.887504 0.048009
0.323189 0.890222 0.050229
0.441218 0.894413 0.053939
0.617715 0.900871 0.060630
0.827670 0.910998 0.072819
0.932525 0.917418 0.081331
0.932525 0.917418 0.081331
0.932525 0.917418 0.081331
0.932525 0.917418 0.081331
0.932525 0.917418 0.081331
0.932525 0.917418 0.081331
0.932525 0.917418 0.081331
0.932525 0.917418 0.081331
0.932525 0.917418 0.081331
0.932524 0.917418 0.081331
0.932524 0.917418 0.081331
0.932524 0.917418 0.081331
0.932526 0.917418 0.081331
0.932526 0.917418 0.081331
0.100313 0.881712 0.043732
0.100313 0.881712 0.043732
0.100313 0.881712 0.043732
0.100313 0.881712 0.043732
0.100313 0.881712 0.043732
0.100313 0.881712 0.043732
0.100313 0.881712 0.043732
0.100313 0.881712 0.043732
0.108281 0.882033 0.043967
0.120185 0.882512 0.044317
0.138663 0.883262 0.044867
0.163437 0.884265 0.045603
0.198245 0.885634 0.046606
0.248157 0.887504 0.048009
0.323189 0.890222 0.050229
0.441218 0.894413 0.053939
0.617715 0.900871 0.060630
0.827670 0.910998 0.072819
0.932525 0.917418 0.081331
0.932525 0.917418 0.081331
0.932525 0.917418 0.081331
0.932525 0.917418 0.081331
0.932525 0.917418 0.081331
0.932525 0.917418 0.081331
0.932525 0.917418 0.081331
0.932525 0.917418 0.081331
0.932525 0.917418 0.081331
0.932524 0.917418 0.081331
0.932524 0.917418 0.081331
0.932524 0.917418 0.081331
0.932526 0.917418 0.081331
0.932526 0.917418 0.081331
0.100313 0.881712 0.043732
0.100313 0.881712 0.043732
0.100313 0.881712 0.043732
0.100313 0.881712 0.043732
0.100313 0.881712 0.043732
0.100313 0.881712 0.043732
0.100313 0.881712 0.043732
0.100313 0.881712 0.043732
0.108281 0.882033 0.043967
0.120185 0.882512 0.044317
0.138663 0.883262 0.044867
0.163437 0.884265 0.045603
0.198245 0.885634 0.046606
0.248157 0.887504 0.048009
0.323189 0.890222 0.050229
0.441218 0.894413 0.053939
0.617715 0.900871 0.060630
0.827670 0.910998 0.072819
0.932525 0.917418 0.081331
0.932525 0.917418 0.081331
0.932525 0.917418 0.081331
0.932525 0.917418 0.081331
0.932525 0.917418 0.081331
0.932525 0.917418 0.081331
0.932525 0.917418 0.081331
0.932525 0.917418 0.081331
0.932525 0.917418 0.081331
0.932524 0.917418 0.081331
0.932524 0.917418 0.081331
0.932524 0.917418 0.081331
0.932526 0.917418 0.081331
0.932526 0.917418 0.081331
0.100313 0.881712 0.043732
0.100313 0.881712 0.043732
0.100313 0.881712 0.043732
0.100313 0.881712 0.043732
0.100313 0.881712 0.043732
0.100313 0.881712 0.043732
0.100313 0.881712 0.043732
0.100313 0.881712 0.043732
0.108281 0.882033 0.043967
0.120185 0.882512 0.044317
0.138663 0.883262 0.044867
0.163437 0.884265 0.045603
0.198245 0.885634 0.046606
0.248157 0.887504 0.048009
0.323189 0.890222 0.050229
0.441218 0.894413 0.053939
0.617715 0.900871 0.060630
0.827670 0.910998 0.072819
0.932525 0.917418 0.081331
0.932525 0.917418 0.081331
0.932525 0.917418 0.081331
0.932525 0.917418 0.081331
0.932525 0.917418 0.081331
0.932525 0.917418 0.081331
0.932525 0.917418 0.081331
0.932525 0.917418 0.081331
0.932525 0.917418 0.081331
0.932524 0.917418 0.081331
0.932524 0.917418 0.081331
0.932524 0.917418 0.081331
0.932526 0.917418 0.081331
0.932526 0.917418 0.081331
0.100313 0.881712 0.043732
0.100313 0.881712 0.043732
0.100313 0.881712 0.043732
0.100313 0.881712 0.043732
0.100313 0.881712 0.043732
0.100313 0.881712 0.043732
0.100313 0.881712 0.043732
0.100313 0.881712 0.043732
0.108281 0.882033 0.043967
0.120185 0.882512 0.044317
0.138663 0.883262 0.044867
0.163437 0.884265 0.045603
0.198245 0.885634 0.046606
0.248157 0.887504 0.048009
0.323189 0.890222 0.050229
0.441218 0.894413 0.053939
0.617715 0.900871 0.060630
0.827670 0.910998 0.072819
0.932525 0.917418 0.081331
0.932525 0.917418 0.081331
0.932525 0.917418 0.081331
0.932525 0.917418 0.081331
0.932525 0.917418 0.081331
0.932525 0.917418 0.081331
0.932525 0.917418 0.081331
0.932525 0.917418 0.081331
0.932525 0.917418 0.081331
0.932524 0.917418 0.081331
0.932524 0.917418 0.081331
0.932524 0.917418 0.081331
0.932526 0.917418 0.081331
0.932526 0.917418 0.081331
0.100313 0.881712 0.043732
0.100313 0.881712 0.043732
0.100313 0.881712 0.043732
0.100313 0.881712 0.043732
0.100313 0.881712 0.043732
0.100313 0.881712 0.043732
0.100313 0.881712 0.043732
0.100313 0.881712 0.043732
0.108281 0.882032 0.043967
0.120185 0.882512 0.044317
0.138663 0.883262 0.044867
0.163437 0.884266 0.045603
0.198245 0.885634 0.046606
0.248157 0.887504 0.048009
0.323189 0.890222 0.050229
0.441218 0.894413 0.053939
0.617715 0.900871 0.060630
0.827670 0.910997 0.072819
0.932525 0.917418 0.081331
0.932525 0.917418 0.081331
0.932525 0.917418 0.081331
0.932525 0.917418 0.081331
0.932525 0.917418 0.081331
0.932525 0.917418 0.081331
0.932525 0.917418 0.081331
0.932525 0.917418 0.081331
0.932525 0.917418 0.081331
0.932524 0.917418 0.081331
0.932524 0.917418 0.081331
0.932524 0.917418 0.081331
0.932526 0.917418 0.081331
0.932526 0.917418 0.081331
0.100313 0.881712 0.043732
0.100313 0.881712 0.043732
0.100313 0.881712 0.043732
0.100313 0.881712 0.043732
0.100313 0.881712 0.043732
0.100313 0.881712 0.043732
0.100313 0.881712 0.043732
0.100313 0.881712 0.043732
0.108281 0.882032 0.043967
0.120185 0.882512 0.044317
0.138663 0.883262 0.044867
0.163437 0.884266 0.045603
0.198245 0.885634 0.046606
0.248157 0.887504 0.048009
0.323189 0.890222 0.050229
0.441218 0.894413 0.053939
0.617715 0.900871 0.060630
0.827670 0.910997 0.072819
0.932525 0.917418 0.081331
0.932525 0.917418 0.081331
0.932525 0.917418 0.081331
0.932525 0.917418 0.081331
0.932525 0.917418 0.081331
0.932525 0.917418 0.081331
0.932525 0.917418 0.081331
0.932525 0.917418 0.081331
0.932525 0.917418 0.081331
0.932524 0.917418 0.081331
0.932524 0.917418 0.081331
0.932524 0.917418 0.081331
0.932526 0.917418 0.081331
0.932526 0.917418 0.081331
0.100313 0.881712 0.043732
0.100313 0.881712 0.043732
0.100313 0.881712 0.043732
0.100313 0.881712 0.043732
0.100313 0.881712 0.043732
0.100313 0.881712 0.043732
0.100313 0.881712 0.043732
0.100313 0.881712 0.043732
0.108281 0.882032 0.043967
0.120185 0.882511 0.044317
0.138663 0.883263 0.044867
0.163437 0.884266 0.045603
0.198245 0.885633 0.046606
0.248157 0.887505 0.048009
0.323189 0.890223 0.050229
0.441218 0.894413 0.053939
0.617715 0.900871 0.060630
0.827670 0.910997 0.072819
