Assets/Art/Materials/LUT/WintryBlue.CUBE
#Created by: Adobe Photoshop Export Color Lookup Plugin
TITLE "Frame.exr"
#LUT size
LUT_3D_SIZE 32
#data domain
DOMAIN_MIN 0.0 0.0 0.0
DOMAIN_MAX 1.0 1.0 1.0
#LUT data points
0.000000 0.000000 0.000000
0.000000 0.000000 0.000000
0.000000 0.000000 0.000000
0.000892 0.000000 0.000000
0.006026 0.000000 0.000000
0.012024 0.000000 0.000000
0.019043 0.000000 0.000000
0.028158 0.000000 0.000000
0.040939 0.000000 0.000000
0.058514 0.000000 0.000000
0.082401 0.000000 0.000000
0.114355 0.000000 0.000000
0.170528 0.000000 0.000000
0.255466 0.000000 0.000000
0.366425 0.000000 0.000000
0.509714 0.000000 0.000000
0.694616 0.000000 0.000000
0.935629 0.000000 0.000000
1.000000 0.000000 0.000000
1.000000 0.000000 0.000000
1.000000 0.000000 0.000000
1.000000 0.000000 0.000000
1.000000 0.000000 0.000000
1.000000 0.000000 0.000000
1.000000 0.000000 0.000000
1.000000 0.000000 0.000000
1.000000 0.000000 0.000000
1.000000 0.000000 0.000000
1.000000 0.000000 0.000000
1.000000 0.000000 0.000000
1.000000 0.000000 0.000000
1.000000 0.000000 0.000000
0.000000 0.000000 0.000000
0.000000 0.000000 0.000000
0.000000 0.000000 0.000000
0.000892 0.000000 0.000000
0.006026 0.000000 0.000000
0.012024 0.000000 0.000000
0.019043 0.000000 0.000000
0.028158 0.000000 0.000000
0.040939 0.000000 0.000000
0.058514 0.000000 0.000000
0.082401 0.000000 0.000000
0.114355 0.000000 0.000000
0.170528 0.000000 0.000000
0.255466 0.000000 0.000000
0.366425 0.000000 0.000000
0.509714 0.000000 0.000000
0.694616 0.000000 0.000000
0.935629 0.000000 0.000000
1.000000 0.000000 0.000000
1.000000 0.000000 0.000000
1.000000 0.000000 0.000000
1.000000 0.000000 0.000000
1.000000 0.000000 0.000000
1.000000 0.000000 0.000000
1.000000 0.000000 0.000000
1.000000 0.000000 0.000000
1.000000 0.000000 0.000000
1.000000 0.000000 0.000000
1.000000 0.000000 0.000000
1.000000 0.000000 0.000000
1.000000 0.000000 0.000000
1.000000 0.000000 0.000000
0.000000 0.000000 0.000000
0.000000 0.000000 0.000000
0.000000 0.000000 0.000000
0.000892 0.000000 0.000000
0.006026 0.000000 0.000000
0.012024 0.000000 0.000000
0.019043 0.000000 0.000000
0.028158 0.000000 0.000000
0.040939 0.000000 0.000000
0.058514 0.000000 0.000000
0.082401 0.000000 0.000000
0.114355 0.000000 0.000000
0.170528 0.000000 0.000000
0.255466 0.000000 0.000000
0.366425 0.000000 0.000000
0.509714 0.000000 0.000000
0.694616 0.000000 0.000000
0.935629 0.000000 0.000000
1.000000 0.000000 0.000000
1.000000 0.000000 0.000000
1.000000 0.000000 0.000000
1.000000 0.000000 0.000000
1.000000 0.000000 0.000000
1.000000 0.000000 0.000000
1.000000 0.000000 0.000000
1.000000 0.000000 0.000000
1.000000 0.000000 0.000000
1.000000 0.000000 0.000000
1.000000 0.000000 0.000000
1.000000 0.000000 0.000000
1.000000 0.000000 0.000000
1.000000 0.000000 0.000000
0.000000 0.001247 0.000000
0.000000 0.001247 0.000000
0.000000 0.001247 0.000000
0.000796 0.001189 0.000000
0.005930 0.001189 0.000000
0.011928 0.001189 0.000000
0.018947 0.001189 0.000000
0.028062 0.001189 0.000000
0.040843 0.001189 0.000000
0.058418 0.001189 0.000000
0.082305 0.001189 0.000000
0.114259 0.001189 0.000000
0.170443 0.001131 0.000000
0.255381 0.001131 0.000000
0.366345 0.001072 0.000000
0.509636 0.001013 0.000000
0.694542 0.000953 0.000000
0.935556 0.000893 0.000000
1.000000 0.000832 0.000000
1.000000 0.000832 0.000000
1.000000 0.000832 0.000000
1.000000 0.000832 0.000000
1.000000 0.000832 0.000000
1.000000 0.000832 0.000000
1.000000 0.000832 0.000000
1.000000 0.000832 0.000000
1.000000 0.000832 0.000000
1.000000 0.000832 0.000000
1.000000 0.000832 0.000000
1.000000 0.000832 0.000000
1.000000 0.000832 0.000000
1.000000 0.000832 0.000000
0.000000 0.008420 0.000000
0.000000 0.008420 0.000000
0.000000 0.008420 0.000000
0.000796 0.008363 0.000000
0.005378 0.008032 0.000000
0.011376 0.008032 0.000000
0.018395 0.008032 0.000000
0.027510 0.008032 0.000000
0.040292 0.008032 0.000000
0.057866 0.008032 0.000000
0.081753 0.008032 0.000000
0.113707 0.008032 0.000000
0.169954 0.007639 0.000000
0.254892 0.007639 0.000000
0.365884 0.007244 0.000000
0.509192 0.006842 0.000000
0.694113 0.006440 0.000000
0.935133 0.006034 0.000000
1.000000 0.005622 0.000000
1.000000 0.005622 0.000000
1.000000 0.005622 0.000000
1.000000 0.005622 0.000000
1.000000 0.005622 0.000000
1.000000 0.005622 0.000000
1.000000 0.005622 0.000000
1.000000 0.005622 0.000000
1.000000 0.005622 0.000000
1.000000 0.005622 0.000000
1.000000 0.005622 0.000000
1.000000 0.005622 0.000000
1.000000 0.005622 0.000000
1.000000 0.005622 0.000000
0.000000 0.016802 0.000000
0.000000 0.016802 0.000000
0.000000 0.016802 0.000000
0.000796 0.016745 0.000000
0.005378 0.016414 0.000000
0.010731 0.016027 0.000000
0.017751 0.016027 0.000000
0.026866 0.016027 0.000000
0.039647 0.016027 0.000000
0.057222 0.016027 0.000000
0.081109 0.016027 0.000000
0.113062 0.016027 0.000000
0.169383 0.015243 0.000000
0.254321 0.015243 0.000000
0.365346 0.014454 0.000000
0.508673 0.013653 0.000000
0.693612 0.012851 0.000000
0.934638 0.012039 0.000000
1.000000 0.011219 0.000000
1.000000 0.011219 0.000000
1.000000 0.011219 0.000000
1.000000 0.011219 0.000000
1.000000 0.011219 0.000000
1.000000 0.011219 0.000000
1.000000 0.011219 0.000000
1.000000 0.011219 0.000000
1.000000 0.011219 0.000000
1.000000 0.011219 0.000000
1.000000 0.011219 0.000000
1.000000 0.011219 0.000000
1.000000 0.011219 0.000000
1.000000 0.011219 0.000000
0.000000 0.026611 0.000000
0.000000 0.026611 0.000000
0.000000 0.026611 0.000000
0.000796 0.026554 0.000000
0.005378 0.026223 0.000000
0.010731 0.025836 0.000000
0.016996 0.025383 0.000000
0.026111 0.025383 0.000000
0.038893 0.025383 0.000000
0.056467 0.025383 0.000000
0.080354 0.025383 0.000000
0.112308 0.025383 0.000000
0.168714 0.024141 0.000000
0.253653 0.024141 0.000000
0.364716 0.022892 0.000000
0.508065 0.021647 0.000000
0.693026 0.020353 0.000000
0.934060 0.019068 0.000000
1.000000 0.017768 0.000000
1.000000 0.017768 0.000000
1.000000 0.017768 0.000000
1.000000 0.017768 0.000000
1.000000 0.017768 0.000000
1.000000 0.017768 0.000000
1.000000 0.017768 0.000000
1.000000 0.017768 0.000000
1.000000 0.017768 0.000000
1.000000 0.017768 0.000000
1.000000 0.017768 0.000000
1.000000 0.017768 0.000000
1.000000 0.017768 0.000000
1.000000 0.017768 0.000000
0.000000 0.039349 0.000000
0.000000 0.039349 0.000000
0.000000 0.039349 0.000000
0.000796 0.039291 0.000000
0.005378 0.038960 0.000000
0.010731 0.038573 0.000000
0.016996 0.038121 0.000000
0.025132 0.037533 0.000000
0.037913 0.037533 0.000000
0.055488 0.037533 0.000000
0.079375 0.037533 0.000000
0.111329 0.037533 0.000000
0.167847 0.035696 0.000000
0.252785 0.035696 0.000000
0.363898 0.033849 0.000000
0.507246 0.032604 0.000000
0.692265 0.030095 0.000000
0.933309 0.028195 0.000000
1.000000 0.026273 0.000000
1.000000 0.026273 0.000000
1.000000 0.026273 0.000000
1.000000 0.026273 0.000000
1.000000 0.026273 0.000000
1.000000 0.026273 0.000000
1.000000 0.026273 0.000000
1.000000 0.026273 0.000000
1.000000 0.026273 0.000000
1.000000 0.026273 0.000000
1.000000 0.026273 0.000000
1.000000 0.026273 0.000000
1.000000 0.026273 0.000000
1.000000 0.026273 0.000000
0.000000 0.057210 0.000000
0.000000 0.057210 0.000000
0.000000 0.057210 0.000000
0.000796 0.057152 0.000000
0.005378 0.056821 0.000000
0.010731 0.056435 0.000000
0.016996 0.055982 0.000000
0.025132 0.055394 0.000000
0.036540 0.054570 0.000000
0.054114 0.054570 0.000000
0.078001 0.054570 0.000000
0.109955 0.054570 0.000000
0.166481 0.052690 0.000000
0.251568 0.051900 0.000000
0.362740 0.049340 0.000000
0.506099 0.047969 0.000000
0.691184 0.044040 0.000000
0.932256 0.040993 0.000000
1.000000 0.038199 0.000000
1.000000 0.038199 0.000000
1.000000 0.038199 0.000000
1.000000 0.038199 0.000000
1.000000 0.038199 0.000000
1.000000 0.038199 0.000000
1.000000 0.038199 0.000000
1.000000 0.038199 0.000000
1.000000 0.038199 0.000000
1.000000 0.038199 0.000000
1.000000 0.038199 0.000000
1.000000 0.038199 0.000000
1.000000 0.038199 0.000000
1.000000 0.038199 0.000000
0.000000 0.081769 0.000000
0.000000 0.081769 0.000000
0.000000 0.081769 0.000000
0.000796 0.081712 0.000000
0.005378 0.081381 0.000000
0.010731 0.080994 0.000000
0.016996 0.080541 0.000000
0.025132 0.079954 0.000000
0.036540 0.079130 0.000000
0.052226 0.077996 0.000000
0.076112 0.077996 0.000000
0.108066 0.077996 0.000000
0.164592 0.076116 0.000000
0.249895 0.074179 0.000000
0.361067 0.071619 0.000000
0.504522 0.069095 0.000000
0.689663 0.063997 0.000000
0.930808 0.058591 0.000000
1.000000 0.054597 0.000000
1.000000 0.054597 0.000000
1.000000 0.054597 0.000000
1.000000 0.054597 0.000000
1.000000 0.054597 0.000000
1.000000 0.054597 0.000000
1.000000 0.054597 0.000000
1.000000 0.054597 0.000000
1.000000 0.054597 0.000000
1.000000 0.054597 0.000000
1.000000 0.054597 0.000000
1.000000 0.054597 0.000000
1.000000 0.054597 0.000000
1.000000 0.054597 0.000000
0.000000 0.115150 0.000000
0.000000 0.115150 0.000000
0.000000 0.115150 0.000000
0.000796 0.115092 0.000000
0.005378 0.114761 0.000000
0.010731 0.114374 0.000000
0.016996 0.113922 0.000000
0.025132 0.113334 0.000000
0.036540 0.112510 0.000000
0.052226 0.111377 0.000000
0.073545 0.109836 0.000000
0.105499 0.109836 0.000000
0.162025 0.107956 0.000000
0.247620 0.104461 0.000000
0.358793 0.101901 0.000000
0.502379 0.097810 0.000000
0.687596 0.091122 0.000000
0.928840 0.082509 0.000000
1.000000 0.076886 0.000000
1.000000 0.076886 0.000000
1.000000 0.076886 0.000000
1.000000 0.076886 0.000000
1.000000 0.076886 0.000000
1.000000 0.076886 0.000000
1.000000 0.076886 0.000000
1.000000 0.076886 0.000000
1.000000 0.076886 0.000000
1.000000 0.076886 0.000000
1.000000 0.076886 0.000000
1.000000 0.076886 0.000000
1.000000 0.076886 0.000000
1.000000 0.076886 0.000000
0.000000 0.159803 0.000000
0.000000 0.159803 0.000000
0.000000 0.159803 0.000000
0.000796 0.159746 0.000000
0.005378 0.159415 0.000000
0.010731 0.159028 0.000000
0.016996 0.158575 0.000000
0.025132 0.157988 0.000000
0.036540 0.157163 0.000000
0.052226 0.156030 0.000000
0.073545 0.154490 0.000000
0.102065 0.152430 0.000000
0.158591 0.150550 0.000000
0.244254 0.146693 0.000000
0.355750 0.142410 0.000000
0.499511 0.136222 0.000000
0.684831 0.127407 0.000000
0.926199 0.115018 0.000000
1.000000 0.106701 0.000000
1.000000 0.106701 0.000000
1.000000 0.106701 0.000000
1.000000 0.106701 0.000000
1.000000 0.106701 0.000000
1.000000 0.106701 0.000000
1.000000 0.106701 0.000000
1.000000 0.106701 0.000000
1.000000 0.106701 0.000000
1.000000 0.106701 0.000000
1.000000 0.106701 0.000000
1.000000 0.106701 0.000000
1.000000 0.106701 0.000000
1.000000 0.106701 0.000000
0.000000 0.227793 0.000000
0.000000 0.227793 0.000000
0.000000 0.227793 0.000000
0.000699 0.227742 0.000000
0.004720 0.227449 0.000000
0.009419 0.227106 0.000000
0.014918 0.226705 0.000000
0.022058 0.226185 0.000000
0.033393 0.225365 0.000000
0.049079 0.224232 0.000000
0.070399 0.222692 0.000000
0.098919 0.220632 0.000000
0.154250 0.218028 0.000000
0.239913 0.214172 0.000000
0.351731 0.209170 0.000000
0.495650 0.202176 0.000000
0.681114 0.192716 0.000000
0.922569 0.179624 0.000000
1.000000 0.169585 0.000000
1.000000 0.169585 0.000000
1.000000 0.169585 0.000000
1.000000 0.169585 0.000000
1.000000 0.169585 0.000000
1.000000 0.169585 0.000000
1.000000 0.169585 0.000000
1.000000 0.169585 0.000000
1.000000 0.169585 0.000000
1.000000 0.169585 0.000000
1.000000 0.169585 0.000000
1.000000 0.169585 0.000000
1.000000 0.169585 0.000000
1.000000 0.169585 0.000000
0.000000 0.324935 0.000000
0.000000 0.324935 0.000000
0.000000 0.324935 0.000000
0.000699 0.324884 0.000000
0.004720 0.324591 0.000000
0.009419 0.324249 0.000000
0.014918 0.323848 0.000000
0.022058 0.323327 0.000000
0.032071 0.322597 0.000000
0.045838 0.321593 0.000000
0.064550 0.320228 0.000000
0.092466 0.318208 0.000000
0.147797 0.315605 0.000000
0.234262 0.312217 0.000000
0.346131 0.307301 0.000000
0.490289 0.300722 0.000000
0.676013 0.291844 0.000000
0.917654 0.279775 0.000000
1.000000 0.270316 0.000000
1.000000 0.270316 0.000000
1.000000 0.270316 0.000000
1.000000 0.270316 0.000000
1.000000 0.270316 0.000000
1.000000 0.270316 0.000000
1.000000 0.270316 0.000000
1.000000 0.270316 0.000000
1.000000 0.270316 0.000000
1.000000 0.270316 0.000000
1.000000 0.270316 0.000000
1.000000 0.270316 0.000000
1.000000 0.270316 0.000000
1.000000 0.270316 0.000000
0.000000 0.451444 0.000000
0.000000 0.451444 0.000000
0.000000 0.451444 0.000000
0.000600 0.451396 0.000000
0.004051 0.451120 0.000000
0.008084 0.450798 0.000000
0.012803 0.450421 0.000000
0.018931 0.449931 0.000000
0.027738 0.449237 0.000000
0.041505 0.448234 0.000000
0.060217 0.446869 0.000000
0.085249 0.445043 0.000000
0.139398 0.442657 0.000000
0.226015 0.439307 0.000000
0.338670 0.434843 0.000000
0.483091 0.428687 0.000000
0.669141 0.420392 0.000000
0.911026 0.409007 0.000000
1.000000 0.400325 0.000000
1.000000 0.400325 0.000000
1.000000 0.400325 0.000000
1.000000 0.400325 0.000000
1.000000 0.400325 0.000000
1.000000 0.400325 0.000000
1.000000 0.400325 0.000000
1.000000 0.400325 0.000000
1.000000 0.400325 0.000000
1.000000 0.400325 0.000000
1.000000 0.400325 0.000000
1.000000 0.400325 0.000000
1.000000 0.400325 0.000000
1.000000 0.400325 0.000000
0.000000 0.614091 0.000000
0.000000 0.614091 0.000000
0.000000 0.614091 0.000000
0.000498 0.614045 0.000000
0.003366 0.613779 0.000000
0.006717 0.613468 0.000000
0.010677 0.613104 0.000000
0.016805 0.612614 0.000000
0.025398 0.611927 0.000000
0.037214 0.610982 0.000000
0.053273 0.609699 0.000000
0.074757 0.607982 0.000000
0.127580 0.605681 0.000000
0.214926 0.602516 0.000000
0.328315 0.598256 0.000000
0.473332 0.592432 0.000000
0.659720 0.584531 0.000000
0.902074 0.573790 0.000000
1.000000 0.565587 0.000000
1.000000 0.565587 0.000000
1.000000 0.565587 0.000000
1.000000 0.565587 0.000000
1.000000 0.565587 0.000000
1.000000 0.565587 0.000000
1.000000 0.565587 0.000000
1.000000 0.565587 0.000000
1.000000 0.565586 0.000000
1.000000 0.565587 0.000000
1.000000 0.565586 0.000000
1.000000 0.565587 0.000000
1.000000 0.565586 0.000000
1.000000 0.565587 0.000000
0.000000 0.822833 0.000000
0.000000 0.822833 0.000000
0.000000 0.822833 0.000000
0.000394 0.822789 0.000000
0.002662 0.822532 0.000000
0.005311 0.822233 0.000000
0.008412 0.821882 0.000000
0.012438 0.821426 0.000000
0.018581 0.820780 0.000000
0.028399 0.819869 0.000000
0.041743 0.818630 0.000000
0.059594 0.816973 0.000000
0.111468 0.814763 0.000000
0.199958 0.811721 0.000000
0.314404 0.807634 0.000000
0.460062 0.802079 0.000000
0.647079 0.794566 0.000000
0.889884 0.784336 0.000000
1.000000 0.776547 0.000000
1.000000 0.776547 0.000000
1.000000 0.776547 0.000000
1.000000 0.776547 0.000000
1.000000 0.776547 0.000000
1.000000 0.776547 0.000000
1.000000 0.776547 0.000000
1.000000 0.776547 0.000000
1.000000 0.776547 0.000000
1.000000 0.776547 0.000000
1.000000 0.776547 0.000000
1.000000 0.776547 0.000000
1.000000 0.776547 0.000000
1.000000 0.776547 0.000000
0.000000 1.000000 0.000000
0.000000 1.000000 0.000000
0.000000 1.000000 0.000000
0.000286 1.000000 0.000000
0.001934 1.000000 0.000000
0.003858 1.000000 0.000000
0.006111 1.000000 0.000000
0.009036 1.000000 0.000000
0.013137 1.000000 0.000000
0.018776 1.000000 0.000000
0.026442 1.000000 0.000000
0.037613 1.000000 0.000000
0.088425 1.000000 0.000000
0.179270 1.000000 0.000000
0.295220 1.000000 0.000000
0.441974 1.000000 0.000000
0.629754 1.000000 0.000000
0.873403 1.000000 0.000000
1.000000 1.000000 0.000000
1.000000 1.000000 0.000000
1.000000 1.000000 0.000000
1.000000 1.000000 0.000000
1.000000 1.000000 0.000000
1.000000 1.000000 0.000000
1.000000 1.000000 0.000000
1.000000 1.000000 0.000000
1.000000 1.000000 0.000000
1.000000 1.000000 0.000000
1.000000 1.000000 0.000000
1.000000 1.000000 0.000000
1.000000 1.000000 0.000000
1.000000 1.000000 0.000000
0.000000 1.000000 0.000000
0.000000 1.000000 0.000000
0.000000 1.000000 0.000000
0.000172 1.000000 0.000000
0.001164 1.000000 0.000000
0.002324 1.000000 0.000000
0.003680 1.000000 0.000000
0.005441 1.000000 0.000000
0.007912 1.000000 0.000000
0.011308 1.000000 0.000000
0.015924 1.000000 0.000000
0.022099 1.000000 0.000000
0.070074 1.000000 0.000000
0.162624 1.000000 0.000000
0.280542 1.000000 0.000000
0.428139 1.000000 0.000000
0.616593 1.000000 0.000000
0.860702 1.000000 0.000000
1.000000 1.000000 0.000000
1.000000 1.000000 0.000000
1.000000 1.000000 0.000000
1.000000 1.000000 0.000000
1.000000 1.000000 0.000000
1.000000 1.000000 0.000000
1.000000 1.000000 0.000000
1.000000 1.000000 0.000000
1.000000 1.000000 0.000000
1.000000 1.000000 0.000000
1.000000 1.000000 0.000000
1.000000 1.000000 0.000000
1.000000 1.000000 0.000000
1.000000 1.000000 0.000000
0.000000 1.000000 0.000000
0.000000 1.000000 0.000000
0.000000 1.000000 0.000000
0.000172 1.000000 0.000000
0.001164 1.000000 0.000000
0.002324 1.000000 0.000000
0.003680 1.000000 0.000000
0.005441 1.000000 0.000000
0.007912 1.000000 0.000000
0.011308 1.000000 0.000000
0.015924 1.000000 0.000000
0.022099 1.000000 0.000000
0.070074 1.000000 0.000000
0.162624 1.000000 0.000000
0.280542 1.000000 0.000000
0.428139 1.000000 0.000000
0.616593 1.000000 0.000000
0.860702 1.000000 0.000000
1.000000 1.000000 0.000000
1.000000 1.000000 0.000000
1.000000 1.000000 0.000000
1.000000 1.000000 0.000000
1.000000 1.000000 0.000000
1.000000 1.000000 0.000000
1.000000 1.000000 0.000000
1.000000 1.000000 0.000000
1.000000 1.000000 0.000000
1.000000 1.000000 0.000000
1.000000 1.000000 0.000000
1.000000 1.000000 0.000000
1.000000 1.000000 0.000000
1.000000 1.000000 0.000000
0.000000 1.000000 0.000000
0.000000 1.000000 0.000000
0.000000 1.000000 0.000000
0.000172 1.000000 0.000000
0.001164 1.000000 0.000000
0.002324 1.000000 0.000000
0.003680 1.000000 0.000000
0.005441 1.000000 0.000000
0.007912 1.000000 0.000000
0.011308 1.000000 0.000000
0.015924 1.000000 0.000000
0.022099 1.000000 0.000000
0.070074 1.000000 0.000000
0.162624 1.000000 0.000000
0.280542 1.000000 0.000000
0.428139 1.000000 0.000000
0.616593 1.000000 0.000000
0.860702 1.000000 0.000000
1.000000 1.000000 0.000000
1.000000 1.000000 0.000000
1.000000 1.000000 0.000000
1.000000 1.000000 0.000000
1.000000 1.000000 0.000000
1.000000 1.000000 0.000000
1.000000 1.000000 0.000000
1.000000 1.000000 0.000000
1.000000 1.000000 0.000000
1.000000 1.000000 0.000000
1.000000 1.000000 0.000000
1.000000 1.000000 0.000000
1.000000 1.000000 0.000000
1.000000 1.000000 0.000000
0.000000 1.000000 0.000000
0.000000 1.000000 0.000000
0.000000 1.000000 0.000000
0.000172 1.000000 0.000000
0.001164 1.000000 0.000000
0.002324 1.000000 0.000000
0.003680 1.000000 0.000000
0.005441 1.000000 0.000000
0.007912 1.000000 0.000000
0.011308 1.000000 0.000000
0.015924 1.000000 0.000000
0.022099 1.000000 0.000000
0.070074 1.000000 0.000000
0.162624 1.000000 0.000000
0.280542 1.000000 0.000000
0.428139 1.000000 0.000000
0.616593 1.000000 0.000000
0.860702 1.000000 0.000000
1.000000 1.000000 0.000000
1.000000 1.000000 0.000000
1.000000 1.000000 0.000000
1.000000 1.000000 0.000000
1.000000 1.000000 0.000000
1.000000 1.000000 0.000000
1.000000 1.000000 0.000000
1.000000 1.000000 0.000000
1.000000 1.000000 0.000000
1.000000 1.000000 0.000000
1.000000 1.000000 0.000000
1.000000 1.000000 0.000000
1.000000 1.000000 0.000000
1.000000 1.000000 0.000000
0.000000 1.000000 0.000000
0.000000 1.000000 0.000000
0.000000 1.000000 0.000000
0.000172 1.000000 0.000000
0.001164 1.000000 0.000000
0.002324 1.000000 0.000000
0.003680 1.000000 0.000000
0.005441 1.000000 0.000000
0.007912 1.000000 0.000000
0.011308 1.000000 0.000000
0.015924 1.000000 0.000000
0.022099 1.000000 0.000000
0.070074 1.000000 0.000000
0.162624 1.000000 0.000000
0.280542 1.000000 0.000000
0.428139 1.000000 0.000000
0.616593 1.000000 0.000000
0.860702 1.000000 0.000000
1.000000 1.000000 0.000000
1.000000 1.000000 0.000000
1.000000 1.000000 0.000000
1.000000 1.000000 0.000000
1.000000 1.000000 0.000000
1.000000 1.000000 0.000000
1.000000 1.000000 0.000000
1.000000 1.000000 0.000000
1.000000 1.000000 0.000000
1.000000 1.000000 0.000000
1.000000 1.000000 0.000000
1.000000 1.000000 0.000000
1.000000 1.000000 0.000000
1.000000 1.000000 0.000000
0.000000 1.000000 0.000000
0.000000 1.000000 0.000000
0.000000 1.000000 0.000000
0.000172 1.000000 0.000000
0.001164 1.000000 0.000000
0.002324 1.000000 0.000000
0.003680 1.000000 0.000000
0.005441 1.000000 0.000000
0.007912 1.000000 0.000000
0.011308 1.000000 0.000000
0.015924 1.000000 0.000000
0.022099 1.000000 0.000000
0.070074 1.000000 0.000000
0.162624 1.000000 0.000000
0.280542 1.000000 0.000000
0.428139 1.000000 0.000000
0.616593 1.000000 0.000000
0.860702 1.000000 0.000000
1.000000 1.000000 0.000000
1.000000 1.000000 0.000000
1.000000 1.000000 0.000000
1.000000 1.000000 0.000000
1.000000 1.000000 0.000000
1.000000 1.000000 0.000000
1.000000 1.000000 0.000000
1.000000 1.000000 0.000000
1.000000 1.000000 0.000000
1.000000 1.000000 0.000000
1.000000 1.000000 0.000000
1.000000 1.000000 0.000000
1.000000 1.000000 0.000000
1.000000 1.000000 0.000000
0.000000 1.000000 0.000000
0.000000 1.000000 0.000000
0.000000 1.000000 0.000000
0.000172 1.000000 0.000000
0.001164 1.000000 0.000000
0.002324 1.000000 0.000000
0.003680 1.000000 0.000000
0.005441 1.000000 0.000000
0.007912 1.000000 0.000000
0.011308 1.000000 0.000000
0.015924 1.000000 0.000000
0.022099 1.000000 0.000000
0.070074 1.000000 0.000000
0.162624 1.000000 0.000000
0.280542 1.000000 0.000000
0.428139 1.000000 0.000000
0.616593 1.000000 0.000000
0.860702 1.000000 0.000000
1.000000 1.000000 0.000000
1.000000 1.000000 0.000000
1.000000 1.000000 0.000000
1.000000 1.000000 0.000000
1.000000 1.000000 0.000000
1.000000 1.000000 0.000000
1.000000 1.000000 0.000000
1.000000 1.000000 0.000000
1.000000 1.000000 0.000000
1.000000 1.000000 0.000000
1.000000 1.000000 0.000000
1.000000 1.000000 0.000000
1.000000 1.000000 0.000000
1.000000 1.000000 0.000000
0.000000 1.000000 0.000000
0.000000 1.000000 0.000000
0.000000 1.000000 0.000000
0.000172 1.000000 0.000000
0.001164 1.000000 0.000000
0.002324 1.000000 0.000000
0.003680 1.000000 0.000000
0.005441 1.000000 0.000000
0.007912 1.000000 0.000000
0.011308 1.000000 0.000000
0.015924 1.000000 0.000000
0.022099 1.000000 0.000000
0.070074 1.000000 0.000000
0.162624 1.000000 0.000000
0.280542 1.000000 0.000000
0.428139 1.000000 0.000000
0.616593 1.000000 0.000000
0.860702 1.000000 0.000000
1.000000 1.000000 0.000000
1.000000 1.000000 0.000000
1.000000 1.000000 0.000000
1.000000 1.000000 0.000000
1.000000 1.000000 0.000000
1.000000 1.000000 0.000000
1.000000 1.000000 0.000000
1.000000 1.000000 0.000000
1.000000 1.000000 0.000000
1.000000 1.000000 0.000000
1.000000 1.000000 0.000000
1.000000 1.000000 0.000000
1.000000 1.000000 0.000000
1.000000 1.000000 0.000000
0.000000 1.000000 0.000000
0.000000 1.000000 0.000000
0.000000 1.000000 0.000000
0.000172 1.000000 0.000000
0.001164 1.000000 0.000000
0.002324 1.000000 0.000000
0.003680 1.000000 0.000000
0.005441 1.000000 0.000000
0.007912 1.000000 0.000000
0.011308 1.000000 0.000000
0.015924 1.000000 0.000000
0.022099 1.000000 0.000000
0.070074 1.000000 0.000000
0.162624 1.000000 0.000000
0.280542 1.000000 0.000000
0.428139 1.000000 0.000000
0.616593 1.000000 0.000000
0.860702 1.000000 0.000000
1.000000 1.000000 0.000000
1.000000 1.000000 0.000000
1.000000 1.000000 0.000000
1.000000 1.000000 0.000000
1.000000 1.000000 0.000000
1.000000 1.000000 0.000000
1.000000 1.000000 0.000000
1.000000 1.000000 0.000000
1.000000 1.000000 0.000000
1.000000 1.000000 0.000000
1.000000 1.000000 0.000000
1.000000 1.000000 0.000000
1.000000 1.000000 0.000000
1.000000 1.000000 0.000000
0.000000 1.000000 0.000000
0.000000 1.000000 0.000000
0.000000 1.000000 0.000000
0.000172 1.000000 0.000000
0.001164 1.000000 0.000000
0.002324 1.000000 0.000000
0.003680 1.000000 0.000000
0.005441 1.000000 0.000000
0.007912 1.000000 0.000000
0.011308 1.000000 0.000000
0.015924 1.000000 0.000000
0.022099 1.000000 0.000000
0.070074 1.000000 0.000000
0.162624 1.000000 0.000000
0.280542 1.000000 0.000000
0.428139 1.000000 0.000000
0.616593 1.000000 0.000000
0.860702 1.000000 0.000000
