Assets/Art/Materials/LUT/WintryBlueDarker.CUBE.CUBE
#Created by: Adobe Photoshop Export Color Lookup Plugin
TITLE "Frame.exr"
#LUT size
LUT_3D_SIZE 8
#data domain
#LUT data points
DOMAIN_MIN 0.000000 0.000000 0.000000
DOMAIN_MAX 0.903226 0.903226 0.903226
0.000000 0.000000 0.000000
0.000910 0.000000 0.000000
0.012555 0.000000 0.000000
0.088647 0.000000 0.000000
0.607033 0.000000 0.000000
1.000000 0.000000 0.000000
1.000000 0.000000 0.000000
1.000000 0.000000 0.000000
0.000000 0.001439 0.000000
0.000779 0.001349 0.000000
0.012284 0.001349 0.000000
0.088239 0.001259 0.000000
0.606431 0.000997 0.000000
1.000000 0.000827 0.000000
1.000000 0.000827 0.000000
1.000000 0.000827 0.000000
0.000000 0.019857 0.000000
0.000779 0.019672 0.000000
0.010744 0.018612 0.000000
0.085778 0.017740 0.000000
0.602928 0.013876 0.000000
1.000000 0.011418 0.000000
1.000000 0.011418 0.000000
1.000000 0.011418 0.000000
0.000000 0.131801 0.000000
0.000651 0.131528 0.000000
0.009498 0.129881 0.000000
0.077265 0.124123 0.000000
0.590927 0.104818 0.000000
1.000000 0.087977 0.000000
1.000000 0.087977 0.000000
1.000000 0.087977 0.000000
0.000000 0.765577 0.000000
0.000297 0.765193 0.000000
0.004255 0.762961 0.000000
0.049514 0.755309 0.000000
0.550855 0.729779 0.000000
1.000000 0.707205 0.000000
1.000000 0.707205 0.000000
1.000000 0.707205 0.000000
0.000000 1.000000 0.000000
0.000096 1.000000 0.000000
0.001321 1.000000 0.000000
0.026216 1.000000 0.000000
0.515616 1.000000 0.000000
1.000000 1.000000 0.000000
1.000000 1.000000 0.000000
1.000000 1.000000 0.000000
0.000000 1.000000 0.000000
0.000096 1.000000 0.000000
0.001321 1.000000 0.000000
0.026216 1.000000 0.000000
0.515616 1.000000 0.000000
1.000000 1.000000 0.000000
1.000000 1.000000 0.000000
1.000000 1.000000 0.000000
0.000000 1.000000 0.000000
0.000096 1.000000 0.000000
0.001321 1.000000 0.000000
0.026216 1.000000 0.000000
0.515616 1.000000 0.000000
1.000000 1.000000 0.000000
1.000000 1.000000 0.000000
1.000000 1.000000 0.000000
0.000000 0.000000 0.002609
0.000884 0.000000 0.002491
0.012503 0.000000 0.002491
0.088568 0.000000 0.002374
0.606916 0.000000 0.002026
1.000000 0.000000 0.001799
1.000000 0.000000 0.001799
1.000000 0.000000 0.001799
0.000000 0.001404 0.002378
0.000753 0.001314 0.002261
0.012231 0.001314 0.002261
0.088160 0.001225 0.002145
0.606306 0.000964 0.001803
1.000000 0.000796 0.001580
1.000000 0.000796 0.001580
1.000000 0.000796 0.001580
0.000000 0.019786 0.002378
0.000753 0.019601 0.002261
0.010693 0.018542 0.002261
0.085700 0.017670 0.002145
0.602803 0.013809 0.001803
1.000000 0.011354 0.001580
1.000000 0.011354 0.001580
1.000000 0.011354 0.001580
0.000000 0.131698 0.002150
0.000627 0.131425 0.002035
0.009447 0.129777 0.002035
0.077187 0.124019 0.001920
0.590811 0.104720 0.001584
1.000000 0.087881 0.001365
1.000000 0.087881 0.001365
1.000000 0.087881 0.001365
0.000000 0.765431 0.001486
0.000276 0.765045 0.001377
0.004211 0.762813 0.001377
0.049445 0.755168 0.001270
0.550737 0.729642 0.000955
1.000000 0.707061 0.000752
1.000000 0.707061 0.000752
1.000000 0.707062 0.000752
0.000000 1.000000 0.001066
0.000079 1.000000 0.000962
0.001286 1.000000 0.000962
0.026157 1.000000 0.000860
0.515500 1.000000 0.000565
1.000000 1.000000 0.000379
1.000000 1.000000 0.000379
1.000000 1.000000 0.000379
0.000000 1.000000 0.001066
0.000079 1.000000 0.000962
0.001286 1.000000 0.000962
0.026157 1.000000 0.000860
0.515500 1.000000 0.000565
1.000000 1.000000 0.000379
1.000000 1.000000 0.000379
1.000000 1.000000 0.000379
0.000000 1.000000 0.001066
0.000079 1.000000 0.000962
0.001286 1.000000 0.000962
0.026157 1.000000 0.000860
0.515500 1.000000 0.000565
1.000000 1.000000 0.000379
1.000000 1.000000 0.000379
1.000000 1.000000 0.000379
0.000000 0.000000 0.036010
0.000884 0.000000 0.035768
0.012200 0.000000 0.034374
0.088093 0.000000 0.033235
0.606235 0.000000 0.028125
1.000000 0.000000 0.024831
1.000000 0.000000 0.024831
1.000000 0.000000 0.024831
0.000000 0.001404 0.035535
0.000753 0.001314 0.035291
0.011930 0.001314 0.033902
0.087685 0.001225 0.032763
0.605625 0.000964 0.027666
1.000000 0.000796 0.024380
1.000000 0.000796 0.024380
1.000000 0.000796 0.024380
0.000000 0.019381 0.032818
0.000753 0.019197 0.032578
0.010398 0.018138 0.031202
0.085226 0.017269 0.030075
0.602082 0.013425 0.025047
1.000000 0.010981 0.021808
1.000000 0.010981 0.021808
1.000000 0.010981 0.021808
0.000000 0.131075 0.030590
0.000627 0.130802 0.030353
0.009158 0.129150 0.028994
0.076717 0.123392 0.027872
0.590124 0.104118 0.022905
1.000000 0.087296 0.019709
1.000000 0.087296 0.019709
1.000000 0.087296 0.019709
0.000000 0.764579 0.020818
0.000276 0.764194 0.020594
0.003963 0.761957 0.019313
0.049016 0.754335 0.018259
0.550051 0.728839 0.013606
1.000000 0.706227 0.010659
1.000000 0.706227 0.010659
1.000000 0.706227 0.010659
0.000000 1.000000 0.014709
0.000079 1.000000 0.014496
0.001085 1.000000 0.013277
0.025773 1.000000 0.012282
0.514828 1.000000 0.007930
1.000000 1.000000 0.005231
1.000000 1.000000 0.005231
1.000000 1.000000 0.005231
0.000000 1.000000 0.014709
0.000079 1.000000 0.014496
0.001085 1.000000 0.013277
0.025773 1.000000 0.012282
0.514828 1.000000 0.007930
1.000000 1.000000 0.005231
1.000000 1.000000 0.005231
1.000000 1.000000 0.005231
0.000000 1.000000 0.014709
0.000079 1.000000 0.014496
0.001085 1.000000 0.013277
0.025773 1.000000 0.012282
0.514828 1.000000 0.007930
1.000000 1.000000 0.005231
1.000000 1.000000 0.005231
1.000000 1.000000 0.005231
0.000000 0.000000 0.223291
0.000858 0.000000 0.222935
0.011949 0.000000 0.220794
0.086419 0.000000 0.213359
0.603893 0.000000 0.188461
1.000000 0.000000 0.166548
1.000000 0.000000 0.166548
1.000000 0.000000 0.166548
0.000000 0.001370 0.222596
0.000729 0.001280 0.222240
0.011680 0.001280 0.220100
0.086013 0.001191 0.212671
0.603286 0.000931 0.187787
1.000000 0.000764 0.165893
1.000000 0.000764 0.165893
1.000000 0.000764 0.165893
0.000000 0.019046 0.218417
0.000729 0.018862 0.218062
0.010156 0.017806 0.215920
0.083563 0.016939 0.208525
0.599757 0.013108 0.183709
1.000000 0.010674 0.161910
1.000000 0.010674 0.161910
1.000000 0.010674 0.161910
0.000000 0.128871 0.203912
0.000603 0.128599 0.203561
0.008920 0.126954 0.201446
0.075078 0.121203 0.194108
0.587799 0.101978 0.169550
1.000000 0.085209 0.147961
1.000000 0.085209 0.147961
1.000000 0.085209 0.147961
0.000000 0.761630 0.155691
0.000255 0.761245 0.155361
0.003757 0.759010 0.153348
0.047492 0.751438 0.146304
0.547750 0.725982 0.122615
1.000000 0.703367 0.101862
1.000000 0.703367 0.101862
1.000000 0.703367 0.101862
0.000000 1.000000 0.114047
0.000062 1.000000 0.113741
0.000924 1.000000 0.111840
0.024339 1.000000 0.105015
0.512588 1.000000 0.082227
1.000000 1.000000 0.062175
1.000000 1.000000 0.062175
1.000000 1.000000 0.062175
0.000000 1.000000 0.114047
0.000062 1.000000 0.113741
0.000924 1.000000 0.111840
0.024339 1.000000 0.105015
0.512588 1.000000 0.082228
1.000000 1.000000 0.062175
1.000000 1.000000 0.062175
1.000000 1.000000 0.062175
0.000000 1.000000 0.114047
0.000062 1.000000 0.113741
0.000924 1.000000 0.111840
0.024339 1.000000 0.105015
0.512588 1.000000 0.082227
1.000000 1.000000 0.062175
1.000000 1.000000 0.062175
1.000000 1.000000 0.062175
0.000000 0.000000 1.000000
0.000782 0.000000 1.000000
0.010833 0.000000 1.000000
0.080784 0.000000 1.000000
0.596064 0.000000 1.000000
1.000000 0.000000 0.984292
1.000000 0.000000 0.984292
1.000000 0.000000 0.984292
0.000000 0.001267 1.000000
0.000655 0.001179 1.000000
0.010569 0.001179 1.000000
0.080381 0.001091 1.000000
0.595454 0.000835 1.000000
1.000000 0.000671 0.983385
1.000000 0.000671 0.983385
1.000000 0.000671 0.983385
0.000000 0.017538 1.000000
0.000655 0.017357 1.000000
0.009071 0.016319 1.000000
0.077955 0.015462 1.000000
0.591912 0.011690 1.000000
1.000000 0.009301 0.978117
1.000000 0.009301 0.978117
1.000000 0.009301 0.978117
0.000000 0.121421 1.000000
0.000532 0.121152 1.000000
0.007863 0.119522 1.000000
0.069582 0.113840 1.000000
0.579957 0.094777 0.987748
1.000000 0.078161 0.960153
1.000000 0.078161 0.960153
1.000000 0.078161 0.960153
0.000000 0.751914 0.970270
0.000195 0.751529 0.969810
0.002857 0.749295 0.967131
0.042346 0.741736 0.957896
0.540023 0.716258 0.927179
1.000000 0.693742 0.899864
1.000000 0.693742 0.899864
1.000000 0.693742 0.899864
0.000000 1.000000 0.916377
0.000018 1.000000 0.915922
0.000264 1.000000 0.913278
0.019426 1.000000 0.904192
0.504921 1.000000 0.873731
1.000000 1.000000 0.846623
1.000000 1.000000 0.846623
1.000000 1.000000 0.846623
0.000000 1.000000 0.916377
0.000018 1.000000 0.915922
0.000264 1.000000 0.913278
0.019426 1.000000 0.904192
0.504921 1.000000 0.873731
1.000000 1.000000 0.846623
1.000000 1.000000 0.846623
1.000000 1.000000 0.846623
0.000000 1.000000 0.916377
0.000018 1.000000 0.915923
0.000264 1.000000 0.913278
0.019426 1.000000 0.904192
0.504921 1.000000 0.873731
1.000000 1.000000 0.846623
1.000000 1.000000 0.846623
1.000000 1.000000 0.846623
0.000000 0.000000 1.000000
0.000732 0.000000 1.000000
0.010106 0.000000 1.000000
0.075798 0.000000 1.000000
0.589062 0.000000 1.000000
1.000000 0.000000 1.000000
1.000000 0.000000 1.000000
1.000000 0.000000 1.000000
0.000000 0.001200 1.000000
0.000606 0.001112 1.000000
0.009845 0.001112 1.000000
0.075404 0.001025 1.000000
0.588463 0.000772 1.000000
1.000000 0.000610 1.000000
1.000000 0.000610 1.000000
1.000000 0.000610 1.000000
0.000000 0.016557 1.000000
0.000606 0.016376 1.000000
0.008370 0.015342 1.000000
0.073016 0.014496 1.000000
0.584981 0.010769 1.000000
1.000000 0.008413 1.000000
1.000000 0.008413 1.000000
1.000000 0.008413 1.000000
0.000000 0.114830 1.000000
0.000485 0.114564 1.000000
0.007179 0.112952 1.000000
0.064731 0.107286 1.000000
0.573046 0.088405 1.000000
1.000000 0.071915 1.000000
1.000000 0.071915 1.000000
1.000000 0.071915 1.000000
0.000000 0.743140 1.000000
0.000156 0.742761 1.000000
0.002290 0.740556 1.000000
0.037821 0.733008 1.000000
0.533181 0.707603 1.000000
1.000000 0.685244 1.000000
1.000000 0.685244 1.000000
1.000000 0.685244 1.000000
0.000000 1.000000 1.000000
0.000000 1.000000 1.000000
0.000000 1.000000 1.000000
0.015079 1.000000 1.000000
0.498156 1.000000 1.000000
1.000000 1.000000 1.000000
1.000000 1.000000 1.000000
1.000000 1.000000 1.000000
0.000000 1.000000 1.000000
0.000000 1.000000 1.000000
0.000000 1.000000 1.000000
0.015079 1.000000 1.000000
0.498156 1.000000 1.000000
1.000000 1.000000 1.000000
1.000000 1.000000 1.000000
1.000000 1.000000 1.000000
0.000000 1.000000 1.000000
0.000000 1.000000 1.000000
0.000000 1.000000 1.000000
0.015079 1.000000 1.000000
0.498156 1.000000 1.000000
1.000000 1.000000 1.000000
1.000000 1.000000 1.000000
1.000000 1.000000 1.000000
0.000000 0.000000 1.000000
0.000732 0.000000 1.000000
0.010106 0.000000 1.000000
0.075798 0.000000 1.000000
0.589062 0.000000 1.000000
1.000000 0.000000 1.000000
1.000000 0.000000 1.000000
1.000000 0.000000 1.000000
0.000000 0.001200 1.000000
0.000606 0.001112 1.000000
0.009845 0.001112 1.000000
0.075404 0.001025 1.000000
0.588463 0.000772 1.000000
1.000000 0.000610 1.000000
1.000000 0.000610 1.000000
1.000000 0.000610 1.000000
0.000000 0.016557 1.000000
0.000606 0.016376 1.000000
0.008370 0.015342 1.000000
0.073016 0.014496 1.000000
0.584981 0.010769 1.000000
1.000000 0.008413 1.000000
1.000000 0.008413 1.000000
1.000000 0.008413 1.000000
0.000000 0.114830 1.000000
0.000485 0.114564 1.000000
0.007179 0.112952 1.000000
0.064731 0.107286 1.000000
0.573046 0.088405 1.000000
1.000000 0.071915 1.000000
1.000000 0.071915 1.000000
1.000000 0.071915 1.000000
0.000000 0.743140 1.000000
0.000156 0.742761 1.000000
0.002290 0.740556 1.000000
0.037821 0.733008 1.000000
0.533181 0.707603 1.000000
1.000000 0.685244 1.000000
1.000000 0.685244 1.000000
1.000000 0.685244 1.000000
0.000000 1.000000 1.000000
0.000000 1.000000 1.000000
0.000000 1.000000 1.000000
0.015079 1.000000 1.000000
0.498156 1.000000 1.000000
1.000000 1.000000 1.000000
1.000000 1.000000 1.000000
1.000000 1.000000 1.000000
0.000000 1.000000 1.000000
0.000000 1.000000 1.000000
0.000000 1.000000 1.000000
0.015079 1.000000 1.000000
0.498156 1.000000 1.000000
1.000000 1.000000 1.000000
1.000000 1.000000 1.000000
1.000000 1.000000 1.000000
0.000000 1.000000 1.000000
0.000000 1.000000 1.000000
0.000000 1.000000 1.000000
0.015079 1.000000 1.000000
0.498156 1.000000 1.000000
1.000000 1.000000 1.000000
1.000000 1.000000 1.000000
1.000000 1.000000 1.000000
0.000000 0.000000 1.000000
0.000732 0.000000 1.000000
0.010106 0.000000 1.000000
0.075798 0.000000 1.000000
0.589062 0.000000 1.000000
1.000000 0.000000 1.000000
1.000000 0.000000 1.000000
1.000000 0.000000 1.000000
0.000000 0.001200 1.000000
0.000606 0.001112 1.000000
0.009845 0.001112 1.000000
0.075404 0.001025 1.000000
0.588463 0.000772 1.000000
1.000000 0.000610 1.000000
1.000000 0.000610 1.000000
1.000000 0.000610 1.000000
0.000000 0.016557 1.000000
0.000606 0.016376 1.000000
0.008370 0.015342 1.000000
0.073016 0.014496 1.000000
0.584981 0.010769 1.000000
1.000000 0.008413 1.000000
1.000000 0.008413 1.000000
1.000000 0.008413 1.000000
0.000000 0.114830 1.000000
0.000485 0.114564 1.000000
0.007179 0.112952 1.000000
0.064731 0.107286 1.000000
0.573046 0.088405 1.000000
1.000000 0.071915 1.000000
1.000000 0.071915 1.000000
1.000000 0.071915 1.000000
0.000000 0.743140 1.000000
0.000156 0.742761 1.000000
0.002290 0.740556 1.000000
0.037821 0.733008 1.000000
0.533181 0.707603 1.000000
1.000000 0.685244 1.000000
1.000000 0.685244 1.000000
1.000000 0.685244 1.000000
0.000000 1.000000 1.000000
0.000000 1.000000 1.000000
0.000000 1.000000 1.000000
0.015079 1.000000 1.000000
0.498156 1.000000 1.000000
1.000000 1.000000 1.000000
1.000000 1.000000 1.000000
1.000000 1.000000 1.000000
0.000000 1.000000 1.000000
0.000000 1.000000 1.000000
0.000000 1.000000 1.000000
0.015079 1.000000 1.000000
0.498156 1.000000 1.000000
1.000000 1.000000 1.000000
1.000000 1.000000 1.000000
1.000000 1.000000 1.000000
0.000000 1.000000 1.000000
0.000000 1.000000 1.000000
0.000000 1.000000 1.000000
0.015079 1.000000 1.000000
0.498156 1.000000 1.000000
1.000000 1.000000 1.000000
1.000000 1.000000 1.000000
1.000000 1.000000 1.000000
