Assets/Art/Materials/LUT/WintryBlue.CUBE
#Created by: Adobe Photoshop Export Color Lookup Plugin
TITLE "Frame.exr"
#LUT size
LUT_3D_SIZE 5
#data domain
#LUT data points
DOMAIN_MIN 0.000000 0.000000 0.000000
DOMAIN_MAX 0.903226 0.903226 0.903226
0.000000 0.000000 0.000000
0.028158 0.000000 0.000000
0.366425 0.000000 0.000000
1.000000 0.000000 0.000000
1.000000 0.000000 0.000000
0.000000 0.039349 0.000000
0.025132 0.037533 0.000000
0.363898 0.033849 0.000000
1.000000 0.026273 0.000000
1.000000 0.026273 0.000000
0.000000 0.451444 0.000000
0.018931 0.449931 0.000000
0.338670 0.434843 0.000000
1.000000 0.400325 0.000000
1.000000 0.400325 0.000000
0.000000 1.000000 0.000000
0.005441 1.000000 0.000000
0.280542 1.000000 0.000000
1.000000 1.000000 0.000000
1.000000 1.000000 0.000000
0.000000 1.000000 0.000000
0.005441 1.000000 0.000000
0.280542 1.000000 0.000000
1.000000 1.000000 0.000000
1.000000 1.000000 0.000000
0.000000 0.000000 0.060764
0.027574 0.000000 0.058736
0.365926 0.000000 0.054659
1.000000 0.000000 0.046324
1.000000 0.000000 0.046324
0.000000 0.038658 0.056782
0.024537 0.036832 0.054728
0.363394 0.033137 0.050598
1.000000 0.025535 0.042136
1.000000 0.025535 0.042136
0.000000 0.450865 0.048660
0.018315 0.449357 0.046553
0.338182 0.434259 0.042290
1.000000 0.399768 0.033530
1.000000 0.399768 0.033530
0.000000 1.000000 0.031608
0.004714 1.000000 0.029331
0.280043 1.000000 0.024686
1.000000 1.000000 0.014859
1.000000 1.000000 0.014859
0.000000 1.000000 0.031608
0.004714 1.000000 0.029331
0.280043 1.000000 0.024686
1.000000 1.000000 0.014859
1.000000 1.000000 0.014859
0.000000 0.000000 0.599720
0.026400 0.000000 0.598016
0.361060 0.000000 0.581064
1.000000 0.000000 0.542371
1.000000 0.000000 0.542371
0.000000 0.037267 0.596392
0.023348 0.035431 0.594693
0.358528 0.031709 0.577730
1.000000 0.024043 0.539011
1.000000 0.024043 0.539011
0.000000 0.445139 0.563047
0.017073 0.443626 0.561343
0.333245 0.428489 0.544220
1.000000 0.393911 0.505034
1.000000 0.393911 0.505034
0.000000 1.000000 0.486096
0.003206 1.000000 0.484350
0.274994 1.000000 0.466748
1.000000 1.000000 0.426340
1.000000 1.000000 0.426340
0.000000 1.000000 0.486096
0.003206 1.000000 0.484350
0.274994 1.000000 0.466748
1.000000 1.000000 0.426340
1.000000 1.000000 0.426340
0.000000 0.000000 1.000000
0.024033 0.000000 1.000000
0.349998 0.000000 1.000000
1.000000 0.000000 1.000000
1.000000 0.000000 1.000000
0.000000 0.034459 1.000000
0.020943 0.032596 1.000000
0.347455 0.028827 1.000000
1.000000 0.021023 1.000000
1.000000 0.021023 1.000000
0.000000 0.432128 1.000000
0.014557 0.430604 1.000000
0.322061 0.415381 1.000000
1.000000 0.380601 1.000000
1.000000 0.380601 1.000000
0.000000 1.000000 1.000000
0.000000 1.000000 1.000000
0.263477 1.000000 1.000000
1.000000 1.000000 1.000000
1.000000 1.000000 1.000000
0.000000 1.000000 1.000000
0.000000 1.000000 1.000000
0.263477 1.000000 1.000000
1.000000 1.000000 1.000000
1.000000 1.000000 1.000000
0.000000 0.000000 1.000000
0.024033 0.000000 1.000000
0.349998 0.000000 1.000000
1.000000 0.000000 1.000000
1.000000 0.000000 1.000000
0.000000 0.034459 1.000000
0.020943 0.032596 1.000000
0.347455 0.028827 1.000000
1.000000 0.021023 1.000000
1.000000 0.021023 1.000000
0.000000 0.432128 1.000000
0.014557 0.430604 1.000000
0.322061 0.415381 1.000000
1.000000 0.380601 1.000000
1.000000 0.380601 1.000000
0.000000 1.000000 1.000000
0.000000 1.000000 1.000000
0.263477 1.000000 1.000000
1.000000 1.000000 1.000000
1.000000 1.000000 1.000000
0.000000 1.000000 1.000000
0.000000 1.000000 1.000000
0.263477 1.000000 1.000000
1.000000 1.000000 1.000000
1.000000 1.000000 1.000000
