Assets/Art/Materials/LUT/WintryBlueDarker.CUBE.CUBE
#Created by: Adobe Photoshop Export Color Lookup Plugin
TITLE "Frame.exr"
#LUT size
LUT_3D_SIZE 32
#data domain
DOMAIN_MIN 0.0 0.0 0.0
DOMAIN_MAX 1.0 1.0 1.0
#LUT data points
0.000000 0.000000 0.000000
0.000000 0.000000 0.000000
0.000000 0.000000 0.000000
0.000066 0.000000 0.000000
0.000910 0.000000 0.000000
0.002344 0.000000 0.000000
0.004400 0.000000 0.000000
0.007519 0.000000 0.000000
0.012555 0.000000 0.000000
0.020479 0.000000 0.000000
0.032732 0.000000 0.000000
0.051279 0.000000 0.000000
0.088647 0.000000 0.000000
0.154215 0.000000 0.000000
0.252766 0.000000 0.000000
0.397262 0.000000 0.000000
0.607033 0.000000 0.000000
0.912885 0.000000 0.000000
1.000000 0.000000 0.000000
1.000000 0.000000 0.000000
1.000000 0.000000 0.000000
1.000000 0.000000 0.000000
1.000000 0.000000 0.000000
1.000000 0.000000 0.000000
1.000000 0.000000 0.000000
1.000000 0.000000 0.000000
1.000000 0.000000 0.000000
1.000000 0.000000 0.000000
1.000000 0.000000 0.000000
1.000000 0.000000 0.000000
1.000000 0.000000 0.000000
1.000000 0.000000 0.000000
0.000000 0.000000 0.000000
0.000000 0.000000 0.000000
0.000000 0.000000 0.000000
0.000066 0.000000 0.000000
0.000910 0.000000 0.000000
0.002344 0.000000 0.000000
0.004400 0.000000 0.000000
0.007519 0.000000 0.000000
0.012555 0.000000 0.000000
0.020479 0.000000 0.000000
0.032732 0.000000 0.000000
0.051279 0.000000 0.000000
0.088647 0.000000 0.000000
0.154215 0.000000 0.000000
0.252766 0.000000 0.000000
0.397262 0.000000 0.000000
0.607033 0.000000 0.000000
0.912885 0.000000 0.000000
1.000000 0.000000 0.000000
1.000000 0.000000 0.000000
1.000000 0.000000 0.000000
1.000000 0.000000 0.000000
1.000000 0.000000 0.000000
1.000000 0.000000 0.000000
1.000000 0.000000 0.000000
1.000000 0.000000 0.000000
1.000000 0.000000 0.000000
1.000000 0.000000 0.000000
1.000000 0.000000 0.000000
1.000000 0.000000 0.000000
1.000000 0.000000 0.000000
1.000000 0.000000 0.000000
0.000000 0.000000 0.000000
0.000000 0.000000 0.000000
0.000000 0.000000 0.000000
0.000066 0.000000 0.000000
0.000910 0.000000 0.000000
0.002344 0.000000 0.000000
0.004400 0.000000 0.000000
0.007519 0.000000 0.000000
0.012555 0.000000 0.000000
0.020479 0.000000 0.000000
0.032732 0.000000 0.000000
0.051279 0.000000 0.000000
0.088647 0.000000 0.000000
0.154215 0.000000 0.000000
0.252766 0.000000 0.000000
0.397262 0.000000 0.000000
0.607033 0.000000 0.000000
0.912885 0.000000 0.000000
1.000000 0.000000 0.000000
1.000000 0.000000 0.000000
1.000000 0.000000 0.000000
1.000000 0.000000 0.000000
1.000000 0.000000 0.000000
1.000000 0.000000 0.000000
1.000000 0.000000 0.000000
1.000000 0.000000 0.000000
1.000000 0.000000 0.000000
1.000000 0.000000 0.000000
1.000000 0.000000 0.000000
1.000000 0.000000 0.000000
1.000000 0.000000 0.000000
1.000000 0.000000 0.000000
0.000000 0.000105 0.000000
0.000000 0.000105 0.000000
0.000000 0.000105 0.000000
0.000057 0.000099 0.000000
0.000890 0.000099 0.000000
0.002318 0.000099 0.000000
0.004370 0.000099 0.000000
0.007484 0.000099 0.000000
0.012515 0.000099 0.000000
0.020433 0.000099 0.000000
0.032680 0.000099 0.000000
0.051220 0.000099 0.000000
0.088586 0.000092 0.000000
0.154145 0.000092 0.000000
0.252691 0.000086 0.000000
0.397180 0.000079 0.000000
0.606944 0.000073 0.000000
0.912787 0.000067 0.000000
1.000000 0.000060 0.000000
1.000000 0.000060 0.000000
1.000000 0.000060 0.000000
1.000000 0.000060 0.000000
1.000000 0.000060 0.000000
1.000000 0.000060 0.000000
1.000000 0.000060 0.000000
1.000000 0.000060 0.000000
1.000000 0.000060 0.000000
1.000000 0.000060 0.000000
1.000000 0.000060 0.000000
1.000000 0.000060 0.000000
1.000000 0.000060 0.000000
1.000000 0.000060 0.000000
0.000000 0.001439 0.000000
0.000000 0.001439 0.000000
0.000000 0.001439 0.000000
0.000057 0.001425 0.000000
0.000779 0.001349 0.000000
0.002173 0.001349 0.000000
0.004197 0.001349 0.000000
0.007283 0.001349 0.000000
0.012284 0.001349 0.000000
0.020169 0.001349 0.000000
0.032380 0.001349 0.000000
0.050881 0.001349 0.000000
0.088239 0.001259 0.000000
0.153741 0.001259 0.000000
0.252255 0.001171 0.000000
0.396705 0.001083 0.000000
0.606431 0.000997 0.000000
0.912221 0.000911 0.000000
1.000000 0.000827 0.000000
1.000000 0.000827 0.000000
1.000000 0.000827 0.000000
1.000000 0.000827 0.000000
1.000000 0.000827 0.000000
1.000000 0.000827 0.000000
1.000000 0.000827 0.000000
1.000000 0.000827 0.000000
1.000000 0.000827 0.000000
1.000000 0.000827 0.000000
1.000000 0.000827 0.000000
1.000000 0.000827 0.000000
1.000000 0.000827 0.000000
1.000000 0.000827 0.000000
0.000000 0.003707 0.000000
0.000000 0.003707 0.000000
0.000000 0.003707 0.000000
0.000057 0.003689 0.000000
0.000779 0.003590 0.000000
0.002006 0.003474 0.000000
0.003996 0.003474 0.000000
0.007050 0.003474 0.000000
0.012015 0.003474 0.000000
0.019862 0.003474 0.000000
0.032031 0.003474 0.000000
0.050487 0.003474 0.000000
0.087833 0.003244 0.000000
0.153269 0.003244 0.000000
0.251747 0.003016 0.000000
0.396151 0.002790 0.000000
0.605831 0.002567 0.000000
0.911561 0.002348 0.000000
1.000000 0.002132 0.000000
1.000000 0.002132 0.000000
1.000000 0.002132 0.000000
1.000000 0.002132 0.000000
1.000000 0.002132 0.000000
1.000000 0.002132 0.000000
1.000000 0.002132 0.000000
1.000000 0.002132 0.000000
1.000000 0.002132 0.000000
1.000000 0.002132 0.000000
1.000000 0.002132 0.000000
1.000000 0.002132 0.000000
1.000000 0.002132 0.000000
1.000000 0.002132 0.000000
0.000000 0.006959 0.000000
0.000000 0.006959 0.000000
0.000000 0.006959 0.000000
0.000057 0.006939 0.000000
0.000779 0.006820 0.000000
0.002006 0.006683 0.000000
0.003766 0.006523 0.000000
0.006781 0.006523 0.000000
0.011703 0.006523 0.000000
0.019504 0.006523 0.000000
0.031624 0.006523 0.000000
0.050026 0.006523 0.000000
0.087358 0.006090 0.000000
0.152718 0.006090 0.000000
0.251153 0.005662 0.000000
0.395502 0.005245 0.000000
0.605130 0.004820 0.000000
0.910789 0.004408 0.000000
1.000000 0.004002 0.000000
1.000000 0.004002 0.000000
1.000000 0.004002 0.000000
1.000000 0.004002 0.000000
1.000000 0.004002 0.000000
1.000000 0.004002 0.000000
1.000000 0.004002 0.000000
1.000000 0.004002 0.000000
1.000000 0.004002 0.000000
1.000000 0.004002 0.000000
1.000000 0.004002 0.000000
1.000000 0.004002 0.000000
1.000000 0.004002 0.000000
1.000000 0.004002 0.000000
0.000000 0.011892 0.000000
0.000000 0.011892 0.000000
0.000000 0.011892 0.000000
0.000057 0.011868 0.000000
0.000779 0.011731 0.000000
0.002006 0.011572 0.000000
0.003766 0.011386 0.000000
0.006435 0.011147 0.000000
0.011302 0.011147 0.000000
0.019042 0.011147 0.000000
0.031097 0.011147 0.000000
0.049429 0.011147 0.000000
0.086743 0.010406 0.000000
0.152002 0.010406 0.000000
0.250381 0.009675 0.000000
0.394630 0.009191 0.000000
0.604219 0.008237 0.000000
0.909786 0.007533 0.000000
1.000000 0.006838 0.000000
1.000000 0.006838 0.000000
1.000000 0.006838 0.000000
1.000000 0.006838 0.000000
1.000000 0.006838 0.000000
1.000000 0.006838 0.000000
1.000000 0.006838 0.000000
1.000000 0.006838 0.000000
1.000000 0.006838 0.000000
1.000000 0.006838 0.000000
1.000000 0.006838 0.000000
1.000000 0.006838 0.000000
1.000000 0.006838 0.000000
1.000000 0.006838 0.000000
0.000000 0.019857 0.000000
0.000000 0.019857 0.000000
0.000000 0.019857 0.000000
0.000057 0.019829 0.000000
0.000779 0.019672 0.000000
0.002006 0.019489 0.000000
0.003766 0.019275 0.000000
0.006435 0.018998 0.000000
0.010744 0.018612 0.000000
0.018400 0.018612 0.000000
0.030362 0.018612 0.000000
0.048595 0.018612 0.000000
0.085778 0.017740 0.000000
0.151001 0.017376 0.000000
0.249291 0.016213 0.000000
0.393408 0.015599 0.000000
0.602928 0.013876 0.000000
0.908380 0.012578 0.000000
1.000000 0.011418 0.000000
1.000000 0.011418 0.000000
1.000000 0.011418 0.000000
1.000000 0.011418 0.000000
1.000000 0.011418 0.000000
1.000000 0.011418 0.000000
1.000000 0.011418 0.000000
1.000000 0.011418 0.000000
1.000000 0.011418 0.000000
1.000000 0.011418 0.000000
1.000000 0.011418 0.000000
1.000000 0.011418 0.000000
1.000000 0.011418 0.000000
1.000000 0.011418 0.000000
0.000000 0.032389 0.000000
0.000000 0.032389 0.000000
0.000000 0.032389 0.000000
0.000057 0.032358 0.000000
0.000779 0.032178 0.000000
0.002006 0.031969 0.000000
0.003766 0.031725 0.000000
0.006435 0.031408 0.000000
0.010744 0.030965 0.000000
0.017526 0.030359 0.000000
0.029359 0.030359 0.000000
0.047456 0.030359 0.000000
0.084448 0.029361 0.000000
0.149627 0.028343 0.000000
0.247717 0.027011 0.000000
0.391730 0.025716 0.000000
0.601112 0.023153 0.000000
0.906447 0.020516 0.000000
1.000000 0.018625 0.000000
1.000000 0.018625 0.000000
1.000000 0.018625 0.000000
1.000000 0.018625 0.000000
1.000000 0.018625 0.000000
1.000000 0.018625 0.000000
1.000000 0.018625 0.000000
1.000000 0.018625 0.000000
1.000000 0.018625 0.000000
1.000000 0.018625 0.000000
1.000000 0.018625 0.000000
1.000000 0.018625 0.000000
1.000000 0.018625 0.000000
1.000000 0.018625 0.000000
0.000000 0.051768 0.000000
0.000000 0.051768 0.000000
0.000000 0.051768 0.000000
0.000057 0.051732 0.000000
0.000779 0.051528 0.000000
0.002006 0.051291 0.000000
0.003766 0.051013 0.000000
0.006435 0.050653 0.000000
0.010744 0.050149 0.000000
0.017526 0.049458 0.000000
0.028011 0.048524 0.000000
0.045918 0.048524 0.000000
0.082649 0.047390 0.000000
0.147764 0.045300 0.000000
0.245582 0.043787 0.000000
0.389452 0.041396 0.000000
0.598645 0.037569 0.000000
0.903823 0.032791 0.000000
1.000000 0.029769 0.000000
1.000000 0.029769 0.000000
1.000000 0.029769 0.000000
1.000000 0.029769 0.000000
1.000000 0.029769 0.000000
1.000000 0.029769 0.000000
1.000000 0.029769 0.000000
1.000000 0.029769 0.000000
1.000000 0.029769 0.000000
1.000000 0.029769 0.000000
1.000000 0.029769 0.000000
1.000000 0.029769 0.000000
1.000000 0.029769 0.000000
1.000000 0.029769 0.000000
0.000000 0.081100 0.000000
0.000000 0.081100 0.000000
0.000000 0.081100 0.000000
0.000057 0.081060 0.000000
0.000779 0.080830 0.000000
0.002006 0.080562 0.000000
0.003766 0.080248 0.000000
0.006435 0.079840 0.000000
0.010744 0.079270 0.000000
0.017526 0.078489 0.000000
0.028011 0.077429 0.000000
0.043883 0.076018 0.000000
0.080259 0.074737 0.000000
0.145020 0.072127 0.000000
0.242734 0.069257 0.000000
0.386410 0.065169 0.000000
0.595349 0.059462 0.000000
0.900304 0.051687 0.000000
1.000000 0.046636 0.000000
1.000000 0.046636 0.000000
1.000000 0.046636 0.000000
1.000000 0.046636 0.000000
1.000000 0.046636 0.000000
1.000000 0.046636 0.000000
1.000000 0.046636 0.000000
1.000000 0.046636 0.000000
1.000000 0.046636 0.000000
1.000000 0.046636 0.000000
1.000000 0.046636 0.000000
1.000000 0.046636 0.000000
1.000000 0.046636 0.000000
1.000000 0.046636 0.000000
0.000000 0.131801 0.000000
0.000000 0.131801 0.000000
0.000000 0.131801 0.000000
0.000048 0.131761 0.000000
0.000651 0.131528 0.000000
0.001677 0.131257 0.000000
0.003149 0.130940 0.000000
0.005382 0.130528 0.000000
0.009498 0.129881 0.000000
0.016096 0.128987 0.000000
0.026383 0.127775 0.000000
0.042041 0.126158 0.000000
0.077265 0.124123 0.000000
0.141501 0.121125 0.000000
0.238985 0.117267 0.000000
0.382324 0.111929 0.000000
0.590927 0.104818 0.000000
0.895475 0.095188 0.000000
1.000000 0.087977 0.000000
1.000000 0.087977 0.000000
1.000000 0.087977 0.000000
1.000000 0.087977 0.000000
1.000000 0.087977 0.000000
1.000000 0.087977 0.000000
1.000000 0.087977 0.000000
1.000000 0.087977 0.000000
1.000000 0.087977 0.000000
1.000000 0.087977 0.000000
1.000000 0.087977 0.000000
1.000000 0.087977 0.000000
1.000000 0.087977 0.000000
1.000000 0.087977 0.000000
0.000000 0.214402 0.000000
0.000000 0.214402 0.000000
0.000000 0.214402 0.000000
0.000048 0.214356 0.000000
0.000651 0.214091 0.000000
0.001677 0.213781 0.000000
0.003149 0.213419 0.000000
0.005382 0.212949 0.000000
0.008986 0.212291 0.000000
0.014658 0.211386 0.000000
0.023427 0.210159 0.000000
0.038330 0.208345 0.000000
0.072871 0.206013 0.000000
0.136955 0.202990 0.000000
0.233788 0.198625 0.000000
0.376671 0.192823 0.000000
0.584873 0.185067 0.000000
0.888946 0.174665 0.000000
1.000000 0.166626 0.000000
1.000000 0.166626 0.000000
1.000000 0.166626 0.000000
1.000000 0.166626 0.000000
1.000000 0.166626 0.000000
1.000000 0.166626 0.000000
1.000000 0.166626 0.000000
1.000000 0.166626 0.000000
1.000000 0.166626 0.000000
1.000000 0.166626 0.000000
1.000000 0.166626 0.000000
1.000000 0.166626 0.000000
1.000000 0.166626 0.000000
1.000000 0.166626 0.000000
0.000000 0.336399 0.000000
0.000000 0.336399 0.000000
0.000000 0.336399 0.000000
0.000039 0.336350 0.000000
0.000528 0.336068 0.000000
0.001361 0.335739 0.000000
0.002554 0.335355 0.000000
0.004365 0.334855 0.000000
0.007366 0.334149 0.000000
0.012793 0.333126 0.000000
0.021300 0.331738 0.000000
0.034292 0.329883 0.000000
0.067259 0.327462 0.000000
0.130394 0.324072 0.000000
0.226913 0.319569 0.000000
0.369116 0.313389 0.000000
0.576743 0.305111 0.000000
0.880162 0.293849 0.000000
1.000000 0.285338 0.000000
1.000000 0.285338 0.000000
1.000000 0.285338 0.000000
1.000000 0.285338 0.000000
1.000000 0.285338 0.000000
1.000000 0.285338 0.000000
1.000000 0.285338 0.000000
1.000000 0.285338 0.000000
1.000000 0.285338 0.000000
1.000000 0.285338 0.000000
1.000000 0.285338 0.000000
1.000000 0.285338 0.000000
1.000000 0.285338 0.000000
1.000000 0.285338 0.000000
0.000000 0.512753 0.000000
0.000000 0.512753 0.000000
0.000000 0.512753 0.000000
0.000030 0.512700 0.000000
0.000410 0.512396 0.000000
0.001056 0.512040 0.000000
0.001992 0.511623 0.000000
0.003708 0.511064 0.000000
0.006528 0.510279 0.000000
0.011017 0.509200 0.000000
0.018009 0.507736 0.000000
0.028645 0.505778 0.000000
0.059572 0.503158 0.000000
0.121710 0.499559 0.000000
0.217462 0.494727 0.000000
0.358940 0.488141 0.000000
0.565649 0.479246 0.000000
0.868336 0.467223 0.000000
1.000000 0.458097 0.000000
1.000000 0.458097 0.000000
1.000000 0.458097 0.000000
1.000000 0.458097 0.000000
1.000000 0.458097 0.000000
1.000000 0.458097 0.000000
1.000000 0.458097 0.000000
1.000000 0.458097 0.000000
1.000000 0.458097 0.000000
1.000000 0.458097 0.000000
1.000000 0.458097 0.000000
1.000000 0.458097 0.000000
1.000000 0.458097 0.000000
1.000000 0.458097 0.000000
0.000000 0.765577 0.000000
0.000000 0.765577 0.000000
0.000000 0.765577 0.000000
0.000022 0.765520 0.000000
0.000297 0.765193 0.000000
0.000765 0.764811 0.000000
0.001437 0.764365 0.000000
0.002455 0.763784 0.000000
0.004255 0.762961 0.000000
0.007607 0.761801 0.000000
0.012894 0.760225 0.000000
0.020999 0.758118 0.000000
0.049514 0.755309 0.000000
0.110251 0.751449 0.000000
0.204940 0.746271 0.000000
0.345227 0.739249 0.000000
0.550855 0.729779 0.000000
0.852302 0.716940 0.000000
1.000000 0.707205 0.000000
1.000000 0.707205 0.000000
1.000000 0.707205 0.000000
1.000000 0.707205 0.000000
1.000000 0.707205 0.000000
1.000000 0.707205 0.000000
1.000000 0.707205 0.000000
1.000000 0.707205 0.000000
1.000000 0.707205 0.000000
1.000000 0.707205 0.000000
1.000000 0.707205 0.000000
1.000000 0.707205 0.000000
1.000000 0.707205 0.000000
1.000000 0.707205 0.000000
0.000000 1.000000 0.000000
0.000000 1.000000 0.000000
0.000000 1.000000 0.000000
0.000014 1.000000 0.000000
0.000192 1.000000 0.000000
0.000494 1.000000 0.000000
0.000927 1.000000 0.000000
0.001585 1.000000 0.000000
0.002646 1.000000 0.000000
0.004316 1.000000 0.000000
0.006898 1.000000 0.000000
0.011179 1.000000 0.000000
0.036054 1.000000 0.000000
0.094931 1.000000 0.000000
0.188006 1.000000 0.000000
0.326770 1.000000 0.000000
0.530752 1.000000 0.000000
0.830754 1.000000 0.000000
1.000000 1.000000 0.000000
1.000000 1.000000 0.000000
1.000000 1.000000 0.000000
1.000000 1.000000 0.000000
1.000000 1.000000 0.000000
1.000000 1.000000 0.000000
1.000000 1.000000 0.000000
1.000000 1.000000 0.000000
1.000000 1.000000 0.000000
1.000000 1.000000 0.000000
1.000000 1.000000 0.000000
1.000000 1.000000 0.000000
1.000000 1.000000 0.000000
1.000000 1.000000 0.000000
0.000000 1.000000 0.000000
0.000000 1.000000 0.000000
0.000000 1.000000 0.000000
0.000007 1.000000 0.000000
0.000096 1.000000 0.000000
0.000247 1.000000 0.000000
0.000463 1.000000 0.000000
0.000791 1.000000 0.000000
0.001321 1.000000 0.000000
0.002155 1.000000 0.000000
0.003444 1.000000 0.000000
0.005395 1.000000 0.000000
0.026216 1.000000 0.000000
0.083068 1.000000 0.000000
0.175320 1.000000 0.000000
0.312840 1.000000 0.000000
0.515616 1.000000 0.000000
0.814249 1.000000 0.000000
1.000000 1.000000 0.000000
1.000000 1.000000 0.000000
1.000000 1.000000 0.000000
1.000000 1.000000 0.000000
1.000000 1.000000 0.000000
1.000000 1.000000 0.000000
1.000000 1.000000 0.000000
1.000000 1.000000 0.000000
1.000000 1.000000 0.000000
1.000000 1.000000 0.000000
1.000000 1.000000 0.000000
1.000000 1.000000 0.000000
1.000000 1.000000 0.000000
1.000000 1.000000 0.000000
0.000000 1.000000 0.000000
0.000000 1.000000 0.000000
0.000000 1.000000 0.000000
0.000007 1.000000 0.000000
0.000096 1.000000 0.000000
0.000247 1.000000 0.000000
0.000463 1.000000 0.000000
0.000791 1.000000 0.000000
0.001321 1.000000 0.000000
0.002155 1.000000 0.000000
0.003444 1.000000 0.000000
0.005395 1.000000 0.000000
0.026216 1.000000 0.000000
0.083068 1.000000 0.000000
0.175320 1.000000 0.000000
0.312840 1.000000 0.000000
0.515616 1.000000 0.000000
0.814249 1.000000 0.000000
1.000000 1.000000 0.000000
1.000000 1.000000 0.000000
1.000000 1.000000 0.000000
1.000000 1.000000 0.000000
1.000000 1.000000 0.000000
1.000000 1.000000 0.000000
1.000000 1.000000 0.000000
1.000000 1.000000 0.000000
1.000000 1.000000 0.000000
1.000000 1.000000 0.000000
1.000000 1.000000 0.000000
1.000000 1.000000 0.000000
1.000000 1.000000 0.000000
1.000000 1.000000 0.000000
0.000000 1.000000 0.000000
0.000000 1.000000 0.000000
0.000000 1.000000 0.000000
0.000007 1.000000 0.000000
0.000096 1.000000 0.000000
0.000247 1.000000 0.000000
0.000463 1.000000 0.000000
0.000791 1.000000 0.000000
0.001321 1.000000 0.000000
0.002155 1.000000 0.000000
0.003444 1.000000 0.000000
0.005395 1.000000 0.000000
0.026216 1.000000 0.000000
0.083068 1.000000 0.000000
0.175320 1.000000 0.000000
0.312840 1.000000 0.000000
0.515616 1.000000 0.000000
0.814249 1.000000 0.000000
1.000000 1.000000 0.000000
1.000000 1.000000 0.000000
1.000000 1.000000 0.000000
1.000000 1.000000 0.000000
1.000000 1.000000 0.000000
1.000000 1.000000 0.000000
1.000000 1.000000 0.000000
1.000000 1.000000 0.000000
1.000000 1.000000 0.000000
1.000000 1.000000 0.000000
1.000000 1.000000 0.000000
1.000000 1.000000 0.000000
1.000000 1.000000 0.000000
1.000000 1.000000 0.000000
0.000000 1.000000 0.000000
0.000000 1.000000 0.000000
0.000000 1.000000 0.000000
0.000007 1.000000 0.000000
0.000096 1.000000 0.000000
0.000247 1.000000 0.000000
0.000463 1.000000 0.000000
0.000791 1.000000 0.000000
0.001321 1.000000 0.000000
0.002155 1.000000 0.000000
0.003444 1.000000 0.000000
0.005395 1.000000 0.000000
0.026216 1.000000 0.000000
0.083068 1.000000 0.000000
0.175320 1.000000 0.000000
0.312840 1.000000 0.000000
0.515616 1.000000 0.000000
0.814249 1.000000 0.000000
1.000000 1.000000 0.000000
1.000000 1.000000 0.000000
1.000000 1.000000 0.000000
1.000000 1.000000 0.000000
1.000000 1.000000 0.000000
1.000000 1.000000 0.000000
1.000000 1.000000 0.000000
1.000000 1.000000 0.000000
1.000000 1.000000 0.000000
1.000000 1.000000 0.000000
1.000000 1.000000 0.000000
1.000000 1.000000 0.000000
1.000000 1.000000 0.000000
1.000000 1.000000 0.000000
0.000000 1.000000 0.000000
0.000000 1.000000 0.000000
0.000000 1.000000 0.000000
0.000007 1.000000 0.000000
0.000096 1.000000 0.000000
0.000247 1.000000 0.000000
0.000463 1.000000 0.000000
0.000791 1.000000 0.000000
0.001321 1.000000 0.000000
0.002155 1.000000 0.000000
0.003444 1.000000 0.000000
0.005395 1.000000 0.000000
0.026216 1.000000 0.000000
0.083068 1.000000 0.000000
0.175320 1.000000 0.000000
0.312840 1.000000 0.000000
0.515616 1.000000 0.000000
0.814249 1.000000 0.000000
1.000000 1.000000 0.000000
1.000000 1.000000 0.000000
1.000000 1.000000 0.000000
1.000000 1.000000 0.000000
1.000000 1.000000 0.000000
1.000000 1.000000 0.000000
1.000000 1.000000 0.000000
1.000000 1.000000 0.000000
1.000000 1.000000 0.000000
1.000000 1.000000 0.000000
1.000000 1.000000 0.000000
1.000000 1.000000 0.000000
1.000000 1.000000 0.000000
1.000000 1.000000 0.000000
0.000000 1.000000 0.000000
0.000000 1.000000 0.000000
0.000000 1.000000 0.000000
0.000007 1.000000 0.000000
0.000096 1.000000 0.000000
0.000247 1.000000 0.000000
0.000463 1.000000 0.000000
0.000791 1.000000 0.000000
0.001321 1.000000 0.000000
0.002155 1.000000 0.000000
0.003444 1.000000 0.000000
0.005395 1.000000 0.000000
0.026216 1.000000 0.000000
0.083068 1.000000 0.000000
0.175320 1.000000 0.000000
0.312840 1.000000 0.000000
0.515616 1.000000 0.000000
0.814249 1.000000 0.000000
1.000000 1.000000 0.000000
1.000000 1.000000 0.000000
1.000000 1.000000 0.000000
1.000000 1.000000 0.000000
1.000000 1.000000 0.000000
1.000000 1.000000 0.000000
1.000000 1.000000 0.000000
1.000000 1.000000 0.000000
1.000000 1.000000 0.000000
1.000000 1.000000 0.000000
1.000000 1.000000 0.000000
1.000000 1.000000 0.000000
1.000000 1.000000 0.000000
1.000000 1.000000 0.000000
0.000000 1.000000 0.000000
0.000000 1.000000 0.000000
0.000000 1.000000 0.000000
0.000007 1.000000 0.000000
0.000096 1.000000 0.000000
0.000247 1.000000 0.000000
0.000463 1.000000 0.000000
0.000791 1.000000 0.000000
0.001321 1.000000 0.000000
0.002155 1.000000 0.000000
0.003444 1.000000 0.000000
0.005395 1.000000 0.000000
0.026216 1.000000 0.000000
0.083068 1.000000 0.000000
0.175320 1.000000 0.000000
0.312840 1.000000 0.000000
0.515616 1.000000 0.000000
0.814249 1.000000 0.000000
1.000000 1.000000 0.000000
1.000000 1.000000 0.000000
1.000000 1.000000 0.000000
1.000000 1.000000 0.000000
1.000000 1.000000 0.000000
1.000000 1.000000 0.000000
1.000000 1.000000 0.000000
1.000000 1.000000 0.000000
1.000000 1.000000 0.000000
1.000000 1.000000 0.000000
1.000000 1.000000 0.000000
1.000000 1.000000 0.000000
1.000000 1.000000 0.000000
1.000000 1.000000 0.000000
0.000000 1.000000 0.000000
0.000000 1.000000 0.000000
0.000000 1.000000 0.000000
0.000007 1.000000 0.000000
0.000096 1.000000 0.000000
0.000247 1.000000 0.000000
0.000463 1.000000 0.000000
0.000791 1.000000 0.000000
0.001321 1.000000 0.000000
0.002155 1.000000 0.000000
0.003444 1.000000 0.000000
0.005395 1.000000 0.000000
0.026216 1.000000 0.000000
0.083068 1.000000 0.000000
0.175320 1.000000 0.000000
0.312840 1.000000 0.000000
0.515616 1.000000 0.000000
0.814249 1.000000 0.000000
1.000000 1.000000 0.000000
1.000000 1.000000 0.000000
1.000000 1.000000 0.000000
1.000000 1.000000 0.000000
1.000000 1.000000 0.000000
1.000000 1.000000 0.000000
1.000000 1.000000 0.000000
1.000000 1.000000 0.000000
1.000000 1.000000 0.000000
1.000000 1.000000 0.000000
1.000000 1.000000 0.000000
1.000000 1.000000 0.000000
1.000000 1.000000 0.000000
1.000000 1.000000 0.000000
0.000000 1.000000 0.000000
0.000000 1.000000 0.000000
0.000000 1.000000 0.000000
0.000007 1.000000 0.000000
0.000096 1.000000 0.000000
0.000247 1.000000 0.000000
0.000463 1.000000 0.000000
0.000791 1.000000 0.000000
0.001321 1.000000 0.000000
0.002155 1.000000 0.000000
0.003444 1.000000 0.000000
0.005395 1.000000 0.000000
0.026216 1.000000 0.000000
0.083068 1.000000 0.000000
0.175320 1.000000 0.000000
0.312839 1.000000 0.000000
0.515616 1.000000 0.000000
0.814249 1.000000 0.000000
1.000000 1.000000 0.000000
1.000000 1.000000 0.000000
1.000000 1.000000 0.000000
1.000000 1.000000 0.000000
1.000000 1.000000 0.000000
1.000000 1.000000 0.000000
1.000000 1.000000 0.000000
1.000000 1.000000 0.000000
1.000000 1.000000 0.000000
1.000000 1.000000 0.000000
1.000000 1.000000 0.000000
1.000000 1.000000 0.000000
1.000000 1.000000 0.000000
1.000000 1.000000 0.000000
0.000000 1.000000 0.000000
0.000000 1.000000 0.000000
0.000000 1.000000 0.000000
0.000007 1.000000 0.000000
0.000096 1.000000 0.000000
0.000247 1.000000 0.000000
0.000463 1.000000 0.000000
0.000791 1.000000 0.000000
0.001321 1.000000 0.000000
0.002155 1.000000 0.000000
0.003444 1.000000 0.000000
0.005395 1.000000 0.000000
0.026216 1.000000 0.000000
0.083068 1.000000 0.000000
0.175320 1.000000 0.000000
0.312840 1.000000 0.000000
0.515616 1.000000 0.000000
0.814249 1.000000 0.000000
