Assets/Art/Materials/LUT/WintryBlueDarker.CUBE.CUBE
#Created by: Adobe Photoshop Export Color Lookup Plugin
TITLE "Frame.exr"
#LUT size
LUT_3D_SIZE 5
#data domain
#LUT data points
DOMAIN_MIN 0.000000 0.000000 0.000000
DOMAIN_MAX 0.903226 0.903226 0.903226
0.000000 0.000000 0.000000
0.007519 0.000000 0.000000
0.252766 0.000000 0.000000
1.000000 0.000000 0.000000
1.000000 0.000000 0.000000
0.000000 0.011892 0.000000
0.006435 0.011147 0.000000
0.250381 0.009675 0.000000
1.000000 0.006838 0.000000
1.000000 0.006838 0.000000
0.000000 0.336399 0.000000
0.004365 0.334855 0.000000
0.226913 0.319569 0.000000
1.000000 0.285338 0.000000
1.000000 0.285338 0.000000
0.000000 1.000000 0.000000
0.000791 1.000000 0.000000
0.175320 1.000000 0.000000
1.000000 1.000000 0.000000
1.000000 1.000000 0.000000
0.000000 1.000000 0.000000
0.000791 1.000000 0.000000
0.175320 1.000000 0.000000
1.000000 1.000000 0.000000
1.000000 1.000000 0.000000
0.000000 0.000000 0.021566
0.007306 0.000000 0.020586
0.252295 0.000000 0.018654
1.000000 0.000000 0.014871
1.000000 0.000000 0.014871
0.000000 0.011607 0.019654
0.006227 0.010862 0.018686
0.249906 0.009398 0.016782
1.000000 0.006577 0.013060
1.000000 0.006577 0.013060
0.000000 0.335808 0.015908
0.004171 0.334271 0.014971
0.226465 0.318982 0.013126
1.000000 0.284794 0.009551
1.000000 0.284794 0.009551
0.000000 1.000000 0.008809
0.000650 1.000000 0.007951
0.174893 1.000000 0.006279
1.000000 1.000000 0.003132
1.000000 1.000000 0.003132
0.000000 1.000000 0.008809
0.000650 1.000000 0.007951
0.174893 1.000000 0.006279
1.000000 1.000000 0.003132
1.000000 1.000000 0.003132
0.000000 0.000000 0.496387
0.006884 0.000000 0.494456
0.247711 0.000000 0.475356
1.000000 0.000000 0.432536
1.000000 0.000000 0.432536
0.000000 0.011039 0.492617
0.005817 0.010300 0.490696
0.245334 0.008848 0.471624
1.000000 0.006056 0.428870
1.000000 0.006056 0.428870
0.000000 0.329979 0.455282
0.003789 0.328444 0.453396
0.221948 0.313190 0.434558
1.000000 0.279094 0.392274
1.000000 0.279094 0.392274
0.000000 1.000000 0.372265
0.000383 1.000000 0.370434
0.170589 1.000000 0.352118
1.000000 1.000000 0.311040
1.000000 1.000000 0.311040
0.000000 1.000000 0.372265
0.000383 1.000000 0.370434
0.170589 1.000000 0.352118
1.000000 1.000000 0.311040
1.000000 1.000000 0.311040
0.000000 0.000000 1.000000
0.006052 0.000000 1.000000
0.237373 0.000000 1.000000
1.000000 0.000000 1.000000
1.000000 0.000000 1.000000
0.000000 0.009915 1.000000
0.005013 0.009188 1.000000
0.235014 0.007765 1.000000
1.000000 0.005039 1.000000
1.000000 0.005039 1.000000
0.000000 0.316839 1.000000
0.003045 0.315309 1.000000
0.211808 0.300140 1.000000
1.000000 0.266257 1.000000
1.000000 0.266257 1.000000
0.000000 1.000000 1.000000
0.000000 1.000000 1.000000
0.160878 1.000000 1.000000
1.000000 1.000000 1.000000
1.000000 1.000000 1.000000
0.000000 1.000000 1.000000
0.000000 1.000000 1.000000
0.160878 1.000000 1.000000
1.000000 1.000000 1.000000
1.000000 1.000000 1.000000
0.000000 0.000000 1.000000
0.006052 0.000000 1.000000
0.237373 0.000000 1.000000
1.000000 0.000000 1.000000
1.000000 0.000000 1.000000
0.000000 0.009915 1.000000
0.005013 0.009188 1.000000
0.235014 0.007765 1.000000
1.000000 0.005039 1.000000
1.000000 0.005039 1.000000
0.000000 0.316839 1.000000
0.003045 0.315309 1.000000
0.211808 0.300140 1.000000
1.000000 0.266257 1.000000
1.000000 0.266257 1.000000
0.000000 1.000000 1.000000
0.000000 1.000000 1.000000
0.160878 1.000000 1.000000
1.000000 1.000000 1.000000
1.000000 1.000000 1.000000
0.000000 1.000000 1.000000
0.000000 1.000000 1.000000
0.160878 1.000000 1.000000
1.000000 1.000000 1.000000
1.000000 1.000000 1.000000
