Assets/Art/Materials/LUT/WintryBlue.3DL
#Created by: Adobe Photoshop Export Color Lookup Plugin
#Description: Frame.exr
0 33 66 99 132 165 198 231 264 297 330 363 396 429 462 495 528 561 594 627 660 693 726 759 792 825 858 891 924 957 990 1023
0 0 0
0 0 0
0 0 0
0 0 8
0 0 53
0 0 106
0 0 168
0 0 249
0 0 362
0 0 517
0 0 728
0 0 1011
0 0 1371
0 0 1842
0 0 2456
0 0 3246
0 0 4095
0 0 4095
0 0 4095
0 0 4095
0 0 4095
0 0 4095
0 0 4095
0 0 4095
0 0 4095
0 0 4095
0 0 4095
0 0 4095
0 0 4095
0 0 4095
0 0 4095
0 0 4095
0 0 0
0 0 0
0 0 0
0 0 8
0 0 53
0 0 106
0 0 168
0 0 249
0 0 362
0 0 517
0 0 728
0 0 1011
0 0 1371
0 0 1842
0 0 2456
0 0 3246
0 0 4095
0 0 4095
0 0 4095
0 0 4095
0 0 4095
0 0 4095
0 0 4095
0 0 4095
0 0 4095
0 0 4095
0 0 4095
0 0 4095
0 0 4095
0 0 4095
0 0 4095
0 0 4095
0 0 0
0 0 0
0 0 0
0 0 8
0 0 53
0 0 106
0 0 168
0 0 249
0 0 362
0 0 517
0 0 728
0 0 1011
0 0 1371
0 0 1842
0 0 2456
0 0 3246
0 0 4095
0 0 4095
0 0 4095
0 0 4095
0 0 4095
0 0 4095
0 0 4095
0 0 4095
0 0 4095
0 0 4095
0 0 4095
0 0 4095
0 0 4095
0 0 4095
0 0 4095
0 0 4095
0 5 0
0 5 0
0 5 0
0 5 7
0 5 53
0 5 106
0 5 168
0 5 248
0 5 361
0 5 517
0 5 728
0 5 1010
0 5 1370
0 5 1841
0 5 2455
0 5 3246
0 5 4095
0 5 4095
0 4 4095
0 4 4095
0 4 4095
0 4 4095
0 4 4095
0 4 4095
0 4 4095
0 4 4095
0 4 4095
0 4 4095
0 4 4095
0 4 4095
0 4 4095
0 4 4095
0 34 0
0 34 0
0 34 0
0 34 7
0 34 50
0 34 103
0 34 165
0 34 245
0 34 358
0 34 514
0 34 725
0 34 1007
0 33 1368
0 33 1839
0 33 2453
0 32 3244
0 31 4095
0 31 4095
0 30 4095
0 30 4095
0 30 4095
0 30 4095
0 30 4095
0 30 4095
0 30 4095
0 30 4095
0 30 4095
0 30 4095
0 30 4095
0 30 4095
0 30 4095
0 30 4095
0 69 0
0 69 0
0 69 0
0 69 7
0 68 50
0 68 99
0 68 161
0 68 242
0 68 355
0 68 510
0 68 721
0 68 1004
0 66 1364
0 66 1835
0 65 2450
0 64 3241
0 63 4095
0 61 4095
0 60 4095
0 60 4095
0 60 4095
0 60 4095
0 60 4095
0 60 4095
0 60 4095
0 60 4095
0 60 4095
0 60 4095
0 60 4095
0 60 4095
0 60 4095
0 60 4095
0 109 0
0 109 0
0 109 0
0 109 7
0 108 50
0 108 99
0 107 157
0 107 238
0 107 351
0 107 506
0 107 717
0 107 1000
0 105 1361
0 105 1832
0 103 2447
0 101 3238
0 99 4095
0 97 4095
0 95 4095
0 95 4095
0 95 4095
0 95 4095
0 95 4095
0 95 4095
0 95 4095
0 95 4095
0 95 4095
0 95 4095
0 95 4095
0 95 4095
0 95 4095
0 95 4095
0 161 0
0 161 0
0 161 0
0 161 7
0 161 50
0 160 99
0 159 157
0 158 233
0 158 345
0 158 501
0 158 712
0 158 994
0 155 1356
0 155 1827
0 153 2442
0 151 3233
0 147 4095
0 144 4095
0 141 4095
0 141 4095
0 141 4095
0 141 4095
0 141 4095
0 141 4095
0 141 4095
0 141 4095
0 141 4095
0 141 4095
0 141 4095
0 141 4095
0 141 4095
0 141 4095
0 234 0
0 234 0
0 234 0
0 234 7
0 234 50
0 233 99
0 232 157
0 231 233
0 230 338
0 230 493
0 230 704
0 230 987
0 227 1349
0 226 1821
0 222 2436
0 220 3227
0 214 4095
0 209 4095
0 205 4095
0 205 4095
0 205 4095
0 205 4095
0 205 4095
0 205 4095
0 205 4095
0 205 4095
0 205 4095
0 205 4095
0 205 4095
0 205 4095
0 205 4095
0 205 4095
0 335 0
0 335 0
0 335 0
0 335 7
0 334 50
0 334 99
0 333 157
0 332 233
0 331 338
0 329 483
0 329 694
0 329 977
0 326 1339
0 323 1811
0 319 2427
0 315 3218
0 307 4095
0 299 4095
0 293 4095
0 293 4095
0 293 4095
0 293 4095
0 293 4095
0 293 4095
0 293 4095
0 293 4095
0 293 4095
0 293 4095
0 293 4095
0 293 4095
0 293 4095
0 293 4095
0 472 0
0 472 0
0 472 0
0 471 7
0 471 50
0 470 99
0 470 157
0 469 233
0 467 338
0 466 483
0 463 680
0 463 963
0 460 1325
0 455 1799
0 451 2415
0 445 3207
0 434 4095
0 421 4095
0 413 4095
0 413 4095
0 413 4095
0 413 4095
0 413 4095
0 413 4095
0 413 4095
0 413 4095
0 413 4095
0 413 4095
0 413 4095
0 413 4095
0 413 4095
0 413 4095
0 654 0
0 654 0
0 654 0
0 654 7
0 654 50
0 653 99
0 652 157
0 652 233
0 650 338
0 649 483
0 646 680
0 643 944
0 640 1306
0 634 1781
0 627 2398
0 618 3191
0 604 4095
0 586 4095
0 573 4095
0 573 4095
0 573 4095
0 573 4095
0 573 4095
0 573 4095
0 573 4095
0 573 4095
0 573 4095
0 573 4095
0 573 4095
0 573 4095
0 573 4095
0 573 4095
0 933 0
0 933 0
0 933 0
0 933 7
0 932 46
0 932 92
0 931 146
0 930 216
0 929 321
0 927 466
0 925 664
0 922 927
0 918 1283
0 912 1758
0 904 2376
0 893 3171
0 879 4095
0 859 4095
0 844 4095
0 844 4095
0 844 4095
0 844 4095
0 844 4095
0 844 4095
0 844 4095
0 844 4095
0 844 4095
0 844 4095
0 844 4095
0 844 4095
0 844 4095
0 844 4095
0 1331 0
0 1331 0
0 1331 0
0 1331 7
0 1330 46
0 1330 92
0 1329 146
0 1328 216
0 1327 314
0 1325 449
0 1323 632
0 1320 893
0 1316 1248
0 1311 1727
0 1303 2346
0 1293 3142
0 1279 4095
0 1261 4095
0 1246 4095
0 1246 4095
0 1246 4095
0 1246 4095
0 1246 4095
0 1246 4095
0 1246 4095
0 1246 4095
0 1246 4095
0 1246 4095
0 1246 4095
0 1246 4095
0 1246 4095
0 1246 4095
0 1849 0
0 1849 0
0 1849 0
0 1849 6
0 1848 43
0 1848 85
0 1847 135
0 1846 199
0 1845 291
0 1844 426
0 1842 609
0 1839 854
0 1835 1203
0 1830 1682
0 1823 2306
0 1813 3103
0 1800 4095
0 1783 4095
0 1770 4095
0 1770 4095
0 1770 4095
0 1770 4095
0 1770 4095
0 1770 4095
0 1770 4095
0 1770 4095
0 1770 4095
0 1770 4095
0 1770 4095
0 1770 4095
0 1770 4095
0 1770 4095
0 2515 0
0 2515 0
0 2515 0
0 2515 6
0 2514 39
0 2514 78
0 2513 123
0 2512 188
0 2511 278
0 2510 403
0 2508 572
0 2505 798
0 2501 1139
0 2497 1622
0 2490 2249
0 2481 3050
0 2469 4074
0 2452 4095
0 2439 4095
0 2439 4095
0 2439 4095
0 2439 4095
0 2439 4095
0 2439 4095
0 2439 4095
0 2439 4095
0 2439 4095
0 2439 4095
0 2439 4095
0 2439 4095
0 2439 4095
0 2439 4095
0 3370 0
0 3370 0
0 3370 0
0 3369 5
0 3369 35
0 3369 70
0 3368 112
0 3367 165
0 3366 243
0 3365 356
0 3363 511
0 3360 718
0 3357 1053
0 3352 1542
0 3345 2174
0 3337 2979
0 3325 4006
0 3309 4095
0 3297 4095
0 3297 4095
0 3297 4095
0 3297 4095
0 3297 4095
0 3297 4095
0 3297 4095
0 3297 4095
0 3297 4095
0 3297 4095
0 3297 4095
0 3297 4095
0 3297 4095
0 3297 4095
0 4095 0
0 4095 0
0 4095 0
0 4095 5
0 4095 32
0 4095 63
0 4095 100
0 4095 147
0 4095 214
0 4095 306
0 4095 431
0 4095 603
0 4095 933
0 4095 1431
0 4095 2070
0 4095 2881
0 4095 3913
0 4095 4095
0 4095 4095
0 4095 4095
0 4095 4095
0 4095 4095
0 4095 4095
0 4095 4095
0 4095 4095
0 4095 4095
0 4095 4095
0 4095 4095
0 4095 4095
0 4095 4095
0 4095 4095
0 4095 4095
0 4095 0
0 4095 0
0 4095 0
0 4095 4
0 4095 28
0 4095 55
0 4095 88
0 4095 129
0 4095 188
0 4095 269
0 4095 379
0 4095 526
0 4095 839
0 4095 1343
0 4095 1991
0 4095 2807
0 4095 3842
0 4095 4095
0 4095 4095
0 4095 4095
0 4095 4095
0 4095 4095
0 4095 4095
0 4095 4095
0 4095 4095
0 4095 4095
0 4095 4095
0 4095 4095
0 4095 4095
0 4095 4095
0 4095 4095
0 4095 4095
0 4095 0
0 4095 0
0 4095 0
0 4095 4
0 4095 28
0 4095 55
0 4095 88
0 4095 129
0 4095 188
0 4095 269
0 4095 379
0 4095 526
0 4095 839
0 4095 1343
0 4095 1991
0 4095 2807
0 4095 3842
0 4095 4095
0 4095 4095
0 4095 4095
0 4095 4095
0 4095 4095
0 4095 4095
0 4095 4095
0 4095 4095
0 4095 4095
0 4095 4095
0 4095 4095
0 4095 4095
0 4095 4095
0 4095 4095
0 4095 4095
0 4095 0
0 4095 0
0 4095 0
0 4095 4
0 4095 28
0 4095 55
0 4095 88
0 4095 129
0 4095 188
0 4095 269
0 4095 379
0 4095 526
0 4095 839
0 4095 1343
0 4095 1991
0 4095 2807
0 4095 3842
0 4095 4095
0 4095 4095
0 4095 4095
0 4095 4095
0 4095 4095
0 4095 4095
0 4095 4095
0 4095 4095
0 4095 4095
0 4095 4095
0 4095 4095
0 4095 4095
0 4095 4095
0 4095 4095
0 4095 4095
0 4095 0
0 4095 0
0 4095 0
0 4095 4
0 4095 28
0 4095 55
0 4095 88
0 4095 129
0 4095 188
0 4095 269
0 4095 379
0 4095 526
0 4095 839
0 4095 1343
0 4095 1991
0 4095 2807
0 4095 3842
0 4095 4095
0 4095 4095
0 4095 4095
0 4095 4095
0 4095 4095
0 4095 4095
0 4095 4095
0 4095 4095
0 4095 4095
0 4095 4095
0 4095 4095
0 4095 4095
0 4095 4095
0 4095 4095
0 4095 4095
0 4095 0
0 4095 0
0 4095 0
0 4095 4
0 4095 28
0 4095 55
0 4095 88
0 4095 129
0 4095 188
0 4095 269
0 4095 379
0 4095 526
0 4095 839
0 4095 1343
0 4095 1991
0 4095 2807
0 4095 3842
0 4095 4095
0 4095 4095
0 4095 4095
0 4095 4095
0 4095 4095
0 4095 4095
0 4095 4095
0 4095 4095
0 4095 4095
0 4095 4095
0 4095 4095
0 4095 4095
0 4095 4095
0 4095 4095
0 4095 4095
0 4095 0
0 4095 0
0 4095 0
0 4095 4
0 4095 28
0 4095 55
0 4095 88
0 4095 129
0 4095 188
0 4095 269
0 4095 379
0 4095 526
0 4095 839
0 4095 1343
0 4095 1991
0 4095 2807
0 4095 3842
0 4095 4095
0 4095 4095
0 4095 4095
0 4095 4095
0 4095 4095
0 4095 4095
0 4095 4095
0 4095 4095
0 4095 4095
0 4095 4095
0 4095 4095
0 4095 4095
0 4095 4095
0 4095 4095
0 4095 4095
0 4095 0
0 4095 0
0 4095 0
0 4095 4
0 4095 28
0 4095 55
0 4095 88
0 4095 129
0 4095 188
0 4095 269
0 4095 379
0 4095 526
0 4095 839
0 4095 1343
0 4095 1991
0 4095 2807
0 4095 3842
0 4095 4095
0 4095 4095
0 4095 4095
0 4095 4095
0 4095 4095
0 4095 4095
0 4095 4095
0 4095 4095
0 4095 4095
0 4095 4095
0 4095 4095
0 4095 4095
0 4095 4095
0 4095 4095
0 4095 4095
0 4095 0
0 4095 0
0 4095 0
0 4095 4
0 4095 28
0 4095 55
0 4095 88
0 4095 129
0 4095 188
0 4095 269
0 4095 379
0 4095 526
0 4095 839
0 4095 1343
0 4095 1991
0 4095 2807
0 4095 3842
0 4095 4095
0 4095 4095
0 4095 4095
0 4095 4095
0 4095 4095
0 4095 4095
0 4095 4095
0 4095 4095
0 4095 4095
0 4095 4095
0 4095 4095
0 4095 4095
0 4095 4095
0 4095 4095
0 4095 4095
0 4095 0
0 4095 0
0 4095 0
0 4095 4
0 4095 28
0 4095 55
0 4095 88
0 4095 129
0 4095 188
0 4095 269
0 4095 379
0 4095 526
0 4095 839
0 4095 1343
0 4095 1991
0 4095 2807
0 4095 3842
0 4095 4095
0 4095 4095
0 4095 4095
0 4095 4095
0 4095 4095
0 4095 4095
0 4095 4095
0 4095 4095
0 4095 4095
0 4095 4095
0 4095 4095
0 4095 4095
0 4095 4095
0 4095 4095
0 4095 4095
0 4095 0
0 4095 0
0 4095 0
0 4095 4
0 4095 28
0 4095 55
0 4095 88
0 4095 129
0 4095 188
0 4095 269
0 4095 379
0 4095 526
0 4095 839
0 4095 1343
0 4095 1991
0 4095 2807
0 4095 3842
0 4095 4095
0 4095 4095
0 4095 4095
0 4095 4095
0 4095 4095
0 4095 4095
0 4095 4095
0 4095 4095
0 4095 4095
0 4095 4095
0 4095 4095
0 4095 4095
0 4095 4095
0 4095 4095
0 4095 4095
0 4095 0
0 4095 0
0 4095 0
0 4095 4
