Assets/Art/Materials/LUT/WintryBlue.CUBE
#Created by: Adobe Photoshop Export Color Lookup Plugin
TITLE "Frame.exr"
#LUT size
LUT_3D_SIZE 8
#data domain
#LUT data points
DOMAIN_MIN 0.000000 0.000000 0.000000
DOMAIN_MAX 0.903226 0.903226 0.903226
0.000000 0.000000 0.000000
0.006026 0.000000 0.000000
0.040939 0.000000 0.000000
0.170528 0.000000 0.000000
0.694616 0.000000 0.000000
1.000000 0.000000 0.000000
1.000000 0.000000 0.000000
1.000000 0.000000 0.000000
0.000000 0.008420 0.000000
0.005378 0.008032 0.000000
0.040292 0.008032 0.000000
0.169954 0.007639 0.000000
0.694113 0.006440 0.000000
1.000000 0.005622 0.000000
1.000000 0.005622 0.000000
1.000000 0.005622 0.000000
0.000000 0.057210 0.000000
0.005378 0.056821 0.000000
0.036540 0.054570 0.000000
0.166481 0.052690 0.000000
0.691184 0.044040 0.000000
1.000000 0.038199 0.000000
1.000000 0.038199 0.000000
1.000000 0.038199 0.000000
0.000000 0.227793 0.000000
0.004720 0.227449 0.000000
0.033393 0.225365 0.000000
0.154250 0.218028 0.000000
0.681114 0.192716 0.000000
1.000000 0.169585 0.000000
1.000000 0.169585 0.000000
1.000000 0.169585 0.000000
0.000000 0.822833 0.000000
0.002662 0.822532 0.000000
0.018581 0.820780 0.000000
0.111468 0.814763 0.000000
0.647079 0.794566 0.000000
1.000000 0.776547 0.000000
1.000000 0.776547 0.000000
1.000000 0.776547 0.000000
0.000000 1.000000 0.000000
0.001164 1.000000 0.000000
0.007912 1.000000 0.000000
0.070074 1.000000 0.000000
0.616593 1.000000 0.000000
1.000000 1.000000 0.000000
1.000000 1.000000 0.000000
1.000000 1.000000 0.000000
0.000000 1.000000 0.000000
0.001164 1.000000 0.000000
0.007912 1.000000 0.000000
0.070074 1.000000 0.000000
0.616593 1.000000 0.000000
1.000000 1.000000 0.000000
1.000000 1.000000 0.000000
1.000000 1.000000 0.000000
0.000000 1.000000 0.000000
0.001164 1.000000 0.000000
0.007912 1.000000 0.000000
0.070074 1.000000 0.000000
0.616593 1.000000 0.000000
1.000000 1.000000 0.000000
1.000000 1.000000 0.000000
1.000000 1.000000 0.000000
0.000000 0.000000 0.013003
0.005901 0.000000 0.012569
0.040814 0.000000 0.012569
0.170417 0.000000 0.012135
0.694519 0.000000 0.010811
1.000000 0.000000 0.009913
1.000000 0.000000 0.009913
1.000000 0.000000 0.009913
0.000000 0.008273 0.012151
0.005251 0.007882 0.011712
0.040164 0.007882 0.011712
0.169844 0.007488 0.011271
0.694009 0.006286 0.009929
1.000000 0.005464 0.009017
1.000000 0.005464 0.009017
1.000000 0.005464 0.009017
0.000000 0.057062 0.012151
0.005251 0.056671 0.011712
0.036412 0.054420 0.011712
0.166371 0.052539 0.011271
0.691080 0.043886 0.009929
1.000000 0.038041 0.009017
1.000000 0.038041 0.009017
1.000000 0.038041 0.009017
0.000000 0.227664 0.011288
0.004591 0.227318 0.010844
0.033264 0.225235 0.010844
0.154137 0.217895 0.010396
0.681016 0.192584 0.009034
1.000000 0.169451 0.008105
1.000000 0.169451 0.008105
1.000000 0.169451 0.008105
0.000000 0.822718 0.008623
0.002523 0.822416 0.008157
0.018443 0.820664 0.008157
0.111354 0.814651 0.007687
0.646977 0.794456 0.006242
1.000000 0.776433 0.005245
1.000000 0.776433 0.005245
1.000000 0.776433 0.005245
0.000000 1.000000 0.006764
0.001009 1.000000 0.006277
0.007756 1.000000 0.006277
0.069958 1.000000 0.005784
0.616491 1.000000 0.004255
1.000000 1.000000 0.003180
1.000000 1.000000 0.003180
1.000000 1.000000 0.003180
0.000000 1.000000 0.006764
0.001009 1.000000 0.006277
0.007756 1.000000 0.006277
0.069958 1.000000 0.005784
0.616491 1.000000 0.004255
1.000000 1.000000 0.003180
1.000000 1.000000 0.003180
1.000000 1.000000 0.003180
0.000000 1.000000 0.006764
0.001009 1.000000 0.006277
0.007756 1.000000 0.006277
0.069958 1.000000 0.005784
0.616492 1.000000 0.004255
1.000000 1.000000 0.003180
1.000000 1.000000 0.003180
1.000000 1.000000 0.003180
0.000000 0.000000 0.088347
0.005901 0.000000 0.087913
0.040090 0.000000 0.085398
0.169749 0.000000 0.083322
0.693950 0.000000 0.073763
1.000000 0.000000 0.067352
1.000000 0.000000 0.067352
1.000000 0.000000 0.067352
0.000000 0.008273 0.087494
0.005251 0.007882 0.087055
0.039440 0.007882 0.084540
0.169175 0.007488 0.082458
0.693439 0.006286 0.072881
1.000000 0.005464 0.066456
1.000000 0.005464 0.066456
1.000000 0.005464 0.066456
0.000000 0.056206 0.082558
0.005251 0.055816 0.082118
0.035675 0.053551 0.079571
0.165698 0.051666 0.077462
0.690476 0.042991 0.067778
1.000000 0.037126 0.061262
1.000000 0.037126 0.061262
1.000000 0.037126 0.061262
0.000000 0.226877 0.078428
0.004591 0.226531 0.077984
0.032518 0.224439 0.075419
0.153451 0.217090 0.073278
0.680438 0.191776 0.063496
1.000000 0.168627 0.056899
1.000000 0.168627 0.056899
1.000000 0.168627 0.056899
0.000000 0.822050 0.059220
0.002523 0.821748 0.058754
0.017642 0.819991 0.056062
0.110648 0.813996 0.053812
0.646389 0.793818 0.043413
1.000000 0.775764 0.036326
1.000000 0.775764 0.036326
1.000000 0.775764 0.036326
0.000000 1.000000 0.045956
0.001009 1.000000 0.045469
0.006854 1.000000 0.042645
0.069207 1.000000 0.040287
0.615905 1.000000 0.029272
1.000000 1.000000 0.021604
1.000000 1.000000 0.021604
1.000000 1.000000 0.021604
0.000000 1.000000 0.045956
0.001009 1.000000 0.045469
0.006854 1.000000 0.042645
0.069207 1.000000 0.040287
0.615905 1.000000 0.029272
1.000000 1.000000 0.021604
1.000000 1.000000 0.021604
1.000000 1.000000 0.021604
0.000000 1.000000 0.045956
0.001009 1.000000 0.045469
0.006854 1.000000 0.042645
0.069207 1.000000 0.040287
0.615905 1.000000 0.029272
1.000000 1.000000 0.021604
1.000000 1.000000 0.021604
1.000000 1.000000 0.021604
0.000000 0.000000 0.334715
0.005775 0.000000 0.334325
0.039487 0.000000 0.331979
0.167388 0.000000 0.323780
0.691991 0.000000 0.295741
1.000000 0.000000 0.270224
1.000000 0.000000 0.270224
1.000000 0.000000 0.270224
0.000000 0.008124 0.333955
0.005124 0.007732 0.333564
0.038836 0.007732 0.331217
0.166813 0.007337 0.323018
0.691484 0.006130 0.294969
1.000000 0.005305 0.269448
1.000000 0.005305 0.269448
1.000000 0.005305 0.269448
0.000000 0.055495 0.329366
0.005124 0.055103 0.328976
0.035067 0.052834 0.326613
0.163332 0.050943 0.318409
0.688529 0.042247 0.290278
1.000000 0.036365 0.264710
1.000000 0.036365 0.264710
1.000000 0.036365 0.264710
0.000000 0.224085 0.313252
0.004461 0.223740 0.312858
0.031899 0.221647 0.310482
0.151051 0.214271 0.302184
0.678480 0.188890 0.273771
1.000000 0.165675 0.247860
1.000000 0.165675 0.247860
1.000000 0.165675 0.247860
0.000000 0.819734 0.257248
0.002382 0.819432 0.256851
0.016968 0.817675 0.254416
0.108127 0.811712 0.245831
0.644414 0.791546 0.216091
1.000000 0.773469 0.188733
1.000000 0.773469 0.188733
1.000000 0.773469 0.188733
0.000000 1.000000 0.204961
0.000850 1.000000 0.204559
0.006093 1.000000 0.202058
0.066375 1.000000 0.192980
0.613947 1.000000 0.161422
1.000000 1.000000 0.131625
1.000000 1.000000 0.131625
1.000000 1.000000 0.131625
0.000000 1.000000 0.204961
0.000850 1.000000 0.204559
0.006093 1.000000 0.202058
0.066375 1.000000 0.192980
0.613947 1.000000 0.161422
1.000000 1.000000 0.131625
1.000000 1.000000 0.131625
1.000000 1.000000 0.131625
0.000000 1.000000 0.204961
0.000850 1.000000 0.204559
0.006093 1.000000 0.202058
0.066375 1.000000 0.192980
0.613947 1.000000 0.161422
1.000000 1.000000 0.131625
1.000000 1.000000 0.131625
1.000000 1.000000 0.131625
0.000000 0.000000 1.000000
0.005397 0.000000 1.000000
0.036760 0.000000 1.000000
0.159348 0.000000 1.000000
0.685431 0.000000 1.000000
1.000000 0.000000 0.988509
1.000000 0.000000 0.988509
1.000000 0.000000 0.988509
0.000000 0.007675 1.000000
0.004740 0.007281 1.000000
0.036102 0.007281 1.000000
0.158768 0.006881 1.000000
0.684919 0.005661 1.000000
1.000000 0.004824 0.987844
1.000000 0.004824 0.987844
1.000000 0.004824 0.987844
0.000000 0.052252 1.000000
0.004740 0.051858 1.000000
0.032292 0.049575 1.000000
0.155255 0.047662 1.000000
0.681942 0.038860 1.000000
1.000000 0.032887 0.983978
1.000000 0.032887 0.983978
1.000000 0.032887 0.983978
0.000000 0.214553 1.000000
0.004071 0.214206 1.000000
0.029092 0.212099 1.000000
0.142897 0.204689 1.000000
0.671860 0.179058 0.991041
1.000000 0.155555 0.970752
1.000000 0.155555 0.970752
1.000000 0.155555 0.970752
0.000000 0.812087 0.978209
0.001955 0.811784 0.977870
0.013894 0.810022 0.975898
0.099442 0.804048 0.969086
0.637765 0.783792 0.946301
1.000000 0.765728 0.925868
1.000000 0.765728 0.925868
1.000000 0.765728 0.925868
0.000000 1.000000 0.938240
0.000341 1.000000 0.937901
0.002441 1.000000 0.935923
0.056301 1.000000 0.929117
0.607230 1.000000 0.906162
1.000000 1.000000 0.885551
1.000000 1.000000 0.885551
1.000000 1.000000 0.885551
0.000000 1.000000 0.938240
0.000341 1.000000 0.937901
0.002441 1.000000 0.935923
0.056301 1.000000 0.929117
0.607230 1.000000 0.906162
1.000000 1.000000 0.885551
1.000000 1.000000 0.885551
1.000000 1.000000 0.885551
0.000000 1.000000 0.938240
0.000341 1.000000 0.937901
0.002441 1.000000 0.935923
0.056301 1.000000 0.929117
0.607230 1.000000 0.906162
1.000000 1.000000 0.885551
1.000000 1.000000 0.885551
1.000000 1.000000 0.885551
0.000000 0.000000 1.000000
0.005143 0.000000 1.000000
0.034942 0.000000 1.000000
0.152107 0.000000 1.000000
0.679544 0.000000 1.000000
1.000000 0.000000 1.000000
1.000000 0.000000 1.000000
1.000000 0.000000 1.000000
0.000000 0.007374 1.000000
0.004482 0.006975 1.000000
0.034281 0.006975 1.000000
0.151529 0.006573 1.000000
0.679039 0.005344 1.000000
1.000000 0.004499 1.000000
1.000000 0.004499 1.000000
1.000000 0.004499 1.000000
0.000000 0.050101 1.000000
0.004482 0.049702 1.000000
0.030450 0.047392 1.000000
0.148012 0.045468 1.000000
0.676104 0.036600 1.000000
1.000000 0.030565 1.000000
1.000000 0.030565 1.000000
1.000000 0.030565 1.000000
0.000000 0.205987 1.000000
0.003807 0.205639 1.000000
0.027222 0.203522 1.000000
0.135554 0.196019 1.000000
0.666006 0.170188 1.000000
1.000000 0.146379 1.000000
1.000000 0.146379 1.000000
1.000000 0.146379 1.000000
0.000000 0.805159 1.000000
0.001663 0.804859 1.000000
0.011822 0.803114 1.000000
0.091568 0.797130 1.000000
0.631856 0.776867 1.000000
1.000000 0.758869 1.000000
1.000000 0.758869 1.000000
1.000000 0.758869 1.000000
0.000000 1.000000 1.000000
0.000000 1.000000 1.000000
0.000000 1.000000 1.000000
0.046796 1.000000 1.000000
0.601280 1.000000 1.000000
1.000000 1.000000 1.000000
1.000000 1.000000 1.000000
1.000000 1.000000 1.000000
0.000000 1.000000 1.000000
0.000000 1.000000 1.000000
0.000000 1.000000 1.000000
0.046796 1.000000 1.000000
0.601280 1.000000 1.000000
1.000000 1.000000 1.000000
1.000000 1.000000 1.000000
1.000000 1.000000 1.000000
0.000000 1.000000 1.000000
0.000000 1.000000 1.000000
0.000000 1.000000 1.000000
0.046796 1.000000 1.000000
0.601280 1.000000 1.000000
1.000000 1.000000 1.000000
1.000000 1.000000 1.000000
1.000000 1.000000 1.000000
0.000000 0.000000 1.000000
0.005143 0.000000 1.000000
0.034942 0.000000 1.000000
0.152107 0.000000 1.000000
0.679544 0.000000 1.000000
1.000000 0.000000 1.000000
1.000000 0.000000 1.000000
1.000000 0.000000 1.000000
0.000000 0.007374 1.000000
0.004482 0.006975 1.000000
0.034281 0.006975 1.000000
0.151529 0.006573 1.000000
0.679039 0.005344 1.000000
1.000000 0.004499 1.000000
1.000000 0.004499 1.000000
1.000000 0.004499 1.000000
0.000000 0.050101 1.000000
0.004482 0.049702 1.000000
0.030450 0.047392 1.000000
0.148012 0.045468 1.000000
0.676104 0.036600 1.000000
1.000000 0.030565 1.000000
1.000000 0.030565 1.000000
1.000000 0.030565 1.000000
0.000000 0.205987 1.000000
0.003807 0.205639 1.000000
0.027222 0.203522 1.000000
0.135554 0.196019 1.000000
0.666006 0.170188 1.000000
1.000000 0.146379 1.000000
1.000000 0.146379 1.000000
1.000000 0.146379 1.000000
0.000000 0.805159 1.000000
0.001663 0.804859 1.000000
0.011822 0.803114 1.000000
0.091568 0.797130 1.000000
0.631856 0.776867 1.000000
1.000000 0.758869 1.000000
1.000000 0.758869 1.000000
1.000000 0.758869 1.000000
0.000000 1.000000 1.000000
0.000000 1.000000 1.000000
0.000000 1.000000 1.000000
0.046796 1.000000 1.000000
0.601280 1.000000 1.000000
1.000000 1.000000 1.000000
1.000000 1.000000 1.000000
1.000000 1.000000 1.000000
0.000000 1.000000 1.000000
0.000000 1.000000 1.000000
0.000000 1.000000 1.000000
0.046796 1.000000 1.000000
0.601280 1.000000 1.000000
1.000000 1.000000 1.000000
1.000000 1.000000 1.000000
1.000000 1.000000 1.000000
0.000000 1.000000 1.000000
0.000000 1.000000 1.000000
0.000000 1.000000 1.000000
0.046796 1.000000 1.000000
0.601280 1.000000 1.000000
1.000000 1.000000 1.000000
1.000000 1.000000 1.000000
1.000000 1.000000 1.000000
0.000000 0.000000 1.000000
0.005143 0.000000 1.000000
0.034942 0.000000 1.000000
0.152107 0.000000 1.000000
0.679544 0.000000 1.000000
1.000000 0.000000 1.000000
1.000000 0.000000 1.000000
1.000000 0.000000 1.000000
0.000000 0.007374 1.000000
0.004482 0.006975 1.000000
0.034281 0.006975 1.000000
0.151529 0.006573 1.000000
0.679040 0.005344 1.000000
1.000000 0.004499 1.000000
1.000000 0.004499 1.000000
1.000000 0.004499 1.000000
0.000000 0.050101 1.000000
0.004482 0.049702 1.000000
0.030450 0.047392 1.000000
0.148012 0.045468 1.000000
0.676104 0.036600 1.000000
1.000000 0.030565 1.000000
1.000000 0.030565 1.000000
1.000000 0.030565 1.000000
0.000000 0.205987 1.000000
0.003807 0.205639 1.000000
0.027222 0.203522 1.000000
0.135554 0.196019 1.000000
0.666006 0.170188 1.000000
1.000000 0.146379 1.000000
1.000000 0.146379 1.000000
1.000000 0.146379 1.000000
0.000000 0.805159 1.000000
0.001663 0.804859 1.000000
0.011822 0.803114 1.000000
0.091568 0.797130 1.000000
0.631856 0.776867 1.000000
1.000000 0.758869 1.000000
1.000000 0.758869 1.000000
1.000000 0.758870 1.000000
0.000000 1.000000 1.000000
0.000000 1.000000 1.000000
0.000000 1.000000 1.000000
0.046796 1.000000 1.000000
0.601280 1.000000 1.000000
1.000000 1.000000 1.000000
1.000000 1.000000 1.000000
1.000000 1.000000 1.000000
0.000000 1.000000 1.000000
0.000000 1.000000 1.000000
0.000000 1.000000 1.000000
0.046796 1.000000 1.000000
0.601280 1.000000 1.000000
1.000000 1.000000 1.000000
1.000000 1.000000 1.000000
1.000000 1.000000 1.000000
0.000000 1.000000 1.000000
0.000000 1.000000 1.000000
0.000000 1.000000 1.000000
0.046796 1.000000 1.000000
0.601280 1.000000 1.000000
1.000000 1.000000 1.000000
1.000000 1.000000 1.000000
1.000000 1.000000 1.000000
